!!!!SEGMENT: pl-cz--iii-453--001-001_maader-ludwik--rorate-caeli-rorate.krn
!!!cenid: 17xx:980
!!!COM: Maader, Ludwik
!!!COM-rismid: pe30020328
!!!CDT: <1794->1798
!!!CNT:
!!!OPR: Rorate caeli
!!!OTL: Rorate
!!!OMV: 001
!!!PDT: 1784
!!!AGN: Sacred
!!!SMS-siglum: PL-CZ
!!!SMS-shelfmark: III-453
!!!SMS-shelfwork: 001-001 M
!!!SMS-variant:
!!!SMS-altvar:
!!!NIFC-rismid: 300000768
!!!URL-scan: http://repozytorium.nifc.pl/skany/pl-cz-nut--iii-453
!!!ONB-nifc: UWAGA: części Rorate caeli: Rorate, Mittit ad virginem, Zdrowaś bądź Maria, Super bientium, Łaskiś pełna pańskiej, Qui nobis tribuat, Amen
!!!AIN: 1 alto 1 bass 2 oboe 1 organ 1 soprn 1 tenor 1 timpa 2 tromb 2 violn
!!!key: D
**kern	**text	**fba	**dynam	**kern	**text	**dynam	**kern	**text	**dynam	**kern	**text	**kern	**text	**kern	**text	**kern	**text	**kern	**dynam	**kern	**kern	**kern	**kern
*	*	*	*	*group4	*	*	*group4	*	*	*group3	*	*group3	*	*group3	*	*group3	*	*	*	*group2	*group2	*group1	*group1
*part12	*part12	*part12	*part12	*part11	*part11	*part11	*part10	*part10	*part10	*part9	*part9	*part8	*part8	*part7	*part7	*part6	*part6	*part5	*	*part4	*part3	*part2	*part1
*staff12	*staff12	*	*	*staff11	*staff11	*	*staff10	*staff10	*	*staff9	*staff9	*staff8	*staff8	*staff7	*staff7	*staff6	*staff6	*staff5	*	*staff4	*staff3	*staff2	*staff1
*I"Organo.	*	*	*	*I"Violino Secondo	*	*	*I"Violino Primo.	*	*	*I"Baſso.	*	*I"Tenore	*	*I"Alto.	*	*I"Canto.	*	*I"Tympano in D.A.	*	*I"Clarino IIdo ex D#.	*I"Clarino Imo. ex D.#	*I"Oboe Secondo	*I"Oboe Imo.
*I'org	*	*	*	*I'vl 2	*	*	*I'vl 1	*	*	*I'B	*	*I'T	*	*I'A	*	*I'S	*	*I'timp	*	*I'clno 2 in E|b	*I'clno 1 in E|b	*I'ob 2	*I'ob 1
*Iorgan	*	*	*	*Ivioln	*	*	*Ivioln	*	*	*Ibass	*	*Itenor	*	*Ialto	*	*Isoprn	*	*Itimpa	*	*Itromb	*Itromb	*Ioboe	*Ioboe
*ICklav	*	*	*	*ICstr	*	*	*ICstr	*	*	*ICvox	*	*ICvox	*	*ICvox	*	*ICvox	*	*ICidio	*	*ICbras	*ICbras	*ICww	*ICww
*IGcont	*	*	*	*	*	*	*	*	*	*IGcoro	*	*IGcoro	*	*IGcoro	*	*IGcoro	*	*	*	*	*	*	*
*clefF4	*	*	*	*clefG2	*	*	*clefG2	*	*	*clefF4	*	*clefC4	*	*clefC3	*	*clefC1	*	*clefF4	*	*clefG2	*clefG2	*clefG2	*clefG2
*	*	*	*	*	*	*	*	*	*	*	*	*	*	*	*	*	*	*	*	*ITrd-1c-2	*ITrd-1c-2	*	*
*k[c#f#]	*	*	*	*k[f#c#]	*	*	*k[c#f#]	*	*	*k[c#f#]	*	*k[f#c#]	*	*k[f#c#]	*	*k[c#f#]	*	*k[]	*	*k[f#c#]	*k[f#c#]	*k[]	*k[c#f#]
*D:	*	*	*	*D:	*	*	*D:	*	*	*D:	*	*D:	*	*D:	*	*D:	*	*D:	*	*D:	*D:	*D:	*D:
!	!	!	!	!	!	!	!	!	!	!	!	!	!	!	!	!	!	!	!	!	!	!LO:TX:a:t=P:problem=brak znaków przykluczowych	!
!	!	!	!	!	!	!	!	!	!	!	!	!	!	!	!	!LO:TX:t=P:problem=kolejność znaków cc# f#	!	!LO:TX:a:i:t=Intonat	!	!LO:TX:a:t=Rorate\nintonat	!LO:TX:a:t=Rorate\nintonat	!LO:TX:a:t=intonat\nChoral	!
C#	Ro-	.	.	e	Ro-	.	e	Ro-	.	C#	Ro-	C#	Ro-	c#	Ro-	c#	Ro-	ryy	.	ryy	ryy	ryy	ryy
D	.	.	.	ryy	.	.	ryy	.	.	D	.	D	.	d	.	d	.	ryy	.	ryy	ryy	ryy	ryy
A	.	.	.	g	.	.	g	.	.	A	.	A	.	a	.	a	.	ryy	.	ryy	ryy	ryy	ryy
c#	.	.	.	b	.	.	b	.	.	c#	.	c#	.	cc#	.	cc#	.	ryy	.	ryy	ryy	ryy	ryy
A	-ra-	.	.	a	-ra-	.	a	-ra-	.	A	-ra-	A	-ra-	a	-ra-	a	-ra-	ryy	.	ryy	ryy	ryy	ryy
A	-te	.	.	a	-te	.	a	-te	.	A	-te	A	-te	a	-te	a	-te	ryy	.	ryy	ryy	ryy	ryy
=1||	=1||	=1||	=1||	=1||	=1||	=1||	=1||	=1||	=1||	=1||	=1||	=1||	=1||	=1||	=1||	=1||	=1||	=1||	=1||	=1||	=1||	=1||	=1||
*M4/4	*	*	*	*M4/4	*	*	*M4/4	*	*	*M4/4	*	*M4/4	*	*M4/4	*	*M4/4	*	*M4/4	*	*M4/4	*M4/4	*M4/4	*M4/4
*met(c)	*	*	*	*met(c)	*	*	*met(c)	*	*	*met(c)	*	*met(c)	*	*met(c)	*	*met(c)	*	*met(c)	*	*met(c)	*met(c)	*met(c)	*met(c)
!LO:TX:a:B:t=allegro	!	!	!	!LO:TX:a:B:t=allegro.	!	!	!LO:TX:a:B:t=allegro	!	!	!LO:TX:a:B:t=allo.	!	!LO:TX:a:B:t=allegro.	!	!LO:TX:a:B:t=allegro.	!	!LO:TX:a:B:t=allegro.	!	!LO:TX:a:B:t=Allegro	!	!LO:TX:a:B:t=allegro	!LO:TX:a:B:t=allegro	!LO:TX:a:B:t=allegro	!LO:TX:a:B:t=allegro.
8D\L|	.	.	.	8d/L	.	.	8d/L	.	.	1r	.	1r	.	1r	.	1r	.	8D\L	f	8d/L	8d/L	1r	1r
16D\L|	.	.	.	16d/L	.	.	16d/L	.	.	.	.	.	.	.	.	.	.	16D\L	.	16d/L	16d/L	.	.
16D\JJ|	.	.	.	16d/JJ	.	.	16d/JJ	.	.	.	.	.	.	.	.	.	.	16D\JJ	.	16d/JJ	16d/JJ	.	.
16F#\LL|	.	.	.	16f#/LL	.	.	16f#/LL	.	.	.	.	.	.	.	.	.	.	8D\L	.	16f#/LL	16f#/LL	.	.
16D\|	.	.	.	16d/	.	.	16d/	.	.	.	.	.	.	.	.	.	.	.	.	16d/	16d/	.	.
16A\|	.	.	.	16a/	.	.	16a/	.	.	.	.	.	.	.	.	.	.	8AA\J	.	16a/	16a/	.	.
16F#\JJ|	.	.	.	16f#/JJ	.	.	16f#/JJ	.	.	.	.	.	.	.	.	.	.	.	.	16f#/JJ	16f#/JJ	.	.
!	!	!	!	!LO:TX:t=P:problem=mixed beam	!	!	!LO:TX:t=P:problem=mixed beam	!	!	!	!	!	!	!	!	!	!	!	!	!	!	!	!
8d\L|	.	.	.	8dd\L	.	.	8dd\L	.	.	.	.	.	.	.	.	.	.	4D\	.	8dd\	8dd\	.	.
8F#\|	.	.	.	8f#/	.	.	8f#/	.	.	.	.	.	.	.	.	.	.	.	.	8r	8r	.	.
8G\|	.	.	.	8g/	.	.	8g/	.	.	.	.	.	.	.	.	.	.	4r	.	4r	4r	.	.
8A\J|	.	.	.	8a/J	.	.	8a/J	.	.	.	.	.	.	.	.	.	.	.	.	.	.	.	.
=2	=2	=2	=2	=2	=2	=2	=2	=2	=2	=2	=2	=2	=2	=2	=2	=2	=2	=2	=2	=2	=2	=2	=2
!	!	!	!	!LO:TX:t=P:problem=mixed beam	!	!	!LO:TX:t=P:problem=mixed beam	!	!	!	!	!	!	!	!	!	!	!	!	!	!	!	!
8D\L	.	.	.	8d/L	.	.	8d/L	.	.	8r	.	8r	.	8r	.	8r	.	8r	.	8r	8r	8r	8r
8d\J	.	.	.	8a\J	.	.	8ff#\J	.	.	8d\	Ro-	8d\	Ro-	8a\	Ro-	8ff#\	Ro-	8D\	.	8dd\	8ff#\	8dd\	8ff#\
4c#\	.	6	.	4a\	.	.	4ee\	.	.	4A\	-ra-	4e\	-ra-	4a\	-ra-	4ee\	-ra-	4AAT/	.	4a/	4ee\	4a/	4ee\
!	!	!	!	!	!	!	!	!	!	!	!	!	!	!	!	!	!	!	!	!LO:TX:t=P:problem=mixed beam	!	!	!
8d\L	.	.	.	8a/L	.	.	8ff#\L	.	.	8d\	-te	8d\	-te	8a\	-te	8ff#\	-te	8D\L	.	8dd\L	8ff#\	8a/L	8ee\L
*	*	*	*	*	*	*	*	*	*	*	*ij	*	*ij	*	*ij	*	*	*	*	*	*	*	*
!	!	!	!	!	!	!	!	!	!	!	!	!	!	!	!	!	!	!	!	!	!	!LO:SIC:v:s=8f#/J	!
8F#\	.	.	.	8f#/J	.	.	8dd\	.	.	8F#\	Ro-	8A\	Ro-	8f#\	Ro-	8dd\	Ro-	8D\J	.	8f#/J	4dd\	8f/J	8dd\
8G\	.	.	.	4e/	.	.	8dd\	.	.	8G\L	-ra-	8B\L	-ra-	4e\	-ra-	8dd\L	-ra-	8r	.	8r	.	4e/	8dd\
8A\J	.	.	.	.	.	.	8cc#\J	.	.	8A\J	.	8A\J	.	.	.	8cc#\J	.	8AA/	.	8a/	8ee\	.	8cc#\J
=3	=3	=3	=3	=3	=3	=3	=3	=3	=3	=3	=3	=3	=3	=3	=3	=3	=3	=3	=3	=3	=3	=3	=3
!	!	!	!	!	!	!	!LO:TX:t=P:problem=mixed beam	!	!	!	!	!	!	!	!	!	!	!	!	!LO:TX:t=P:problem=mixed beam	!LO:TX:t=P:problem=mixed beam	!LO:SIC:v:s=4f#/	!
8D\L|	.	.	.	8f#/L	.	.	8dd\L	.	.	4D\	-te	4A\	-te	4f#\	-te	4dd\	-te	8D\L	.	8dd\L	8dd\L	4f/	4dd\
*	*	*	*	*	*	*	*	*	*	*	*Xij	*	*Xij	*	*Xij	*	*	*	*	*	*	*	*
16D\L|	.	.	.	16d/L	.	.	16d/L	.	.	.	.	.	.	.	.	.	.	16D\L	.	16d/L	16d/L	.	.
16D\JJ|	.	.	.	16d/JJ	.	.	16d/JJ	.	.	.	.	.	.	.	.	.	.	16D\JJ	.	16d/JJ	16d/JJ	.	.
16F#\LL|	.	.	.	16f#/LL	.	.	16f#/LL	.	.	4r	.	4r	.	4r	.	4r	.	8D\L	.	16f#/LL	16f#/LL	4r	4r
16D\|	.	.	.	16d/	.	.	16d/	.	.	.	.	.	.	.	.	.	.	.	.	16d/	16d/	.	.
16A\|	.	.	.	16a/	.	.	16a/	.	.	.	.	.	.	.	.	.	.	8AA\J	.	16a/	16a/	.	.
16F#\JJ|	.	.	.	16f#/JJ	.	.	16f#/JJ	.	.	.	.	.	.	.	.	.	.	.	.	16f#/JJ	16f#/JJ	.	.
!LO:TX:t=P:problem=mixed beam	!	!	!	!	!	!	!	!	!	!	!	!	!	!	!	!	!	!	!	!	!	!	!
!	!	!	!	!LO:TX:t=P:problem=mixed beam	!	!	!LO:TX:t=P:problem=mixed beam	!	!	!	!	!	!	!	!	!	!	!	!	!	!	!	!
8d\L|	.	.	.	8dd\L	.	.	8dd\L	.	.	2r	.	2r	.	2r	.	2r	.	4D\	.	4dd\	4dd\	2r	2r
16D/L|>	.	.	.	16d/L	.	.	16d/L	.	.	.	.	.	.	.	.	.	.	.	.	.	.	.	.
16D/JJ|>	.	.	.	16d/JJ	.	.	16d/JJ	.	.	.	.	.	.	.	.	.	.	.	.	.	.	.	.
16G\LL|	.	.	.	16g/LL	.	.	16g/LL	.	.	.	.	.	.	.	.	.	.	4r	.	4r	4r	.	.
16D\|	.	.	.	16d/	.	.	16d/	.	.	.	.	.	.	.	.	.	.	.	.	.	.	.	.
16B\|	.	.	.	16b/	.	.	16b/	.	.	.	.	.	.	.	.	.	.	.	.	.	.	.	.
16G\JJ|	.	.	.	16g/JJ	.	.	16g/JJ	.	.	.	.	.	.	.	.	.	.	.	.	.	.	.	.
!LO:LB:g=original	!	!	!	!LO:LB:g=original	!	!	!LO:LB:g=original	!	!	!	!	!	!	!	!	!	!	!	!	!	!	!	!
=4	=4	=4	=4	=4	=4	=4	=4	=4	=4	=4	=4	=4	=4	=4	=4	=4	=4	=4	=4	=4	=4	=4	=4
!LO:TX:t=P:problem=mixed beam	!	!	!	!LO:TX:t=P:problem=mixed beam	!	!	!LO:TX:t=P:problem=mixed beam	!	!	!	!	!	!	!	!	!	!	!	!	!LO:TX:t=P:problem=mixed beam	!LO:TX:t=P:problem=mixed beam	!	!
8d\L|	.	.	.	8dd\L	.	.	8dd\L	.	.	1r	.	1r	.	1r	.	1r	.	8D\L	.	8dd\L	8dd\L	1r	1r
16D/L|>	.	.	.	16d/L	.	.	16d/L	.	.	.	.	.	.	.	.	.	.	16D\L	.	16d/L	16d/L	.	.
16D/JJ|>	.	.	.	16d/JJ	.	.	16d/JJ	.	.	.	.	.	.	.	.	.	.	16D\JJ	.	16d/JJ	16d/JJ	.	.
16F#\LL|	.	.	.	16f#/LL	.	.	16f#/LL	.	.	.	.	.	.	.	.	.	.	8D\L	.	16f#/LL	16f#/LL	.	.
16D\|	.	.	.	16d/	.	.	16d/	.	.	.	.	.	.	.	.	.	.	.	.	16d/	16d/	.	.
16A\|	.	.	.	16a/	.	.	16a/	.	.	.	.	.	.	.	.	.	.	8AA\J	.	16a/	16a/	.	.
16F#\JJ|	.	.	.	16f#/JJ	.	.	16f#/JJ	.	.	.	.	.	.	.	.	.	.	.	.	16f#/JJ	16f#/JJ	.	.
8d'\L	.	.	.	8dd\L	.	.	8dd\L	.	.	.	.	.	.	.	.	.	.	8D\L	.	8dd\L	8dd\L	.	.
16A'\L	.	.	.	16a\L	.	.	16a\L	.	.	.	.	.	.	.	.	.	.	8AA\	.	16a\L	16a\L	.	.
16A'\JJ	.	.	.	16a\JJ	.	.	16a\JJ	.	.	.	.	.	.	.	.	.	.	.	.	16a\JJ	16a\JJ	.	.
8F#\L|	.	.	.	8f#/L	.	.	8f#/L	.	.	.	.	.	.	.	.	.	.	8D\	.	8f#/L	8f#/L	.	.
8D\J|	.	.	.	8d/J	.	.	8d/J	.	.	.	.	.	.	.	.	.	.	8D\J	.	8d/J	8d/J	.	.
!	!	!	!	!	!	!	!	!	!	!LO:LB:g=original	!	!LO:LB:g=original	!	!	!	!	!	!LO:LB:g=original	!	!	!LO:LB:g=original	!	!
=5	=5	=5	=5	=5	=5	=5	=5	=5	=5	=5	=5	=5	=5	=5	=5	=5	=5	=5	=5	=5	=5	=5	=5
*	*	*	*	*^	*	*	*	*	*	*	*	*	*	*	*	*	*	*	*	*	*	*	*
*	*	*	*	*2\right	*	*	*	*	*	*	*	*	*	*	*	*	*	*	*	*	*	*	*	*
*	*	*	*	*tremolo	*	*	*	*	*	*	*	*	*2\right	*	*2\right	*	*2\right	*	*	*	*	*	*	*
8AA/L	.	.	.	16a 16e/LL	16e\LL	.	.	8r	.	.	2C#/	Ro-	2e\	Ro-	2a\	Ro-	2gg\	Ro-	4AA/	.	4a/	4a/	2r	2r
.	.	.	.	16a 16e/	16e\	.	.	.	.	.	.	.	.	.	.	.	.	.	.	.	.	.	.	.
8C#/	.	6_ 5_	.	16a 16e/	16e\	.	.	16a/LL	.	.	.	.	.	.	.	.	.	.	.	.	.	.	.	.
.	.	.	.	16a 16e/	16e\	.	.	16a/JJ	.	.	.	.	.	.	.	.	.	.	.	.	.	.	.	.
8C#/	.	.	.	16a 16e/	16e\	.	.	8a/L	.	.	.	.	.	.	.	.	.	.	4r	.	4r	4r	.	.
.	.	.	.	16a 16e/	16e\	.	.	.	.	.	.	.	.	.	.	.	.	.	.	.	.	.	.	.
8C#/J	.	.	.	16a 16e/	16e\	.	.	8a/J	.	.	.	.	.	.	.	.	.	.	.	.	.	.	.	.
.	.	.	.	16a 16e/JJ	16e\JJ	.	.	.	.	.	.	.	.	.	.	.	.	.	.	.	.	.	.	.
*2\right	*	*	*	*	*	*	*	*	*	*	*	*	*	*	*	*	*	*	*	*	*	*	*	*
*tremolo	*	*	*	*	*	*	*	*	*	*	*	*	*	*	*	*	*	*	*tremolo	*	*	*2\right	*2\right	*2\right
!	!	!	!	!	!	!	!	!	!	!	!	!	!	!	!	!	!	!	!	!	!LO:LB:g=original	!	!	!
8C#\L	.	.	.	16a 16e/LL	16e\LL	.	.	8gg\L	.	.	4C#/	-ra-	4e\	-ra-	4a\	-ra-	4gg\	-ra-	16AATT/LL	.	2a/	2ee\	2ee\	2gg\
.	.	.	.	16a 16e/	16e\	.	.	.	.	.	.	.	.	.	.	.	.	.	16AATTT/	.	.	.	.	.
8C#\	.	.	.	16a 16e/	16e\	.	.	8ee\J	.	.	.	.	.	.	.	.	.	.	16AATTT/	.	.	.	.	.
.	.	.	.	16a 16e/	16e\	.	.	.	.	.	.	.	.	.	.	.	.	.	16AATTT/	.	.	.	.	.
8C#\	.	.	.	16a 16e/	16e\	.	.	4a/	.	.	4C#/	-te	4e\	-te	4a\	-te	4gg\	-te	16AATTT/	.	.	.	.	.
.	.	.	.	16a 16e/	16e\	.	.	.	.	.	.	.	.	.	.	.	.	.	16AATTT/	.	.	.	.	.
8C#\J	.	.	.	16a 16e/	16e\	.	.	.	.	.	.	.	.	.	.	.	.	.	16AATTT/	.	.	.	.	.
.	.	.	.	16a 16e/JJ	16e\JJ	.	.	.	.	.	.	.	.	.	.	.	.	.	16AATTT/JJ	.	.	.	.	.
!	!	!	!	!	!	!	!	!	!	!	!	!	!	!	!LO:LB:g=original	!	!	!	!	!	!	!	!	!
=6	=6	=6	=6	=6	=6	=6	=6	=6	=6	=6	=6	=6	=6	=6	=6	=6	=6	=6	=6	=6	=6	=6	=6	=6
*	*	*	*	*	*	*	*	*	*	*	*2\right	*	*	*	*	*	*	*	*	*	*	*	*	*
8D\L	.	x	.	16a/LL	16f#\LL	.	.	8r	.	.	2D\	Coe-	2d\	Coe-	2a\	Coe-	2ff#\	Coe-	16DTTLL	.	1f#	1dd	1dd	1ff#
.	.	.	.	16a/	16f#\	.	.	.	.	.	.	.	.	.	.	.	.	.	16DTTT	.	.	.	.	.
8D\	.	.	.	16a/	16f#\	.	.	16a/LL	.	.	.	.	.	.	.	.	.	.	16DTTT	.	.	.	.	.
.	.	.	.	16a/	16f#\	.	.	16a/JJ	.	.	.	.	.	.	.	.	.	.	16DTTT	.	.	.	.	.
8D\	.	.	.	16a/	16f#\	.	.	8a/L	.	.	.	.	.	.	.	.	.	.	16DTTT	.	.	.	.	.
.	.	.	.	16a/	16f#\	.	.	.	.	.	.	.	.	.	.	.	.	.	16DTTT	.	.	.	.	.
8D\J	.	.	.	16a/	16f#\	.	.	8a/J	.	.	.	.	.	.	.	.	.	.	16DTTT	.	.	.	.	.
.	.	.	.	16a/JJ	16f#\JJ	.	.	.	.	.	.	.	.	.	.	.	.	.	16DTTT	.	.	.	.	.
8D\L	.	.	.	16a/LL	16f#\LL	.	.	8ff#\L	.	.	2D\	-li	2d\	-li	2a\	-li	2ff#\	-li	16DTTT	.	.	.	.	.
.	.	.	.	16a/	16f#\	.	.	.	.	.	.	.	.	.	.	.	.	.	16DTTT	.	.	.	.	.
8D\	.	.	.	16a/	16f#\	.	.	8dd\J	.	.	.	.	.	.	.	.	.	.	16DTTT	.	.	.	.	.
.	.	.	.	16a/	16f#\	.	.	.	.	.	.	.	.	.	.	.	.	.	16DTTT	.	.	.	.	.
8D\	.	.	.	16a/	16f#\	.	.	4a/	.	.	.	.	.	.	.	.	.	.	16DTTT	.	.	.	.	.
.	.	.	.	16a/	16f#\	.	.	.	.	.	.	.	.	.	.	.	.	.	16DTTT	.	.	.	.	.
8D\J	.	.	.	16a/	16f#\	.	.	.	.	.	.	.	.	.	.	.	.	.	16DTTT	.	.	.	.	.
.	.	.	.	16a/JJ	16f#\JJ	.	.	.	.	.	.	.	.	.	.	.	.	.	16DTTTJJ	.	.	.	.	.
=7	=7	=7	=7	=7	=7	=7	=7	=7	=7	=7	=7	=7	=7	=7	=7	=7	=7	=7	=7	=7	=7	=7	=7	=7
8C#\L	.	6	.	16a/LL	16e\LL	.	.	8r	.	.	2C#/	Ro-	2e\	Ro-	2a\	Ro-	2gg\	Ro-	16AATTLL	.	1a	1ee	1ee	1gg
.	.	.	.	16a/	16e\	.	.	.	.	.	.	.	.	.	.	.	.	.	16AATTT	.	.	.	.	.
8C#\	.	.	.	16a/	16e\	.	.	16a/LL	.	.	.	.	.	.	.	.	.	.	16AATTT	.	.	.	.	.
.	.	.	.	16a/	16e\	.	.	16a/JJ	.	.	.	.	.	.	.	.	.	.	16AATTT	.	.	.	.	.
8C#\	.	.	.	16a/	16e\	.	.	8a/L	.	.	.	.	.	.	.	.	.	.	16AATTT	.	.	.	.	.
.	.	.	.	16a/	16e\	.	.	.	.	.	.	.	.	.	.	.	.	.	16AATTT	.	.	.	.	.
8C#\J	.	.	.	16a/	16e\	.	.	8a/J	.	.	.	.	.	.	.	.	.	.	16AATTT	.	.	.	.	.
.	.	.	.	16a/JJ	16e\JJ	.	.	.	.	.	.	.	.	.	.	.	.	.	16AATTT	.	.	.	.	.
8C#\L	.	.	.	16a/LL	16e\LL	.	.	8gg\L	.	.	4C#/	-ra-	4e\	-ra-	4a\	-ra-	4gg\	-ra-	16AATTT	.	.	.	.	.
.	.	.	.	16a/	16e\	.	.	.	.	.	.	.	.	.	.	.	.	.	16AATTT	.	.	.	.	.
8C#\	.	.	.	16a/	16e\	.	.	8ee\J	.	.	.	.	.	.	.	.	.	.	16AATTT	.	.	.	.	.
.	.	.	.	16a/	16e\	.	.	.	.	.	.	.	.	.	.	.	.	.	16AATTT	.	.	.	.	.
8C#\	.	.	.	16a/	16e\	.	.	4a/	.	.	4C#/	-te	4e\	-te	4a\	-te	4gg\	-te	16AATTT	.	.	.	.	.
.	.	.	.	16a/	16e\	.	.	.	.	.	.	.	.	.	.	.	.	.	16AATTT	.	.	.	.	.
8C#\J	.	.	.	16a/	16e\	.	.	.	.	.	.	.	.	.	.	.	.	.	16AATTT	.	.	.	.	.
.	.	.	.	16a/JJ	16e\JJ	.	.	.	.	.	.	.	.	.	.	.	.	.	16AATTTJJ	.	.	.	.	.
!	!	!	!	!	!	!	!	!	!	!	!	!	!	!	!	!	!LO:LB:g=original	!	!	!	!	!	!LO:LB:g=original	!
=8	=8	=8	=8	=8	=8	=8	=8	=8	=8	=8	=8	=8	=8	=8	=8	=8	=8	=8	=8	=8	=8	=8	=8	=8
8D\L	.	.	.	16a/LL	16f#\LL	.	.	8r	.	.	2D\	Coe-	2d\	Coe-	2a\	Coe-	2ff#\	Coe-	16DTTLL	.	1f#	1dd	1dd	1ff#
.	.	.	.	16a/	16f#\	.	.	.	.	.	.	.	.	.	.	.	.	.	16DTTT	.	.	.	.	.
8D\	.	.	.	16a/	16f#\	.	.	16a/LL	.	.	.	.	.	.	.	.	.	.	16DTTT	.	.	.	.	.
.	.	.	.	16a/	16f#\	.	.	16a/JJ	.	.	.	.	.	.	.	.	.	.	16DTTT	.	.	.	.	.
8D\	.	.	.	16a/	16f#\	.	.	8a/L	.	.	.	.	.	.	.	.	.	.	16DTTT	.	.	.	.	.
.	.	.	.	16a/	16f#\	.	.	.	.	.	.	.	.	.	.	.	.	.	16DTTT	.	.	.	.	.
8D\J	.	.	.	16a/	16f#\	.	.	8a/J	.	.	.	.	.	.	.	.	.	.	16DTTT	.	.	.	.	.
.	.	.	.	16a/JJ	16f#\JJ	.	.	.	.	.	.	.	.	.	.	.	.	.	16DTTT	.	.	.	.	.
8D\L	.	.	.	16a/LL	16f#\LL	.	.	8ff#\L	.	.	2D\	-li	2d\	-li	2a\	-li	2ff#\	-li	16DTTT	.	.	.	.	.
.	.	.	.	16a/	16f#\	.	.	.	.	.	.	.	.	.	.	.	.	.	16DTTT	.	.	.	.	.
8D\	.	.	.	16a/	16f#\	.	.	8dd\J	.	.	.	.	.	.	.	.	.	.	16DTTT	.	.	.	.	.
.	.	.	.	16a/	16f#\	.	.	.	.	.	.	.	.	.	.	.	.	.	16DTTT	.	.	.	.	.
8D\	.	.	.	16a/	16f#\	.	.	4a/	.	.	.	.	.	.	.	.	.	.	16DTTT	.	.	.	.	.
.	.	.	.	16a/	16f#\	.	.	.	.	.	.	.	.	.	.	.	.	.	16DTTT	.	.	.	.	.
8D\J	.	.	.	16a/	16f#\	.	.	.	.	.	.	.	.	.	.	.	.	.	16DTTT	.	.	.	.	.
.	.	.	.	16a/JJ	16f#\JJ	.	.	.	.	.	.	.	.	.	.	.	.	.	16DTTTJJ	.	.	.	.	.
*	*	*	*	*	*	*	*	*	*	*	*	*	*	*	*	*	*	*	*Xtremolo	*	*	*	*	*
*	*	*	*	*v	*v	*	*	*	*	*	*	*	*	*	*	*	*	*	*	*	*	*	*	*
=9	=9	=9	=9	=9	=9	=9	=9	=9	=9	=9	=9	=9	=9	=9	=9	=9	=9	=9	=9	=9	=9	=9	=9
!	!	!	!	!	!	!	!	!	!	!	!	!LO:TX:t=P:problem=brak taktów nr 9-10	!	!	!	!	!	!	!	!	!	!	!
8G\L	.	.	.	16b 16d/LL	.	.	16b\LL	.	.	4G\	de-	1ryy	.	4g\	de-	2b\	de-	8D\L	.	8d/L	8d/L	1d	1b
.	.	.	.	16b 16d/	.	.	16cc#\	.	.	.	.	.	.	.	.	.	.	.	.	.	.	.	.
8G\	.	.	.	16b 16d/	.	.	16dd\	.	.	.	.	.	.	.	.	.	.	16D\L	.	16d/L	16d/L	.	.
.	.	.	.	16b 16d/	.	.	16cc#\JJ	.	.	.	.	.	.	.	.	.	.	16D\JJ	.	16d/JJ	16d/JJ	.	.
8G\	.	.	.	16b 16d/	.	.	8dd\L	.	.	4G\	-Su-	.	.	4g\	-Su-	.	.	8D\L	.	8d/L	8d/L	.	.
.	.	.	.	16b 16d/	.	.	.	.	.	.	.	.	.	.	.	.	.	.	.	.	.	.	.
8G\J	.	.	.	16b 16d/	.	.	8b\J	.	.	.	.	.	.	.	.	.	.	8D\J	.	8d/J	8d/J	.	.
.	.	.	.	16b 16d/JJ	.	.	.	.	.	.	.	.	.	.	.	.	.	.	.	.	.	.	.
!	!	!	!	!	!	!	!LO:LB:g=original	!	!	!	!	!	!	!	!	!	!	!	!	!	!	!	!
8G\L	.	.	.	16b 16d/LL	.	.	16b\LL	.	.	4G\	-per	.	.	4g\	-per	2b\	-Su-	8D\L	.	8d/L	8d/L	.	.
.	.	.	.	16b 16d/	.	.	16cc#\	.	.	.	.	.	.	.	.	.	.	.	.	.	.	.	.
8G\	.	.	.	16b 16d/	.	.	16dd\	.	.	.	.	.	.	.	.	.	.	16D\L	.	16d/L	16d/L	.	.
.	.	.	.	16b 16d/	.	.	16cc#\JJ	.	.	.	.	.	.	.	.	.	.	16D\JJ	.	16d/JJ	16d/JJ	.	.
8G\	.	.	.	16b 16d/	.	.	8dd\L	.	.	4G\	et	.	.	4g\	et	.	.	8D\L	.	8d/L	8d/L	.	.
.	.	.	.	16b 16d/	.	.	.	.	.	.	.	.	.	.	.	.	.	.	.	.	.	.	.
8G\J	.	.	.	16b 16d/	.	.	8b\J	.	.	.	.	.	.	.	.	.	.	8D\J	.	8d/J	8d/J	.	.
.	.	.	.	16b 16d/JJ	.	.	.	.	.	.	.	.	.	.	.	.	.	.	.	.	.	.	.
=10	=10	=10	=10	=10	=10	=10	=10	=10	=10	=10	=10	=10	=10	=10	=10	=10	=10	=10	=10	=10	=10	=10	=10
8F#\L	.	6	.	16a 16d/LL	.	.	16a\LL	.	.	2D\	Nu-	1ryy	.	4d\	Nu-	4a\	-per	8D\L	.	8d/L	8d/L	1d	1a
.	.	.	.	16a 16d/	.	.	16cc#\	.	.	.	.	.	.	.	.	.	.	.	.	.	.	.	.
8F#\	.	.	.	16a 16d/	.	.	16dd\	.	.	.	.	.	.	.	.	.	.	16D\L	.	16d/L	16d/L	.	.
.	.	.	.	16a 16d/	.	.	16cc#\JJ	.	.	.	.	.	.	.	.	.	.	16D\JJ	.	16d/JJ	16d/JJ	.	.
8F#\	.	.	.	16a 16d/	.	.	8dd\L	.	.	.	.	.	.	4f#\	-bes	4a\	et	8D\L	.	8d/L	8d/L	.	.
.	.	.	.	16a 16d/	.	.	.	.	.	.	.	.	.	.	.	.	.	.	.	.	.	.	.
8F#\J	.	.	.	16a 16d/	.	.	8a\J	.	.	.	.	.	.	.	.	.	.	8D\J	.	8d/J	8d/J	.	.
.	.	.	.	16a 16d/JJ	.	.	.	.	.	.	.	.	.	.	.	.	.	.	.	.	.	.	.
8F#\L	.	.	.	16a 16d/LL	.	.	16a\LL	.	.	2D\	-bes	.	.	4f#\	plu-	4a\	Nu-	8D\L	.	8d/L	8d/L	.	.
.	.	.	.	16a 16d/	.	.	16cc#\	.	.	.	.	.	.	.	.	.	.	.	.	.	.	.	.
8F#\	.	.	.	16a 16d/	.	.	16dd\	.	.	.	.	.	.	.	.	.	.	16D\L	.	16d/L	16d/L	.	.
.	.	.	.	16a 16d/	.	.	16cc#\JJ	.	.	.	.	.	.	.	.	.	.	16D\JJ	.	16d/JJ	16d/JJ	.	.
8F#\	.	.	.	16a 16d/	.	.	8dd\L	.	.	.	.	.	.	4f#\	-ant	4a\	-bes	8D\L	.	8d/L	8d/L	.	.
.	.	.	.	16a 16d/	.	.	.	.	.	.	.	.	.	.	.	.	.	.	.	.	.	.	.
8F#\J	.	.	.	16a 16d/	.	.	8a\J	.	.	.	.	.	.	.	.	.	.	8D\J	.	8d/J	8d/J	.	.
.	.	.	.	16a 16d/JJ	.	.	.	.	.	.	.	.	.	.	.	.	.	.	.	.	.	.	.
*Xtremolo	*	*	*	*	*	*	*	*	*	*	*	*	*	*	*	*	*	*	*	*	*	*	*
!	!	!	!	!	!	!	!	!	!	!	!	!	!	!	!	!	!	!	!	!	!	!	!LO:LB:g=original
=11	=11	=11	=11	=11	=11	=11	=11	=11	=11	=11	=11	=11	=11	=11	=11	=11	=11	=11	=11	=11	=11	=11	=11
*	*	*	*	*^	*	*	*	*	*	*	*	*	*	*	*	*	*	*	*	*	*	*	*
!	!	!	!	!	!	!	!	!	!	!	!	!	!LO:TX:t=P:problem=korekta niepewna	!	!	!	!	!	!	!	!	!	!	!LO:TX:a:t=1/2
4C#\	.	6 5	.	16a/LL	16e\LL	.	.	16gg\LL	.	.	2C#\	Nu-	4A\	de-	2g\	plu-	4ee\	plu-	2r	.	2r	2r	2r	2r
.	.	.	.	16a/	16e\	.	.	16ff#\	.	.	.	.	.	.	.	.	.	.	.	.	.	.	.	.
.	.	.	.	16a/	16e\	.	.	16gg\	.	.	.	.	.	.	.	.	.	.	.	.	.	.	.	.
.	.	.	.	16a/	16e\	.	.	16aa\JJ	.	.	.	.	.	.	.	.	.	.	.	.	.	.	.	.
4C#\	.	.	.	16a/	16e\	.	.	8gg\L	.	.	.	.	4A\	-Su-	.	.	4ee\	-ant	.	.	.	.	.	.
.	.	.	.	16a/	16e\	.	.	.	.	.	.	.	.	.	.	.	.	.	.	.	.	.	.	.
.	.	.	.	16a/	16e\	.	.	8gg\J	.	.	.	.	.	.	.	.	.	.	.	.	.	.	.	.
.	.	.	.	16a/JJ	16e\JJ	.	.	.	.	.	.	.	.	.	.	.	.	.	.	.	.	.	.	.
4D\	.	.	.	16a/LL	16f#\LL	.	.	8gg\L	.	.	2D\	-bes	4A\	-per	2f#\	.	4dd\	Ju-	8AA/L	.	8ee\L	8gg\L	8ee\L	8gg\L
.	.	.	.	16a/	16f#\	.	.	.	.	.	.	.	.	.	.	.	.	.	.	.	.	.	.	.
.	.	.	.	16a/	16f#\	.	.	8ff#\J	.	.	.	.	.	.	.	.	.	.	8D/J	.	8dd\J	8ff#\J	8dd\J	8ff#\J
.	.	.	.	16a/	16f#\	.	.	.	.	.	.	.	.	.	.	.	.	.	.	.	.	.	.	.
4D\	.	.	.	16a/	16f#\	.	.	4ff#\	.	.	.	.	4A\	et	.	.	4dd\	-stum	4DT/	.	4dd\	4ff#\	4dd\	4ff#\
.	.	.	.	16a/	16f#\	.	.	.	.	.	.	.	.	.	.	.	.	.	.	.	.	.	.	.
.	.	.	.	16a/	16f#\	.	.	.	.	.	.	.	.	.	.	.	.	.	.	.	.	.	.	.
.	.	.	.	16a/JJ	16f#\JJ	.	.	.	.	.	.	.	.	.	.	.	.	.	.	.	.	.	.	.
!	!	!	!	!	!	!	!	!	!	!	!	!	!	!	!	!	!	!	!LO:LB:g=original	!	!	!LO:LB:g=original	!	!
=12	=12	=12	=12	=12	=12	=12	=12	=12	=12	=12	=12	=12	=12	=12	=12	=12	=12	=12	=12	=12	=12	=12	=12	=12
!	!	!	!	!	!	!	!	!	!	!	!	!	!	!	!	!	!	!	!	!	!	!LO:TX:t=P:problem=3 takty skreślone	!	!
4G\	.	4 2	.	16a/LL	16c#\LL	.	.	16ee\LL	.	.	2G\	plu-	2A\	Nu-	2e\	.	4cc#\	a-	2r	.	2r	2r	2r	2r
.	.	.	.	16a/	16c#\	.	.	16dd\	.	.	.	.	.	.	.	.	.	.	.	.	.	.	.	.
.	.	.	.	16a/	16c#\	.	.	16ee\	.	.	.	.	.	.	.	.	.	.	.	.	.	.	.	.
.	.	.	.	16a/	16c#\	.	.	16ff#\JJ	.	.	.	.	.	.	.	.	.	.	.	.	.	.	.	.
4G\	.	.	.	16a/	16c#\	.	.	8ee\L	.	.	.	.	.	.	.	.	8cc#\	-pe-	.	.	.	.	.	.
.	.	.	.	16a/	16c#\	.	.	.	.	.	.	.	.	.	.	.	.	.	.	.	.	.	.	.
.	.	.	.	16a/	16c#\	.	.	8ee\J	.	.	.	.	.	.	.	.	8cc#\	-ri-	.	.	.	.	.	.
.	.	.	.	16a/JJ	16c#\JJ	.	.	.	.	.	.	.	.	.	.	.	.	.	.	.	.	.	.	.
4F#\	.	6	.	16a/LL	16d\LL	.	.	8ee\L	.	.	2F#\	-ant	2A\	-bes	2f#\	.	4dd\	-a-	8AA/L	.	8a/L	8ee\L	8g/L	8ee\L
.	.	.	.	16a/	16d\	.	.	.	.	.	.	.	.	.	.	.	.	.	.	.	.	.	.	.
!	!	!	!	!	!	!	!	!	!	!	!	!	!	!	!	!	!	!	!	!	!	!	!LO:SIC:v:s=8f#/J	!
.	.	.	.	16a/	16d\	.	.	8dd\J	.	.	.	.	.	.	.	.	.	.	8D/J	.	8f#/J	8dd\J	8f/J	8dd\J
.	.	.	.	16a/	16d\	.	.	.	.	.	.	.	.	.	.	.	.	.	.	.	.	.	.	.
!	!	!	!	!	!	!	!	!	!	!	!	!	!	!	!	!	!	!	!	!	!	!	!LO:SIC:v:s=4f#/	!
4F#\	.	.	.	16a/	16d\	.	.	4dd\	.	.	.	.	.	.	.	.	4dd\	-tur	4DT/	.	4f#/	4dd\	4f/	4dd\
.	.	.	.	16a/	16d\	.	.	.	.	.	.	.	.	.	.	.	.	.	.	.	.	.	.	.
.	.	.	.	16a/	16d\	.	.	.	.	.	.	.	.	.	.	.	.	.	.	.	.	.	.	.
.	.	.	.	16a/JJ	16d\JJ	.	.	.	.	.	.	.	.	.	.	.	.	.	.	.	.	.	.	.
!LO:LB:g=original	!	!	!	!LO:LB:g=original	!	!	!	!	!	!	!LO:LB:g=original	!	!	!	!	!	!	!	!	!	!	!	!	!
=13	=13	=13	=13	=13	=13	=13	=13	=13	=13	=13	=13	=13	=13	=13	=13	=13	=13	=13	=13	=13	=13	=13	=13	=13
4C#\	.	6 5	.	16a/LL	16e\LL	.	.	16gg\LL	.	.	2C#\	plu-	2A\	plu-	2g\	.	4ee\	ter-	2r	.	2r	2r	2r	2r
.	.	.	.	16a/	16e\	.	.	16ff#\	.	.	.	.	.	.	.	.	.	.	.	.	.	.	.	.
.	.	.	.	16a/	16e\	.	.	16gg\	.	.	.	.	.	.	.	.	.	.	.	.	.	.	.	.
.	.	.	.	16a/	16e\	.	.	16aa\JJ	.	.	.	.	.	.	.	.	.	.	.	.	.	.	.	.
4C#\	.	.	.	16a/	16e\	.	.	8gg\L	.	.	.	.	.	.	.	.	8ee\	-ra	.	.	.	.	.	.
.	.	.	.	16a/	16e\	.	.	.	.	.	.	.	.	.	.	.	.	.	.	.	.	.	.	.
.	.	.	.	16a/	16e\	.	.	8gg\J	.	.	.	.	.	.	.	.	8ee\	et	.	.	.	.	.	.
.	.	.	.	16a/JJ	16e\JJ	.	.	.	.	.	.	.	.	.	.	.	.	.	.	.	.	.	.	.
4D\	.	.	.	16a/LL	16f#\LL	.	.	8gg\L	.	.	2D\	-ant	2A\	-ant	2f#\	-ant.	4dd\	ger-	8AA/L	.	8ee\L	8gg\L	8ee\L	8gg\L
.	.	.	.	16a/	16f#\	.	.	.	.	.	.	.	.	.	.	.	.	.	.	.	.	.	.	.
.	.	.	.	16a/	16f#\	.	.	8ff#\J	.	.	.	.	.	.	.	.	.	.	8D/J	.	8dd\J	8ff#\J	8dd\J	8ff#\J
.	.	.	.	16a/	16f#\	.	.	.	.	.	.	.	.	.	.	.	.	.	.	.	.	.	.	.
4D\	.	.	.	16a/	16f#\	.	.	4ff#\	.	.	.	.	.	.	.	.	8dd\	-mi-	4DT/	.	4dd\	4ff#\	4dd\	4ff#\
.	.	.	.	16a/	16f#\	.	.	.	.	.	.	.	.	.	.	.	.	.	.	.	.	.	.	.
.	.	.	.	16a/	16f#\	.	.	.	.	.	.	.	.	.	.	.	8dd\	-net	.	.	.	.	.	.
.	.	.	.	16a/JJ	16f#\JJ	.	.	.	.	.	.	.	.	.	.	.	.	.	.	.	.	.	.	.
!	!	!	!	!	!	!	!	!	!	!	!	!	!	!	!LO:LB:g=original	!	!	!	!	!	!LO:LB:g=original	!	!	!
=14	=14	=14	=14	=14	=14	=14	=14	=14	=14	=14	=14	=14	=14	=14	=14	=14	=14	=14	=14	=14	=14	=14	=14	=14
4G\	.	4 2	.	16a/LL	16c#\LL	.	.	16ee\LL	.	.	2G\	Ju-	1A	Ju-	2e\	Ju-	4cc#\	Sal-	2r	.	2r	2r	2r	2r
.	.	.	.	16a/	16c#\	.	.	16dd\	.	.	.	.	.	.	.	.	.	.	.	.	.	.	.	.
.	.	.	.	16a/	16c#\	.	.	16ee\	.	.	.	.	.	.	.	.	.	.	.	.	.	.	.	.
.	.	.	.	16a/	16c#\	.	.	16ff#\JJ	.	.	.	.	.	.	.	.	.	.	.	.	.	.	.	.
4G\	.	.	.	16a/	16c#\	.	.	8ee\L	.	.	.	.	.	.	.	.	4cc#\	-va-	.	.	.	.	.	.
.	.	.	.	16a/	16c#\	.	.	.	.	.	.	.	.	.	.	.	.	.	.	.	.	.	.	.
.	.	.	.	16a/	16c#\	.	.	8ee\J	.	.	.	.	.	.	.	.	.	.	.	.	.	.	.	.
.	.	.	.	16a/JJ	16c#\JJ	.	.	.	.	.	.	.	.	.	.	.	.	.	.	.	.	.	.	.
4F#\	.	6	.	16a/LL	16d\LL	.	.	8ee\L	.	.	2F#\	.	.	.	2f#\	.	2dd\	-to-	8AA/L	.	8a/L	8ee\L	8g/L	8ee\L
.	.	.	.	16a/	16d\	.	.	.	.	.	.	.	.	.	.	.	.	.	.	.	.	.	.	.
!	!	!	!	!	!	!	!	!	!	!	!	!	!	!	!	!	!	!	!	!	!	!	!LO:SIC:v:s=8f#/J	!
.	.	.	.	16a/	16d\	.	.	8dd\J	.	.	.	.	.	.	.	.	.	.	8D/J	.	8f#/J	8dd\J	8f/J	8dd\J
.	.	.	.	16a/	16d\	.	.	.	.	.	.	.	.	.	.	.	.	.	.	.	.	.	.	.
!	!	!	!	!	!	!	!	!	!	!	!	!	!	!	!	!	!	!	!	!	!	!	!LO:SIC:v:s=4f#/	!
4F#\	.	.	.	16a/	16d\	.	.	4dd\	.	.	.	.	.	.	.	.	.	.	4DT/	.	4f#/	4dd\	4f/	4dd\
.	.	.	.	16a/	16d\	.	.	.	.	.	.	.	.	.	.	.	.	.	.	.	.	.	.	.
.	.	.	.	16a/	16d\	.	.	.	.	.	.	.	.	.	.	.	.	.	.	.	.	.	.	.
.	.	.	.	16a/JJ	16d\JJ	.	.	.	.	.	.	.	.	.	.	.	.	.	.	.	.	.	.	.
*	*	*	*	*	*Xtremolo	*	*	*	*	*	*	*	*	*	*	*	*	*	*	*	*	*	*	*
*	*	*	*	*v	*v	*	*	*	*	*	*	*	*	*	*	*	*	*	*	*	*	*	*	*
!	!	!	!	!	!	!	!LO:LB:g=original	!	!	!	!	!LO:LB:g=original	!	!	!	!LO:LB:g=original	!	!	!	!	!	!	!
=15	=15	=15	=15	=15	=15	=15	=15	=15	=15	=15	=15	=15	=15	=15	=15	=15	=15	=15	=15	=15	=15	=15	=15
!	!	!	!	!	!	!	!	!	!	!	!	!	!	!	!	!LO:SIC:v:s=4ee\	!	!	!	!	!	!	!
!	!	!	!	!	!	!	!	!	!	!	!	!	!	!	!	!LO:TX:t=P:problem=fragment słabo czytelne	!	!LO:TX:a:t=1.	!	!	!	!	!
4G\	.	.	.	4b\	.	.	16ee\LL	.	.	4G\	-stum	4G\	-stum	4e\	-stum	4cc#\	-rem	1r	.	1r	1r	1r	1r
.	.	.	.	.	.	.	16dd#X\	.	.	.	.	.	.	.	.	.	.	.	.	.	.	.	.
.	.	.	.	.	.	.	16ee\	.	.	.	.	.	.	.	.	.	.	.	.	.	.	.	.
.	.	.	.	.	.	.	16ff#\JJ	.	.	.	.	.	.	.	.	.	.	.	.	.	.	.	.
4r	.	.	.	16ee\LL	.	.	16gg\LL	.	.	4r	.	4r	.	4r	.	4r	.	.	.	.	.	.	.
.	.	.	.	16dd#X\	.	.	16ff#\	.	.	.	.	.	.	.	.	.	.	.	.	.	.	.	.
.	.	.	.	16ee\	.	.	16gg\	.	.	.	.	.	.	.	.	.	.	.	.	.	.	.	.
.	.	.	.	16ff#\JJ	.	.	16aa\JJ	.	.	.	.	.	.	.	.	.	.	.	.	.	.	.	.
4G\	.	.	.	8gg\L	.	.	8bb\L	.	.	2r	.	2r	.	2r	.	2r	.	.	.	.	.	.	.
.	.	.	.	8ff#\	.	.	8aa\	.	.	.	.	.	.	.	.	.	.	.	.	.	.	.	.
4r	.	.	.	8ee\	.	.	8gg\	.	.	.	.	.	.	.	.	.	.	.	.	.	.	.	.
.	.	.	.	8ddn\J	.	.	8ff#\J	.	.	.	.	.	.	.	.	.	.	.	.	.	.	.	.
=16	=16	=16	=16	=16	=16	=16	=16	=16	=16	=16	=16	=16	=16	=16	=16	=16	=16	=16	=16	=16	=16	=16	=16
4G\	.	.	.	8gg\L	.	.	8bb\L	.	.	4r	.	4r	.	4r	.	4r	.	2r	.	2r	2r	2r	2r
.	.	.	.	8ff#\	.	.	8aa\	.	.	.	.	.	.	.	.	.	.	.	.	.	.	.	.
4r	.	.	.	8ee\	.	.	8gg\	.	.	8G\	plu-	8e\	plu-	4r	.	8gg\	Sal-	.	.	.	.	.	.
.	.	.	.	8dd\J	.	.	8ff#\J	.	.	8G\	-ant	8d\	-ant	.	.	8ff#\	-va-	.	.	.	.	.	.
*	*	*	*	*	*	*	*	*	*	*	*	*	*	*	*ij	*	*	*	*	*	*	*	*
4A\	.	6 4	.	8dd\L	.	.	8ff#\L	.	.	4A\	Ju-	8d\L	Ju-	2a\	Ju-	8ff#\L	-to-	8D/L	.	8dd\L	8ff#\L	8dd\L	8ff#\L
!	!	!	!	!	!	!	!	!	!	!	!	!	!	!	!	!	!	!	!	!	!	!LO:SIC:v:s=8cc#\	!
.	.	5 3	.	8cc#\	.	.	8ee\J	.	.	.	.	8c#\J	.	.	.	8ee\J	.	8AA/	.	8a\	8ee\	8cc\	8ee\
!	!	!	!	!	!	!	!	!	!	!	!	!	!	!	!	!	!	!	!	!	!	!LO:SIC:v:s=8cc#\	!
4AA/	.	.	.	8cc#\	.	.	8ee\L	.	.	4AA/	.	4c#\	.	.	.	4ee\	.	8AA/	.	8a\	8ee\	8cc\	8ee\
!	!	!	!	!	!	!	!	!	!	!	!	!	!	!	!	!	!	!	!	!	!	!LO:SIC:v:s=8cc#\J	!
.	.	.	.	8cc#\J	.	.	8ee\J	.	.	.	.	.	.	.	.	.	.	8AA/J	.	8a\J	8ee\J	8cc\J	8ee\J
=17	=17	=17	=17	=17	=17	=17	=17	=17	=17	=17	=17	=17	=17	=17	=17	=17	=17	=17	=17	=17	=17	=17	=17
*	*	*	*	*	*	*	*2\right	*	*	*	*	*	*	*	*	*	*	*	*	*2\right	*	*	*
!	!	!	!	!	!	!LO:DY:t=pia	!	!	!LO:DY:t=pia&colon;	!	!	!	!	!	!	!	!	!	!	!	!	!LO:SIC:v:s=2cc#\	!LO:TX:a:i:t=Solo.
2AA/	.	.	.	2cc#\	.	p	2ee\	.	p	2AA/	-stum	2c#\	-stum.	2a\	-stum	2ee\	-rem.	2AA/	.	2a\	2ee\	2cc\	2ee\
*	*	*	*	*	*	*	*	*	*	*	*	*	*	*	*Xij	*	*	*	*	*	*	*	*
!	!	!	!	!	!	!	!	!	!	!	!	!	!	!	!	!	!	!	!	!	!	!LO:SIC:v:s=4cc#\	!
!LO:TX:a:i:t=Solo	!	!	!LO:DY:t=pia&colon;	!	!	!	!	!	!	!	!	!	!	!	!	!	!	!	!	!	!	!LO:TX:a:i:t=Solo	!
4A\|	.	.	p	4A/	.	/	4A/	.	.	2r	.	2r	.	2r	.	2r	.	2r	.	2r	2r	4cc\	4ee\
4A\|	.	.	.	4A/	.	.	4A/	.	.	.	.	.	.	.	.	.	.	.	.	.	.	8dd\L	8ff#\L
!	!	!	!	!	!	!	!	!	!	!	!	!	!	!	!	!	!	!	!	!	!	!LO:SIC:v:s=8cc#\J	!
.	.	.	.	.	.	.	.	.	.	.	.	.	.	.	.	.	.	.	.	.	.	8cc\J	8ee\J
!	!	!	!	!	!	!	!	!	!	!	!	!	!	!	!	!	!	!	!	!	!	!LO:LB:g=original	!
=18	=18	=18	=18	=18	=18	=18	=18	=18	=18	=18	=18	=18	=18	=18	=18	=18	=18	=18	=18	=18	=18	=18	=18
!	!	!	!	!	!	!	!	!	!	!	!	!	!	!	!	!	!	!LO:TX:a:t=8.	!	!LO:TX:a:i:t=Solo	!	!LO:SIC:v:s=4cc#\	!
2A\|	.	.	.	4A/	.	.	4A/	.	.	00r	.	00r	.	00r	.	00r	.	00r	.	00r	00r	4cc\	4ee\
.	.	.	.	4A/	.	.	4A/	.	.	.	.	.	.	.	.	.	.	.	.	.	.	8r	8r
.	.	.	.	.	.	.	.	.	.	.	.	.	.	.	.	.	.	.	.	.	.	8a\	8cc#\
!	!	!	!	!	!	!	!	!	!	!	!	!	!	!	!	!	!	!	!	!	!	!LO:SIC:v:s=8cc#\L	!
4G#X\|	.	.	.	4G#X/	.	.	4G#X/	.	.	.	.	.	.	.	.	.	.	.	.	.	.	8cc\L	8ee\L
.	.	.	.	.	.	.	.	.	.	.	.	.	.	.	.	.	.	.	.	.	.	8b\	8dd\
8E\L|	.	.	.	8e/L	.	.	8e/L	.	.	.	.	.	.	.	.	.	.	.	.	.	.	8g#X\	8b\
8G#\J|	.	.	.	8g#X/J	.	.	8g#X/J	.	.	.	.	.	.	.	.	.	.	.	.	.	.	8b\J	8dd\J
=19	=19	=19	=19	=19	=19	=19	=19	=19	=19	=19	=19	=19	=19	=19	=19	=19	=19	=19	=19	=19	=19	=19	=19
4A\|	.	.	.	4a/	.	.	4a/	.	.	.	.	.	.	.	.	.	.	.	.	.	.	8b\L	8dd\L
.	.	.	.	.	.	.	.	.	.	.	.	.	.	.	.	.	.	.	.	.	.	8a\J	8cc#\J
4AA/|>	.	.	.	4A/	.	.	4A/	.	.	.	.	.	.	.	.	.	.	.	.	.	.	4a\	4cc#\
2A\|	.	.	.	4a/	.	.	4a/	.	.	.	.	.	.	.	.	.	.	.	.	.	.	4cc\	4ee\
.	.	.	.	4a/	.	.	4a/	.	.	.	.	.	.	.	.	.	.	.	.	.	.	8dd\L	8ff#\L
!	!	!	!	!	!	!	!	!	!	!	!	!	!	!	!	!	!	!	!	!	!	!LO:SIC:v:s=8cc#\J	!
.	.	.	.	.	.	.	.	.	.	.	.	.	.	.	.	.	.	.	.	.	.	8cc\J	8ee\J
=20	=20	=20	=20	=20	=20	=20	=20	=20	=20	=20	=20	=20	=20	=20	=20	=20	=20	=20	=20	=20	=20	=20	=20
!	!	!	!	!	!	!	!	!	!	!	!	!	!	!	!	!	!	!	!	!	!	!LO:SIC:v:s=4cc#\	!
2A\|	.	.	.	4a/	.	.	4a/	.	.	.	.	.	.	.	.	.	.	.	.	.	.	4cc\	4ee\
.	.	.	.	4A/	.	.	4A/	.	.	.	.	.	.	.	.	.	.	.	.	.	.	8r	8r
.	.	.	.	.	.	.	.	.	.	.	.	.	.	.	.	.	.	.	.	.	.	8a\	8cc#\
!	!	!	!	!	!	!	!	!	!	!	!	!	!	!	!	!	!	!	!	!	!	!LO:SIC:v:s=8cc#\L	!
4E\|	.	.	.	8r	.	.	8r	.	.	.	.	.	.	.	.	.	.	.	.	.	.	8cc\L	8ee\L
.	.	.	.	8e/L	.	.	8e/L	.	.	.	.	.	.	.	.	.	.	.	.	.	.	8b\	8dd\
4E\|	.	.	.	8e/	.	.	8e/	.	.	.	.	.	.	.	.	.	.	.	.	.	.	8a\	8cc#\
.	.	.	.	8e/J	.	.	8e/J	.	.	.	.	.	.	.	.	.	.	.	.	.	.	8g#X\J	8b\J
!	!	!	!	!LO:LB:g=original	!	!	!	!	!	!	!	!	!	!	!	!	!	!	!	!	!	!	!LO:LB:g=original
=21	=21	=21	=21	=21	=21	=21	=21	=21	=21	=21	=21	=21	=21	=21	=21	=21	=21	=21	=21	=21	=21	=21	=21
!	!	!	!LO:DY:t=for.	!	!	!LO:DY:t=for&colon;	!	!	!LO:DY:t=forte	!	!	!	!	!	!	!	!	!	!	!	!	!	!
8AA/L|	.	.	f	8a\L	.	f	8a\L	.	f	.	.	.	.	.	.	.	.	.	.	.	.	4a\	4a\
16C#/L|	.	.	.	16cc#\L	.	.	16cc#\L	.	.	.	.	.	.	.	.	.	.	.	.	.	.	.	.
16E|/JJ	.	.	.	16ee\JJ	.	.	16ee\JJ	.	.	.	.	.	.	.	.	.	.	.	.	.	.	.	.
8A\L|	.	.	.	8aa\L	.	.	8aa\L	.	.	.	.	.	.	.	.	.	.	.	.	.	.	4r	4r
8A\J|	.	.	.	8aa\J	.	.	8aa\J	.	.	.	.	.	.	.	.	.	.	.	.	.	.	.	.
!	!	!	!	!	!	!	!LO:LB:g=original	!	!	!	!	!	!	!	!	!	!	!	!	!	!	!	!
8A\L|	.	.	.	8aa\L	.	.	8aa\L	.	.	.	.	.	.	.	.	.	.	.	.	.	.	2r	2r
8F#\|	.	.	.	8ff#\	.	.	8ff#\	.	.	.	.	.	.	.	.	.	.	.	.	.	.	.	.
8Gn\|	.	.	.	8ggn\	.	.	8ggn\	.	.	.	.	.	.	.	.	.	.	.	.	.	.	.	.
8E\J|	.	.	.	8ee\J	.	.	8ee\J	.	.	.	.	.	.	.	.	.	.	.	.	.	.	.	.
!LO:LB:g=original	!	!	!	!	!	!	!	!	!	!	!	!	!	!	!	!	!	!	!	!	!	!	!
=22	=22	=22	=22	=22	=22	=22	=22	=22	=22	=22	=22	=22	=22	=22	=22	=22	=22	=22	=22	=22	=22	=22	=22
!	!	!	!LO:DY:t=pia&colon;	!	!	!LO:DY:t=pia.	!	!	!LO:DY:t=pia.	!	!	!	!	!	!	!	!	!	!	!	!LO:TX:a:i:t=Solo.:rj	!	!
4D\	.	.	p	4dd\	.	p	4dd\	.	p	00r	.	00r	.	00r	.	00r	.	00r	.	4ff#\	4aa\	00r	00r
4D\	.	.	.	4d/	.	.	4d/	.	.	.	.	.	.	.	.	.	.	.	.	8gg\L	8bb\L	.	.
.	.	.	.	.	.	.	.	.	.	.	.	.	.	.	.	.	.	.	.	8ff#\J	8aa\J	.	.
4D\	.	.	.	4d/	.	.	4d/	.	.	.	.	.	.	.	.	.	.	.	.	4ff#\	4aa\	.	.
4D\	.	.	.	4d/	.	.	4d/	.	.	.	.	.	.	.	.	.	.	.	.	8r	8r	.	.
.	.	.	.	.	.	.	.	.	.	.	.	.	.	.	.	.	.	.	.	8dd\	8ff#\	.	.
=23	=23	=23	=23	=23	=23	=23	=23	=23	=23	=23	=23	=23	=23	=23	=23	=23	=23	=23	=23	=23	=23	=23	=23
4AA/	.	.	.	4A/	.	.	4A/	.	.	.	.	.	.	.	.	.	.	.	.	8ff#\L	8aa\L	.	.
.	.	.	.	.	.	.	.	.	.	.	.	.	.	.	.	.	.	.	.	8ee\J	8gg\	.	.
!	!	!	!	!	!	!	!	!	!	!	!	!	!	!	!	!	!	!	!	!LO:TX:t=P:problem=mixed beam	!	!	!
4AA/	.	.	.	4A/	.	.	4A/	.	.	.	.	.	.	.	.	.	.	.	.	8a/L	8ee\	.	.
.	.	.	.	.	.	.	.	.	.	.	.	.	.	.	.	.	.	.	.	8ee\J	8gg\J	.	.
4D\	.	.	.	4d/	.	.	4d/	.	.	.	.	.	.	.	.	.	.	.	.	8ee\L	8gg\L	.	.
.	.	.	.	.	.	.	.	.	.	.	.	.	.	.	.	.	.	.	.	8dd\J	8ff#\J	.	.
4D\	.	.	.	4d/	.	.	4d/	.	.	.	.	.	.	.	.	.	.	.	.	4dd\	4ff#\	.	.
!	!	!	!	!	!	!	!	!	!	!	!	!	!	!	!	!	!	!	!	!	!LO:LB:g=original	!	!
=24	=24	=24	=24	=24	=24	=24	=24	=24	=24	=24	=24	=24	=24	=24	=24	=24	=24	=24	=24	=24	=24	=24	=24
4D\	.	.	.	4d/	.	.	4d/	.	.	.	.	.	.	.	.	.	.	.	.	4ff#\	4aa\	.	.
4D\	.	.	.	4d/	.	.	4d/	.	.	.	.	.	.	.	.	.	.	.	.	8gg\L	8bb\L	.	.
.	.	.	.	.	.	.	.	.	.	.	.	.	.	.	.	.	.	.	.	8ff#\J	8aa\J	.	.
4D\	.	.	.	4d/	.	.	4d/	.	.	.	.	.	.	.	.	.	.	.	.	4ff#\	4aa\	.	.
4D\	.	.	.	4d/	.	.	4d/	.	.	.	.	.	.	.	.	.	.	.	.	8r	8r	.	.
.	.	.	.	.	.	.	.	.	.	.	.	.	.	.	.	.	.	.	.	8dd\	8ff#\	.	.
=25	=25	=25	=25	=25	=25	=25	=25	=25	=25	=25	=25	=25	=25	=25	=25	=25	=25	=25	=25	=25	=25	=25	=25
4A\	.	.	.	4a/	.	.	4a/	.	.	.	.	.	.	.	.	.	.	.	.	8ff#\L	8aa\L	.	.
.	.	.	.	.	.	.	.	.	.	.	.	.	.	.	.	.	.	.	.	8ee\	8gg\	.	.
4AA/	.	.	.	4A/	.	.	4A/	.	.	.	.	.	.	.	.	.	.	.	.	8dd\	8ff#\	.	.
.	.	.	.	.	.	.	.	.	.	.	.	.	.	.	.	.	.	.	.	8a\J	8ee\J	.	.
!	!	!	!LO:DY:t=for&colon;	!	!	!LO:DY:t=for&colon;	!	!	!LO:DY:t=for&colon;	!	!	!	!	!	!	!	!	!	!	!	!	!	!
4D\	.	.	f	16ff#\LL	.	f	16ff#\LL	.	f	.	.	.	.	.	.	.	.	.	.	4f#/	4dd\	.	.
.	.	.	.	16dd\	.	.	16dd\	.	.	.	.	.	.	.	.	.	.	.	.	.	.	.	.
.	.	.	.	16ee\	.	.	16ee\	.	.	.	.	.	.	.	.	.	.	.	.	.	.	.	.
.	.	.	.	16ff#\JJ	.	.	16ff#\JJ	.	.	.	.	.	.	.	.	.	.	.	.	.	.	.	.
!LO:TX:a:i:t=Tutti	!	!	!	!	!	!	!	!	!	!	!	!	!	!	!	!	!	!	!	!	!LO:TX:a:i:t=Tutti	!	!
4D\	.	.	.	16gg\LL	.	.	16gg\LL	.	.	.	.	.	.	.	.	.	.	.	.	4r	4r	.	.
.	.	.	.	16aa\	.	.	16aa\	.	.	.	.	.	.	.	.	.	.	.	.	.	.	.	.
.	.	.	.	16bb\	.	.	16bb\	.	.	.	.	.	.	.	.	.	.	.	.	.	.	.	.
.	.	.	.	16ccc#\JJ	.	.	16ccc#\JJ	.	.	.	.	.	.	.	.	.	.	.	.	.	.	.	.
=26	=26	=26	=26	=26	=26	=26	=26	=26	=26	=26	=26	=26	=26	=26	=26	=26	=26	=26	=26	=26	=26	=26	=26
!	!	!	!	!	!	!	!	!	!	!	!	!	!	!	!	!	!	!	!	!LO:TX:a:i:t=Tutti	!	!LO:TX:a:i:t=Tutti	!LO:TX:a:i:t=Tutti
4D\	.	.	.	16ddd\LL	.	.	16ddd\LL	.	.	4D\	a-	2A\	A-	2f#\	A-	2dd\	A-	4r	.	4r	4r	4r	4r
.	.	.	.	16ccc#\	.	.	16ccc#\	.	.	.	.	.	.	.	.	.	.	.	.	.	.	.	.
.	.	.	.	16bb\	.	.	16bb\	.	.	.	.	.	.	.	.	.	.	.	.	.	.	.	.
.	.	.	.	16aa\JJ	.	.	16aa\JJ	.	.	.	.	.	.	.	.	.	.	.	.	.	.	.	.
4F#\	.	.	.	8ff#\L	.	.	8aa\L	.	.	4F#\	.	.	.	.	.	.	.	4D\	.	4f#/	4dd\	4dd\	4ff#\
.	.	.	.	8ff#\J	.	.	8aa\J	.	.	.	.	.	.	.	.	.	.	.	.	.	.	.	.
*	*	*	*	*	*	*	*	*	*	*	*	*	*	*	*	*	*	*tremolo	*	*	*	*	*
4E\	.	.	.	16ff#\LL	.	.	16aa\LL	.	.	4E\	-pe-	4c#\	-pe-	4g\	-pe-	4ee\	-pe-	16AATT/LL	.	2a/	2ee\	2ee\	2gg\
.	.	.	.	16ee\	.	.	16gg\	.	.	.	.	.	.	.	.	.	.	16AATTT/	.	.	.	.	.
.	.	.	.	16dd\	.	.	16ff#\	.	.	.	.	.	.	.	.	.	.	16AATTT/	.	.	.	.	.
.	.	.	.	16ee\JJ	.	.	16gg\JJ	.	.	.	.	.	.	.	.	.	.	16AATTT/	.	.	.	.	.
!	!	!	!	!LO:TX:t=P:problem=mixed beam	!	!	!	!	!	!	!	!	!	!	!	!	!	!	!	!	!	!	!
4C#\	.	.	.	8a/L	.	.	8ee\L	.	.	4C#\	-ri-	4A\	-ri-	4g\	-ri-	4ee\	-ri-	16AATTT/	.	.	.	.	.
.	.	.	.	.	.	.	.	.	.	.	.	.	.	.	.	.	.	16AATTT/	.	.	.	.	.
.	.	.	.	8ee\J	.	.	8gg\J	.	.	.	.	.	.	.	.	.	.	16AATTT/	.	.	.	.	.
.	.	.	.	.	.	.	.	.	.	.	.	.	.	.	.	.	.	16AATTT/JJ	.	.	.	.	.
*	*	*	*	*	*	*	*	*	*	*	*	*	*	*	*	*	*	*Xtremolo	*	*	*	*	*
!	!	!	!	!	!	!	!	!	!	!	!	!	!	!	!	!	!	!	!	!LO:LB:g=original	!	!	!
=27	=27	=27	=27	=27	=27	=27	=27	=27	=27	=27	=27	=27	=27	=27	=27	=27	=27	=27	=27	=27	=27	=27	=27
4D\	.	.	.	16ff#\LL	.	.	16ff#\LL	.	.	4D\	-a-	4A\	-a-	4f#\	-a-	4dd\	-a-	4D\	.	4f#/	4dd\	4dd\	4ff#\
.	.	.	.	16dd\	.	.	16dd\	.	.	.	.	.	.	.	.	.	.	.	.	.	.	.	.
.	.	.	.	16aa\	.	.	16aa\	.	.	.	.	.	.	.	.	.	.	.	.	.	.	.	.
.	.	.	.	16ff#\JJ	.	.	16ff#\JJ	.	.	.	.	.	.	.	.	.	.	.	.	.	.	.	.
4F#\	.	.	.	8ddd\L	.	.	8ddd\L	.	.	4F#\	-tur	4A\	-tur	4f#\	-tur	4dd\	-tur	4D\	.	4f#/	4dd\	4dd\	4ff#\
.	.	.	.	8ff#\J	.	.	8aa\J	.	.	.	.	.	.	.	.	.	.	.	.	.	.	.	.
*	*	*	*	*	*	*	*	*	*	*	*	*	*	*	*	*	*	*tremolo	*	*	*	*	*
4E\	.	.	.	16ff#\LL	.	.	16aa\LL	.	.	4E\	Ter-	4c#\	Ter-	2g\	Ter-	2ee\	Ter-	16AATT</LL	.	2a/	2ee\	2ee\	2gg\
.	.	.	.	16ee\	.	.	16gg\	.	.	.	.	.	.	.	.	.	.	16AATTT</	.	.	.	.	.
.	.	.	.	16dd\	.	.	16ff#\	.	.	.	.	.	.	.	.	.	.	16AATTT</	.	.	.	.	.
.	.	.	.	16ee\JJ	.	.	16gg\JJ	.	.	.	.	.	.	.	.	.	.	16AATTT</	.	.	.	.	.
4C#\	.	.	.	8a\L	.	.	8ee\L	.	.	4C#\	.	4A\	.	.	.	.	.	16AATTT</	.	.	.	.	.
.	.	.	.	.	.	.	.	.	.	.	.	.	.	.	.	.	.	16AATTT</	.	.	.	.	.
.	.	.	.	8ee\J	.	.	8gg\J	.	.	.	.	.	.	.	.	.	.	16AATTT</	.	.	.	.	.
.	.	.	.	.	.	.	.	.	.	.	.	.	.	.	.	.	.	16AATTT</JJ	.	.	.	.	.
*	*	*	*	*	*	*	*	*	*	*	*	*	*	*	*	*	*	*Xtremolo	*	*	*	*	*
!	!	!	!	!LO:LB:g=original	!	!	!LO:LB:g=original	!	!	!	!	!	!	!	!	!	!	!	!	!	!	!	!
=28	=28	=28	=28	=28	=28	=28	=28	=28	=28	=28	=28	=28	=28	=28	=28	=28	=28	=28	=28	=28	=28	=28	=28
4D\	.	.	.	8dd\	.	.	16ff#\LL	.	.	4D\	-ra	4A\	-ra	4f#\	-ra	4dd\	-ra	4D\	.	4f#/	4dd\	4dd\	4ff#\
.	.	.	.	.	.	.	16aa\	.	.	.	.	.	.	.	.	.	.	.	.	.	.	.	.
.	.	.	.	8r	.	.	16bb\	.	.	.	.	.	.	.	.	.	.	.	.	.	.	.	.
.	.	.	.	.	.	.	16ccc#\JJ	.	.	.	.	.	.	.	.	.	.	.	.	.	.	.	.
4D\	.	.	.	4f#/	.	.	8ddd\L	.	.	4D\	et	4d\	et	4f#\	et	4a\	et	4D\	.	4f#/	4dd\	4dd\	4ff#\
.	.	.	.	.	.	.	8aa\J	.	.	.	.	.	.	.	.	.	.	.	.	.	.	.	.
*	*	*	*	*tremolo	*	*	*	*	*	*	*	*	*	*	*	*	*	*2\right	*	*	*	*	*
!	!	!	!	!	!	!	!	!	!	!LO:LB:g=original	!	!	!	!	!	!	!	!	!	!	!	!	!
4G\	.	.	.	16b 16d/LL	.	.	16bb\LL	.	.	4G\	ger-	4d\	ger-	4g\	ger-	4b\	ger-	2DTT\	.	2d/	2dd\	2b\	2gg\
.	.	.	.	16b 16d/	.	.	16ccc#\	.	.	.	.	.	.	.	.	.	.	.	.	.	.	.	.
.	.	.	.	16b 16d/	.	.	16ddd\	.	.	.	.	.	.	.	.	.	.	.	.	.	.	.	.
.	.	.	.	16b 16d/	.	.	16ccc#\JJ	.	.	.	.	.	.	.	.	.	.	.	.	.	.	.	.
4G\	.	.	.	16b 16d/	.	.	8ddd\L	.	.	8G\	-mi-	8d\	-mi-	8g\	-mi-	8b\	-mi-	.	.	.	.	.	.
.	.	.	.	16b 16d/	.	.	.	.	.	.	.	.	.	.	.	.	.	.	.	.	.	.	.
.	.	.	.	16b 16d/	.	.	8bb\J	.	.	8G\	-net	8d\	-net	8g\	-net	8b\	-net	.	.	.	.	.	.
.	.	.	.	16b 16d/JJ	.	.	.	.	.	.	.	.	.	.	.	.	.	.	.	.	.	.	.
!	!	!	!	!	!	!	!	!	!	!	!	!LO:LB:g=original	!	!LO:LB:g=original	!	!	!	!	!	!	!	!LO:LB:g=original	!
=29	=29	=29	=29	=29	=29	=29	=29	=29	=29	=29	=29	=29	=29	=29	=29	=29	=29	=29	=29	=29	=29	=29	=29
4G\	.	.	.	16b 16d/LL	.	.	16bb\LL	.	.	4G\	Sal-	4d\	Sal-	4g\	Sal-	4b\	Sal-	2DTTT\	.	2d/	1dd	2b\	2gg\
.	.	.	.	16b 16d/	.	.	16ccc#\	.	.	.	.	.	.	.	.	.	.	.	.	.	.	.	.
.	.	.	.	16b 16d/	.	.	16ddd\	.	.	.	.	.	.	.	.	.	.	.	.	.	.	.	.
.	.	.	.	16b 16d/	.	.	16ccc#\JJ	.	.	.	.	.	.	.	.	.	.	.	.	.	.	.	.
4G\	.	.	.	16b 16d/	.	.	8ddd\L	.	.	4G\	-va-	4d\	-va-	4g\	-va-	4b\	-va-	.	.	.	.	.	.
.	.	.	.	16b 16d/	.	.	.	.	.	.	.	.	.	.	.	.	.	.	.	.	.	.	.
.	.	.	.	16b 16d/	.	.	8bb\J	.	.	.	.	.	.	.	.	.	.	.	.	.	.	.	.
.	.	.	.	16b 16d/JJ	.	.	.	.	.	.	.	.	.	.	.	.	.	.	.	.	.	.	.
4F#\	.	.	.	16a 16d/LL	.	.	16aa\LL	.	.	2F#\	-to-	2d\	-to-	4d\	-to-	2a\	-to-	2DTTT\	.	2d/	.	2a\	2ff#\
.	.	.	.	16a 16d/	.	.	16ccc#\	.	.	.	.	.	.	.	.	.	.	.	.	.	.	.	.
.	.	.	.	16a 16d/	.	.	16ddd\	.	.	.	.	.	.	.	.	.	.	.	.	.	.	.	.
.	.	.	.	16a 16d/	.	.	16ccc#\JJ	.	.	.	.	.	.	.	.	.	.	.	.	.	.	.	.
4F#\	.	.	.	16a 16d/	.	.	8ddd\L	.	.	.	.	.	.	4f#\	.	.	.	.	.	.	.	.	.
.	.	.	.	16a 16d/	.	.	.	.	.	.	.	.	.	.	.	.	.	.	.	.	.	.	.
.	.	.	.	16a 16d/	.	.	8aa\J	.	.	.	.	.	.	.	.	.	.	.	.	.	.	.	.
.	.	.	.	16a 16d/JJ	.	.	.	.	.	.	.	.	.	.	.	.	.	.	.	.	.	.	.
!	!	!	!	!	!	!	!	!	!	!	!	!	!	!	!	!LO:LB:g=original	!	!	!	!	!	!	!
=30	=30	=30	=30	=30	=30	=30	=30	=30	=30	=30	=30	=30	=30	=30	=30	=30	=30	=30	=30	=30	=30	=30	=30
4F#\	.	.	.	16a 16d/LL	.	.	16aa\LL	.	.	2F#\	-rem	2d\	-rem,	2f#\	-rem	2a\	-rem	2DTTT\	.	2d/	2dd\	2a\	2ff#\
.	.	.	.	16a 16d/	.	.	16ccc#\	.	.	.	.	.	.	.	.	.	.	.	.	.	.	.	.
.	.	.	.	16a 16d/	.	.	16ddd\	.	.	.	.	.	.	.	.	.	.	.	.	.	.	.	.
.	.	.	.	16a 16d/	.	.	16ccc#\JJ	.	.	.	.	.	.	.	.	.	.	.	.	.	.	.	.
4F#\	.	.	.	16a 16d/	.	.	8ddd\L	.	.	.	.	.	.	.	.	.	.	.	.	.	.	.	.
.	.	.	.	16a 16d/	.	.	.	.	.	.	.	.	.	.	.	.	.	.	.	.	.	.	.
.	.	.	.	16a 16d/	.	.	8aa\J	.	.	.	.	.	.	.	.	.	.	.	.	.	.	.	.
.	.	.	.	16a 16d/JJ	.	.	.	.	.	.	.	.	.	.	.	.	.	.	.	.	.	.	.
*	*	*	*	*Xtremolo	*	*	*	*	*	*	*	*	*	*	*	*	*	*	*	*	*	*	*
4E\	.	.	.	16gg\LL	.	.	16gg\LL	.	.	4E\	Sal-	4e\	Sal-	4a\	Sal-	4gg\	Sal-	2AATTT/	.	2a/	2ee\	4ee\	4gg\
.	.	.	.	16aa\	.	.	16aa\	.	.	.	.	.	.	.	.	.	.	.	.	.	.	.	.
.	.	.	.	16bb\	.	.	16bb\	.	.	.	.	.	.	.	.	.	.	.	.	.	.	.	.
.	.	.	.	16gg\JJ	.	.	16gg\JJ	.	.	.	.	.	.	.	.	.	.	.	.	.	.	.	.
4C#\	.	.	.	8ee\L	.	.	8ee\L	.	.	4C#\	-va-	4e\	-va-	4a\	-va-	4gg\	-va-	.	.	.	.	4r	4r
.	.	.	.	8gg\J	.	.	8gg\J	.	.	.	.	.	.	.	.	.	.	.	.	.	.	.	.
=31	=31	=31	=31	=31	=31	=31	=31	=31	=31	=31	=31	=31	=31	=31	=31	=31	=31	=31	=31	=31	=31	=31	=31
4D\	.	.	.	16ff#\LL	.	.	16ff#\LL	.	.	4D\	-to-	2d\	-to-	1a	-to-	2ff#\	-to-	2DTTT\	.	2f#/	2dd\	4dd\	4ff#\
.	.	.	.	16gg\	.	.	16gg\	.	.	.	.	.	.	.	.	.	.	.	.	.	.	.	.
.	.	.	.	16aa\	.	.	16aa\	.	.	.	.	.	.	.	.	.	.	.	.	.	.	.	.
.	.	.	.	16ff#\JJ	.	.	16ff#\JJ	.	.	.	.	.	.	.	.	.	.	.	.	.	.	.	.
4F#\	.	.	.	8dd\L	.	.	8dd\L	.	.	4F#\	.	.	.	.	.	.	.	.	.	.	.	4r	4r
.	.	.	.	8aa\J	.	.	8aa\J	.	.	.	.	.	.	.	.	.	.	.	.	.	.	.	.
4E\	.	.	.	16gg\LL	.	.	16gg\LL	.	.	4E\	.	2e\	.	.	.	2gg\	.	2AATTT/	.	2a/	2ee\	4ee\	4gg\
.	.	.	.	16aa\	.	.	16aa\	.	.	.	.	.	.	.	.	.	.	.	.	.	.	.	.
.	.	.	.	16bb\	.	.	16bb\	.	.	.	.	.	.	.	.	.	.	.	.	.	.	.	.
.	.	.	.	16gg\JJ	.	.	16gg\JJ	.	.	.	.	.	.	.	.	.	.	.	.	.	.	.	.
4C#\	.	.	.	8ee\L	.	.	8ee\L	.	.	4C#\	.	.	.	.	.	.	.	.	.	.	.	4r	4r
.	.	.	.	8gg\J	.	.	8gg\J	.	.	.	.	.	.	.	.	.	.	.	.	.	.	.	.
!LO:LB:g=original	!	!	!	!	!	!	!LO:LB:g=original	!	!	!	!	!	!	!	!	!	!	!	!	!	!	!	!
=32	=32	=32	=32	=32	=32	=32	=32	=32	=32	=32	=32	=32	=32	=32	=32	=32	=32	=32	=32	=32	=32	=32	=32
4D\	.	.	.	16ff#\LL	.	.	16ff#\LL	.	.	4D\	.	4d\	.	4a\	.	4ff#\	.	2DTTT\	.	2f#/	2dd\	4dd\	4ff#\
.	.	.	.	16gg\	.	.	16gg\	.	.	.	.	.	.	.	.	.	.	.	.	.	.	.	.
.	.	.	.	16aa\	.	.	16aa\	.	.	.	.	.	.	.	.	.	.	.	.	.	.	.	.
.	.	.	.	16ff#\JJ	.	.	16ff#\JJ	.	.	.	.	.	.	.	.	.	.	.	.	.	.	.	.
!	!	!	!	!	!	!	!	!	!	!	!	!	!	!	!	!	!	!	!	!	!	!LO:SIC:v:s=4ff#\	!
4F#\	.	6	.	8dd\L	.	.	8dd\L	.	.	4F#\	.	4f#\	.	4dd\	.	2aa\	.	.	.	.	.	4ff\	[4aa\
.	.	.	.	[8aa\J	.	.	[8aa\J	.	.	.	.	.	.	.	.	.	.	.	.	.	.	.	.
!	!	!	!	!LO:TX:t=P:problem=mixed beam	!	!	!LO:TX:t=P:problem=mixed beam	!	!	!	!	!	!	!	!	!	!	!	!	!	!	!	!
4G\	.	9	.	8aa\L]	.	.	8aa\L]	.	.	4G\	.	4d\	.	2b\	.	.	.	2r	.	2r	2r	2b\	4aa\]
.	.	.	.	8b/J	.	.	8b/J	.	.	.	.	.	.	.	.	.	.	.	.	.	.	.	.
4E\	.	.	.	4gg\	.	.	4gg\	.	.	4E\	.	4e\	.	.	.	4gg\	.	.	.	.	.	.	4gg\
=33	=33	=33	=33	=33	=33	=33	=33	=33	=33	=33	=33	=33	=33	=33	=33	=33	=33	=33	=33	=33	=33	=33	=33
!	!	!	!	!	!	!	!	!	!	!	!	!	!	!	!	!	!	!LO:TX:a:t=5.	!	!	!	!LO:SIC:v:s=2cc#\	!
4C#\	.	.	.	16ee\LL	.	.	16ee\LL	.	.	4C#\	.	2e\	.	2cc#\	.	[2gg\	.	00r	.	00r	00r	2cc\	[2gg\
.	.	.	.	16ff#\	.	.	16ff#\	.	.	.	.	.	.	.	.	.	.	.	.	.	.	.	.
.	.	.	.	16gg\	.	.	16gg\	.	.	.	.	.	.	.	.	.	.	.	.	.	.	.	.
.	.	.	.	16ee\JJ	.	.	16ee\JJ	.	.	.	.	.	.	.	.	.	.	.	.	.	.	.	.
!	!	!	!	!LO:TX:t=P:problem=mixed beam	!	!	!LO:TX:t=P:problem=mixed beam	!	!	!	!	!	!	!	!	!	!	!	!	!	!	!	!
4E\	.	.	.	8a/L	.	.	8a/L	.	.	4E\	.	.	.	.	.	.	.	.	.	.	.	.	.
.	.	.	.	[8gg\J	.	.	[8gg\J	.	.	.	.	.	.	.	.	.	.	.	.	.	.	.	.
4F#\	.	9	.	8gg\L]	.	.	8gg\L]	.	.	4F#\	.	4c#\	.	2a\	.	4gg\]	.	.	.	.	.	2a\	4gg\]
.	.	.	.	8ee\J	.	.	8ee\J	.	.	.	.	.	.	.	.	.	.	.	.	.	.	.	.
4D\	.	.	.	4ff#\	.	.	4ff#\	.	.	4D\	.	4d\	.	.	.	4ff#\	.	.	.	.	.	.	4ff#\
=34	=34	=34	=34	=34	=34	=34	=34	=34	=34	=34	=34	=34	=34	=34	=34	=34	=34	=34	=34	=34	=34	=34	=34
4BB\	.	.	.	16dd\LL	.	.	16dd\LL	.	.	4BB\	.	2d\	.	2b\	.	[2ff#\	.	.	.	.	.	2b\	[2ff#\
.	.	.	.	16ee\	.	.	16ee\	.	.	.	.	.	.	.	.	.	.	.	.	.	.	.	.
.	.	.	.	16ff#\	.	.	16ff#\	.	.	.	.	.	.	.	.	.	.	.	.	.	.	.	.
.	.	.	.	16dd\JJ	.	.	16dd\JJ	.	.	.	.	.	.	.	.	.	.	.	.	.	.	.	.
!	!	!	!	!LO:TX:t=P:problem=mixed beam	!	!	!LO:TX:t=P:problem=mixed beam	!	!	!	!	!	!	!	!	!	!	!	!	!	!	!	!
4D\	.	.	.	8g#X/L	.	.	8g#X/L	.	.	4D\	.	.	.	.	.	.	.	.	.	.	.	.	.
.	.	.	.	[8ff#\J	.	.	[8ff#\J	.	.	.	.	.	.	.	.	.	.	.	.	.	.	.	.
!	!	!	!	!LO:LB:g=original	!	!	!	!	!	!	!	!	!	!	!	!	!	!	!	!	!	!	!
4E\	.	9	.	8ff#\L]	.	.	8ff#\L]	.	.	4E\	.	4B\	.	2g\	.	4ff#\]	.	.	.	.	.	2g\	4ff#\]
.	.	.	.	8dd\J	.	.	8dd\J	.	.	.	.	.	.	.	.	.	.	.	.	.	.	.	.
4C#\	.	.	.	4ee\	.	.	4ee\	.	.	4C#\	.	4c#\	.	.	.	4ee\	.	.	.	.	.	.	4ee\
=35	=35	=35	=35	=35	=35	=35	=35	=35	=35	=35	=35	=35	=35	=35	=35	=35	=35	=35	=35	=35	=35	=35	=35
!	!	!	!	!	!	!	!	!	!	!	!	!	!	!LO:SIC:v:s=2a#\	!	!	!	!	!	!	!	!LO:SIC:v:s=2a#/	!
4AA#X\	.	.	.	16cc#\LL	.	.	16cc#\LL	.	.	4AA#X/	.	2c#\	.	2a\	.	[2ee\	.	.	.	.	.	2a/	[2ee\
.	.	.	.	16dd\	.	.	16dd\	.	.	.	.	.	.	.	.	.	.	.	.	.	.	.	.
.	.	.	.	16ee\	.	.	16ee\	.	.	.	.	.	.	.	.	.	.	.	.	.	.	.	.
.	.	.	.	16cc#\JJ	.	.	16cc#\JJ	.	.	.	.	.	.	.	.	.	.	.	.	.	.	.	.
!	!	!	!	!LO:TX:t=P:problem=mixed beam	!	!	!LO:TX:t=P:problem=mixed beam	!	!	!	!	!	!	!	!	!	!	!	!	!	!	!	!
4C#\	.	.	.	8f#/L	.	.	8f#/L	.	.	4C#/	.	.	.	.	.	.	.	.	.	.	.	.	.
.	.	.	.	[8ee\J	.	.	[8ee\J	.	.	.	.	.	.	.	.	.	.	.	.	.	.	.	.
!	!	!	!	!	!	!	!	!	!	!	!	!	!	!	!	!	!	!	!	!	!	!LO:SIC:v:s=2f#/	!
4D\	.	9	.	8ee\L]	.	.	8ee\L]	.	.	4D/	.	4A\	.	2f#\	.	4ee\]	.	.	.	.	.	2f/	4ee\]
.	.	.	.	8cc#\J	.	.	8cc#\J	.	.	.	.	.	.	.	.	.	.	.	.	.	.	.	.
4BB\	.	.	.	(4dd\	.	.	(4dd\	.	.	4BB/	.	4B\	.	.	.	4dd\	.	.	.	.	.	.	4dd\
!	!	!	!	!	!	!	!	!	!	!LO:LB:g=original	!	!LO:LB:g=original	!	!	!	!	!	!	!	!	!	!	!LO:LB:g=original
=36	=36	=36	=36	=36	=36	=36	=36	=36	=36	=36	=36	=36	=36	=36	=36	=36	=36	=36	=36	=36	=36	=36	=36
4GG#X/	.	.	.	16b\LL)	.	.	16b\LL)	.	.	4GG#X/	.	[2B\	.	4g#X\	.	[2dd\	.	.	.	.	.	4g#X/	[2dd\
.	.	.	.	16cc#\	.	.	16cc#\	.	.	.	.	.	.	.	.	.	.	.	.	.	.	.	.
.	.	.	.	16dd\	.	.	16dd\	.	.	.	.	.	.	.	.	.	.	.	.	.	.	.	.
.	.	.	.	16b\JJ	.	.	16b\JJ	.	.	.	.	.	.	.	.	.	.	.	.	.	.	.	.
!	!	!	!	!LO:TX:t=P:problem=mixed beam	!	!	!LO:TX:t=P:problem=mixed beam	!	!	!	!	!	!	!	!	!	!	!	!	!	!	!	!
4G#y\	.	.	.	8e/L	.	.	8e/L	.	.	4G#y\	.	.	.	4e\	.	.	.	.	.	.	.	[4b/	.
.	.	.	.	[8dd\J	.	.	[8dd\J	.	.	.	.	.	.	.	.	.	.	.	.	.	.	.	.
4A\	.	9 4	.	8dd\L]	.	.	8dd\L]	.	.	4A\	.	4B\]	.	2e\	-rem.	4dd\]	.	.	.	.	.	4b/]	4dd\]
.	.	8 3	.	8b\J	.	.	8b\J	.	.	.	.	.	.	.	.	.	.	.	.	.	.	.	.
4AA/	.	.	.	4cc#\	.	.	4cc#\	.	.	4AA/	-rem	4A\	-rem	.	.	4cc#\	-rem.	.	.	.	.	4a/	4cc#\
=37	=37	=37	=37	=37	=37	=37	=37	=37	=37	=37	=37	=37	=37	=37	=37	=37	=37	=37	=37	=37	=37	=37	=37
!	!	!	!	!LO:TX:t=P:problem=mixed beam	!	!	!LO:TX:t=P:problem=mixed beam	!	!	!	!	!	!	!	!	!	!	!	!	!	!	!	!
4d\	.	10	.	8ff#\L	.	.	8ff#\L	.	.	00r	.	00r	.	00r	.	00r	.	1r	.	1r	1r	0r	0r
.	.	.	.	8a/J	.	.	8a/J	.	.	.	.	.	.	.	.	.	.	.	.	.	.	.	.
4c#\	.	6	.	4ee\	.	.	4ee\	.	.	.	.	.	.	.	.	.	.	.	.	.	.	.	.
4G#X\	.	.	.	8dd\L	.	.	8dd\L	.	.	.	.	.	.	.	.	.	.	.	.	.	.	.	.
.	.	.	.	8b\J	.	.	8b\J	.	.	.	.	.	.	.	.	.	.	.	.	.	.	.	.
4A\	.	.	.	8cc#\L	.	.	4cc#\	.	.	.	.	.	.	.	.	.	.	.	.	.	.	.	.
.	.	.	.	8a\J	.	.	.	.	.	.	.	.	.	.	.	.	.	.	.	.	.	.	.
!	!	!	!	!	!	!	!LO:LB:g=original	!	!	!	!	!	!	!	!	!	!	!	!	!	!	!	!
=38	=38	=38	=38	=38	=38	=38	=38	=38	=38	=38	=38	=38	=38	=38	=38	=38	=38	=38	=38	=38	=38	=38	=38
4e\	.	6 4	.	8a/L	.	.	(8cc#\L	.	.	.	.	.	.	.	.	.	.	4r	.	4r	4r	.	.
.	.	5 #	.	8g#X/	.	.	8b\)	.	.	.	.	.	.	.	.	.	.	.	.	.	.	.	.
4E\	.	.	.	8g#/	.	.	8b\|	.	.	.	.	.	.	.	.	.	.	8AA/L	.	8ee\L	8ee\L	.	.
.	.	.	.	8g#/J	.	.	8b\J|	.	.	.	.	.	.	.	.	.	.	8AA/J	.	8ee\J	8ee\J	.	.
!	!	!	!	!LO:N:vis=4	!	!	!	!	!	!	!	!	!	!	!	!	!	!	!	!	!	!	!
2E\	.	.	.	8g#/L	.	.	2b\	.	.	.	.	.	.	.	.	.	.	2AAT/	.	2ee\	2ee\	.	.
!	!	!	!	!LO:N:vis=4	!	!	!	!	!	!	!	!	!	!	!	!	!	!	!	!	!	!	!
.	.	.	.	8g#/J	.	.	.	.	.	.	.	.	.	.	.	.	.	.	.	.	.	.	.
.	.	.	.	4r	.	.	.	.	.	.	.	.	.	.	.	.	.	.	.	.	.	.	.
!	!	!	!	!	!	!	!	!	!	!	!	!	!	!	!	!	!	!	!	!	!LO:LB:g=original	!LO:LB:g=original	!
=39	=39	=39	=39	=39	=39	=39	=39	=39	=39	=39	=39	=39	=39	=39	=39	=39	=39	=39	=39	=39	=39	=39	=39
!LO:TX:a:i:t=Solo	!	!	!LO:DY:t=pia.	!	!	!LO:DY:t=pia.:rj	!	!	!LO:DY:t=pia&colon;	!	!	!	!	!	!	!	!	!LO:TX:a:t=8	!	!	!	!LO:TX:a:i:t=Solo	!LO:TX:a:i:t=Solo.
4E\|	.	.	p	4e/	.	p	4e/	.	p	.	.	.	.	.	.	.	.	00r	.	00r	00r	8g#X/L	8b\L
.	.	.	.	.	.	.	.	.	.	.	.	.	.	.	.	.	.	.	.	.	.	8a/	8cc#\
4r	.	.	.	4e/	.	.	4e/	.	.	.	.	.	.	.	.	.	.	.	.	.	.	8b/	8dd\
.	.	.	.	.	.	.	.	.	.	.	.	.	.	.	.	.	.	.	.	.	.	8a/J	8cc#\J
4E\|	.	.	.	4e/	.	.	4e/	.	.	.	.	.	.	.	.	.	.	.	.	.	.	8a/L	8cc#\L
.	.	.	.	.	.	.	.	.	.	.	.	.	.	.	.	.	.	.	.	.	.	8g#/J	8b\J
4r	.	.	.	4e/	.	.	4e/	.	.	.	.	.	.	.	.	.	.	.	.	.	.	4g#/	4b\
=40	=40	=40	=40	=40	=40	=40	=40	=40	=40	=40	=40	=40	=40	=40	=40	=40	=40	=40	=40	=40	=40	=40	=40
!LO:TX:a:i:t=Tutti	!	!	!LO:DY:t=for&colon;	!	!	!LO:DY:t=for&colon;	!	!	!LO:DY:t=for&colon;	!	!	!	!	!	!	!	!	!	!	!	!	!	!
8E\L|	.	.	f	8e'/L	.	f	8e'/L	.	f	.	.	.	.	.	.	.	.	.	.	.	.	1r	1r
8E\|	.	.	.	8e'/	.	.	8e'/	.	.	.	.	.	.	.	.	.	.	.	.	.	.	.	.
8G#X\|	.	.	.	8g#X'/	.	.	8g#X'/	.	.	.	.	.	.	.	.	.	.	.	.	.	.	.	.
8B\J|	.	.	.	8b'/J	.	.	8b'/J	.	.	.	.	.	.	.	.	.	.	.	.	.	.	.	.
8e\L|	.	.	.	8ee'/L	.	.	8ee/L|	.	.	.	.	.	.	.	.	.	.	.	.	.	.	.	.
8B\|	.	.	.	8b'/	.	.	8b/|	.	.	.	.	.	.	.	.	.	.	.	.	.	.	.	.
8G#\|	.	.	.	8g#'/	.	.	8g#/|	.	.	.	.	.	.	.	.	.	.	.	.	.	.	.	.
8E\J|	.	.	.	8e'/J	.	.	8e/J|	.	.	.	.	.	.	.	.	.	.	.	.	.	.	.	.
!LO:LB:g=original	!	!	!	!LO:LB:g=original	!	!	!	!	!	!	!	!	!	!	!	!	!	!	!	!	!	!	!
=41	=41	=41	=41	=41	=41	=41	=41	=41	=41	=41	=41	=41	=41	=41	=41	=41	=41	=41	=41	=41	=41	=41	=41
!LO:TX:a:i:t=Solo	!	!	!LO:DY:t=pia.	!	!	!LO:DY:t=pia&colon;:rj	!	!	!LO:DY:t=pia.	!	!	!	!	!	!	!	!	!	!	!	!	!	!
4AA/|>	.	.	p	4A/	.	p	4A/	.	p	00r	.	00r	.	00r	.	00r	.	.	.	.	.	8a\L	8cc#\L
.	.	.	.	.	.	.	.	.	.	.	.	.	.	.	.	.	.	.	.	.	.	8b\	8dd\
!	!	!	!	!	!	!	!	!	!	!	!	!	!	!	!	!	!	!	!	!	!	!LO:SIC:v:s=8cc#\	!
4r	.	.	.	4A/	.	.	4A/	.	.	.	.	.	.	.	.	.	.	.	.	.	.	8cc\	8ee\
.	.	.	.	.	.	.	.	.	.	.	.	.	.	.	.	.	.	.	.	.	.	8b\J	8dd\J
4AA/|>	.	.	.	4A/	.	.	4A/	.	.	.	.	.	.	.	.	.	.	.	.	.	.	8b\L	8dd\L
.	.	.	.	.	.	.	.	.	.	.	.	.	.	.	.	.	.	.	.	.	.	8a\J	8cc#\J
4r	.	.	.	4A/	.	.	4A/	.	.	.	.	.	.	.	.	.	.	.	.	.	.	4a\	4cc#\
=42	=42	=42	=42	=42	=42	=42	=42	=42	=42	=42	=42	=42	=42	=42	=42	=42	=42	=42	=42	=42	=42	=42	=42
!LO:TX:a:i:t=Tutti	!	!	!LO:DY:t=for.	!	!	!LO:DY:t=for	!	!	!LO:DY:t=for	!	!	!	!	!	!	!	!	!	!	!	!	!	!
8AA/L|	.	.	f	8A'/L	.	f	8A'/L	.	f	.	.	.	.	.	.	.	.	.	.	.	.	1r	1r
8AA/|	.	.	.	8A'/	.	.	8A'/	.	.	.	.	.	.	.	.	.	.	.	.	.	.	.	.
8C#/|	.	.	.	8c#'/	.	.	8c#'/	.	.	.	.	.	.	.	.	.	.	.	.	.	.	.	.
8E/J|	.	.	.	8e/J|	.	.	8e'/J	.	.	.	.	.	.	.	.	.	.	.	.	.	.	.	.
8A\L|	.	.	.	8a/L|	.	.	8a/L|	.	.	.	.	.	.	.	.	.	.	.	.	.	.	.	.
8E\|	.	.	.	8e/|	.	.	8e'/	.	.	.	.	.	.	.	.	.	.	.	.	.	.	.	.
8C#\|	.	.	.	8c#/|	.	.	8c#'/	.	.	.	.	.	.	.	.	.	.	.	.	.	.	.	.
8AA\J|	.	.	.	8A/J|	.	.	8A'/J	.	.	.	.	.	.	.	.	.	.	.	.	.	.	.	.
=43	=43	=43	=43	=43	=43	=43	=43	=43	=43	=43	=43	=43	=43	=43	=43	=43	=43	=43	=43	=43	=43	=43	=43
!LO:TX:a:i:t=Solo	!	!	!LO:DY:t=pia.	!	!	!LO:DY:t=pia.	!	!	!LO:DY:t=pia&colon;	!	!	!	!	!	!	!	!	!	!	!	!	!	!
4d\	.	10	p	4d'/	.	p	4d/	.	p	.	.	.	.	.	.	.	.	00r	.	00r	00r	4a/	8ff#\L
.	.	.	.	.	.	.	.	.	.	.	.	.	.	.	.	.	.	.	.	.	.	.	8ff#\J
4c#\	.	6	.	4c#'/	.	.	4c#/	.	.	.	.	.	.	.	.	.	.	.	.	.	.	4a/	4ee\
4G#X\	.	5	.	4G#X'/	.	.	4G#X/	.	.	.	.	.	.	.	.	.	.	.	.	.	.	8b/L	8dd\L
.	.	.	.	.	.	.	.	.	.	.	.	.	.	.	.	.	.	.	.	.	.	8b/J	8dd\J
4A\	.	.	.	4A'/	.	.	4A/	.	.	.	.	.	.	.	.	.	.	.	.	.	.	4a/	4cc#\
=44	=44	=44	=44	=44	=44	=44	=44	=44	=44	=44	=44	=44	=44	=44	=44	=44	=44	=44	=44	=44	=44	=44	=44
4D\|	.	.	.	4A/	.	.	4A/	.	.	.	.	.	.	.	.	.	.	.	.	.	.	8dd\L	8ff#\L
.	.	.	.	.	.	.	.	.	.	.	.	.	.	.	.	.	.	.	.	.	.	8dd\J	8ff#\
!	!	!	!	!	!	!	!	!	!	!	!	!	!	!	!	!	!	!	!	!	!	!LO:SIC:v:s=4cc#\	!
4r	.	.	.	4A/	.	.	4A/	.	.	.	.	.	.	.	.	.	.	.	.	.	.	4cc\	8ee\
.	.	.	.	.	.	.	.	.	.	.	.	.	.	.	.	.	.	.	.	.	.	.	8aa\J
4D\|	.	.	.	4A/	.	.	4A/	.	.	.	.	.	.	.	.	.	.	.	.	.	.	8dd\L	8ff#\L
.	.	.	.	.	.	.	.	.	.	.	.	.	.	.	.	.	.	.	.	.	.	8dd\J	8ff#\
!	!	!	!	!	!	!	!	!	!	!	!	!	!	!	!	!	!	!	!	!	!	!LO:SIC:v:s=4cc#\	!
4r	.	.	.	4A/	.	.	4A/	.	.	.	.	.	.	.	.	.	.	.	.	.	.	4cc\	8ee\
.	.	.	.	.	.	.	.	.	.	.	.	.	.	.	.	.	.	.	.	.	.	.	8aa\J
=45	=45	=45	=45	=45	=45	=45	=45	=45	=45	=45	=45	=45	=45	=45	=45	=45	=45	=45	=45	=45	=45	=45	=45
!	!	!	!	!	!	!	!	!	!	!	!	!	!	!	!	!	!	!	!	!	!	!LO:SIC:v:s=8cc#\L	!
4AA/|>	.	.	.	4A/	.	.	4A/	.	.	0r	.	0r	.	0r	.	0r	.	.	.	.	.	8cc\L	8ee\L
!	!	!	!	!	!	!	!	!	!	!	!	!	!	!	!	!	!	!	!	!	!	!LO:SIC:v:s=8cc#\	!
.	.	.	.	.	.	.	.	.	.	.	.	.	.	.	.	.	.	.	.	.	.	8cc\	8ee\
4A\|	.	.	.	4a/	.	.	4a/	.	.	.	.	.	.	.	.	.	.	.	.	.	.	8b\	8dd\
.	.	.	.	.	.	.	.	.	.	.	.	.	.	.	.	.	.	.	.	.	.	8a\J	8cc#\J
!	!	!	!	!	!	!	!	!	!	!	!	!	!	!	!	!	!	!	!	!	!	!LO:LB:g=original	!
4E\|	.	.	.	4e/	.	.	4e/	.	.	.	.	.	.	.	.	.	.	.	.	.	.	8b\L	8dd\L
.	.	.	.	.	.	.	.	.	.	.	.	.	.	.	.	.	.	.	.	.	.	8b\	8dd\
4E\|	.	.	.	4e/	.	.	4e/	.	.	.	.	.	.	.	.	.	.	.	.	.	.	8a\	8cc#\
.	.	.	.	.	.	.	.	.	.	.	.	.	.	.	.	.	.	.	.	.	.	8g#X\J	8b\J
!	!	!	!	!	!	!	!LO:LB:g=original	!	!	!	!	!	!	!	!	!	!	!	!	!	!	!	!
=46	=46	=46	=46	=46	=46	=46	=46	=46	=46	=46	=46	=46	=46	=46	=46	=46	=46	=46	=46	=46	=46	=46	=46
!LO:TX:a:i:t=Tutti	!	!	!	!	!	!LO:DY:t=for&colon;:rj	!	!	!LO:DY:t=for&colon;:rj	!	!	!	!	!	!	!	!	!	!	!	!	!	!
8AA/L|	.	.	f	8A/L	.	f	8A/L	.	f	.	.	.	.	.	.	.	.	.	.	.	.	4a\	4cc#\
16AA/L|	.	.	.	16A/L	.	.	16A/L	.	.	.	.	.	.	.	.	.	.	.	.	.	.	.	.
16AA/JJ|	.	.	.	16A/JJ	.	.	16A/JJ	.	.	.	.	.	.	.	.	.	.	.	.	.	.	.	.
16C#/LL|	.	.	.	16c#/LL	.	.	16c#/LL	.	.	.	.	.	.	.	.	.	.	.	.	.	.	4r	4r
16AA/|	.	.	.	16A/	.	.	16A/	.	.	.	.	.	.	.	.	.	.	.	.	.	.	.	.
16E/|	.	.	.	16e/	.	.	16e/	.	.	.	.	.	.	.	.	.	.	.	.	.	.	.	.
16C#/JJ|	.	.	.	16c#/JJ	.	.	16c#/JJ	.	.	.	.	.	.	.	.	.	.	.	.	.	.	.	.
!LO:TX:t=P:problem=mixed beam	!	!	!	!	!	!	!	!	!	!	!	!	!	!	!	!	!	!	!	!	!	!	!
8A\L|>	.	.	.	8a/L	.	.	8a/L	.	.	.	.	.	.	.	.	.	.	.	.	.	.	2r	2r
8C#/|	.	.	.	8c#/	.	.	8c#/	.	.	.	.	.	.	.	.	.	.	.	.	.	.	.	.
8D/|	.	.	.	8d/	.	.	8d/	.	.	.	.	.	.	.	.	.	.	.	.	.	.	.	.
8E/J|	.	.	.	8e/J	.	.	8e/J	.	.	.	.	.	.	.	.	.	.	.	.	.	.	.	.
!	!	!	!	!	!	!	!	!	!	!	!	!	!	!LO:LB:g=original	!	!	!	!	!	!	!	!	!LO:LB:g=original
=47	=47	=47	=47	=47	=47	=47	=47	=47	=47	=47	=47	=47	=47	=47	=47	=47	=47	=47	=47	=47	=47	=47	=47
!LO:TX:t=P:problem=mixed beam	!	!	!	!LO:TX:t=P:problem=mixed beam	!	!	!LO:TX:t=P:problem=mixed beam	!	!	!	!	!	!	!	!	!	!	!	!	!	!	!LO:TX:a:i:t=Tutti	!LO:TX:a:i:t=Tutti:rj
8AA/L	.	.	.	8A/L	.	.	8A/L	.	.	4A\	be-	4A\	be-	4e\	be-	4cc#\	be-	2r	.	2r	2r	8r	8r
8A\J	.	.	.	8a\J	.	.	8cc#\J	.	.	.	.	.	.	.	.	.	.	.	.	.	.	8a/	8cc#\
!	!	!	!	!LO:SIC:v:s=4g#/	!	!	!	!	!	!	!	!	!	!	!	!	!	!	!	!	!	!	!
4G#X\	.	.	.	4g/	.	.	4b\	.	.	4G#X\	.	4B\	-ne-	4e\	-ne-	4b\	-ne-	.	.	.	.	4e/	4b\
!LO:TX:t=P:problem=mixed beam	!	!	!	!LO:TX:t=P:problem=mixed beam	!	!	!	!	!	!	!	!	!	!	!	!	!	!	!	!	!	!	!
8A\L	.	.	.	8a\L	.	.	8cc#\L	.	.	8A\	-ne-	8A\L	-di-	8e\L	-di-	8cc#\L	-di-	8r	.	8r	8r	8a/L	8cc#\L
8C#/	.	.	.	8c#/J	.	.	8a\	.	.	8C#/	-di-	8e\J	.	8c#\J	.	8a\J	.	8AA/L	.	8ee\L	8ee\L	8e/	8a\
8D/	.	.	.	4B/	.	.	8a\	.	.	8D\L	-xi-	8f#\L	-xi-	4B\	-xi-	8a\L	-xiſ-	8D/	.	8ff#\	8ff#\	8f/	8a\
8E/J	.	.	.	.	.	.	8g#X\J	.	.	8E\J	.	8e\J	.	.	.	8g#X\J	.	8AA/J	.	8ee\J	8ee\J	8e/J	8g#X\J
!LO:LB:g=original	!	!	!	!	!	!	!	!	!	!	!	!	!	!	!	!LO:LB:g=original	!	!	!	!	!	!	!
=48	=48	=48	=48	=48	=48	=48	=48	=48	=48	=48	=48	=48	=48	=48	=48	=48	=48	=48	=48	=48	=48	=48	=48
8AA|/L	.	.	.	8A/L	.	.	8a/L	.	.	4AA/	-ſti	4e\	-ſti	4c#\	-ſti	4a\	-ti	4AA/	.	4a/	4ee\	4e/	4a\
16AA|/L	.	.	.	16A/L	.	.	16A/L	.	.	.	.	.	.	.	.	.	.	.	.	.	.	.	.
16AA|/JJ	.	.	.	16A/JJ	.	.	16A/JJ	.	.	.	.	.	.	.	.	.	.	.	.	.	.	.	.
16C#|/LL	.	.	.	16c#/LL	.	.	16c#/LL	.	.	4r	.	4r	.	4r	.	4r	.	4r	.	4r	4r	4r	4r
16AA|/	.	.	.	16A/	.	.	16A/	.	.	.	.	.	.	.	.	.	.	.	.	.	.	.	.
16E|/	.	.	.	16e/	.	.	16e/	.	.	.	.	.	.	.	.	.	.	.	.	.	.	.	.
16C#|/JJ	.	.	.	16c#/JJ	.	.	16c#/JJ	.	.	.	.	.	.	.	.	.	.	.	.	.	.	.	.
!LO:TX:t=P:problem=mixed beam	!	!	!	!LO:LB:g=original	!	!	!	!	!	!	!	!	!	!	!	!	!	!	!	!	!	!	!
8A\L	.	.	.	8a/L	.	.	8a/L	.	.	2r	.	2r	.	2r	.	2r	.	2r	.	2r	2r	2r	2r
16AA|/L	.	.	.	16A/L	.	.	16A/L	.	.	.	.	.	.	.	.	.	.	.	.	.	.	.	.
16AA|/JJ	.	.	.	16A/JJ	.	.	16A/JJ	.	.	.	.	.	.	.	.	.	.	.	.	.	.	.	.
16D|/LL	.	.	.	16d/LL	.	.	16d/LL	.	.	.	.	.	.	.	.	.	.	.	.	.	.	.	.
16AA|/	.	.	.	16A/	.	.	16A/	.	.	.	.	.	.	.	.	.	.	.	.	.	.	.	.
16F#|/	.	.	.	16f#/	.	.	16f#/	.	.	.	.	.	.	.	.	.	.	.	.	.	.	.	.
16D|/JJ	.	.	.	16d/JJ	.	.	16d/JJ	.	.	.	.	.	.	.	.	.	.	.	.	.	.	.	.
=49	=49	=49	=49	=49	=49	=49	=49	=49	=49	=49	=49	=49	=49	=49	=49	=49	=49	=49	=49	=49	=49	=49	=49
!LO:TX:t=P:problem=mixed beam	!	!	!	!	!	!	!	!	!	!	!	!	!	!	!	!	!	!LO:TX:a:t=1.	!	!	!	!	!
8A|<\L	.	.	.	8a/L	.	.	8a/L	.	.	1r	.	1r	.	1r	.	1r	.	1r	.	1r	1r	1r	1r
16AA|/L	.	.	.	16A/L	.	.	16A/L	.	.	.	.	.	.	.	.	.	.	.	.	.	.	.	.
16AA|/JJ	.	.	.	16A/JJ	.	.	16A/JJ	.	.	.	.	.	.	.	.	.	.	.	.	.	.	.	.
16C#|/LL	.	.	.	16c#/LL	.	.	16c#/LL	.	.	.	.	.	.	.	.	.	.	.	.	.	.	.	.
16AA|/	.	.	.	16A/	.	.	16A/	.	.	.	.	.	.	.	.	.	.	.	.	.	.	.	.
16E|/	.	.	.	16e/	.	.	16e/	.	.	.	.	.	.	.	.	.	.	.	.	.	.	.	.
16C#|/JJ	.	.	.	16c#/JJ	.	.	16c#/JJ	.	.	.	.	.	.	.	.	.	.	.	.	.	.	.	.
8A|<\L	.	.	.	8a/L	.	.	8a/L	.	.	.	.	.	.	.	.	.	.	.	.	.	.	.	.
16E|<\L	.	.	.	16e/L	.	.	16e/L	.	.	.	.	.	.	.	.	.	.	.	.	.	.	.	.
16E|<\JJ	.	.	.	16e/JJ	.	.	16e/JJ	.	.	.	.	.	.	.	.	.	.	.	.	.	.	.	.
8C#|/L	.	.	.	8c#/L	.	.	8c#/L	.	.	.	.	.	.	.	.	.	.	.	.	.	.	.	.
8AA|/J	.	.	.	8A/J	.	.	8A/J	.	.	.	.	.	.	.	.	.	.	.	.	.	.	.	.
!	!	!	!	!	!	!	!	!	!	!	!	!	!	!	!	!	!	!LO:LB:g=original	!	!LO:LB:g=original	!	!	!
=50	=50	=50	=50	=50	=50	=50	=50	=50	=50	=50	=50	=50	=50	=50	=50	=50	=50	=50	=50	=50	=50	=50	=50
*	*	*	*	*^	*	*	*	*	*	*	*	*	*	*	*	*	*	*	*	*	*	*	*
*	*	*	*	*tremolo	*	*	*	*	*	*	*	*	*	*	*	*	*	*	*	*	*	*	*	*
!	!	!	!	!	!	!	!	!	!	!	!	!	!	!	!	!	!	!	!	!LO:DY:rj	!	!	!	!
8E\L	.	.	.	16e/LL	16B\LL	.	.	8r	.	.	2G#X\	be-	2B\	be-	2e\	be-	2dd\	be-	2AATT/	p	2ee\	2ee\	4r	4r
.	.	.	.	16e/	16B\	.	.	.	.	.	.	.	.	.	.	.	.	.	.	.	.	.	.	.
8G#X\	.	6 5	.	16e/	16B\	.	.	16e/LL	.	.	.	.	.	.	.	.	.	.	.	.	.	.	.	.
.	.	.	.	16e/	16B\	.	.	16e/JJ	.	.	.	.	.	.	.	.	.	.	.	.	.	.	.	.
8G#\	.	.	.	16e/	16B\	.	.	8e/L	.	.	.	.	.	.	.	.	.	.	.	.	.	.	4b\	4dd\
.	.	.	.	16e/	16B\	.	.	.	.	.	.	.	.	.	.	.	.	.	.	.	.	.	.	.
8G#\J	.	.	.	16e/	16B\	.	.	8e/J	.	.	.	.	.	.	.	.	.	.	.	.	.	.	.	.
.	.	.	.	16e/JJ	16B\JJ	.	.	.	.	.	.	.	.	.	.	.	.	.	.	.	.	.	.	.
*tremolo	*	*	*	*	*	*	*	*	*	*	*	*	*	*	*	*	*	*	*	*	*	*	*	*
8G#\L	.	.	.	16e/LL	16B\LL	.	.	8dd\L	.	.	2G#\	-ne-	2B\	-ne-	2e\	-ne-	2dd\	-ne-	2AATTT/	.	2ee\	2ee\	2b\	2dd\
.	.	.	.	16e/	16B\	.	.	.	.	.	.	.	.	.	.	.	.	.	.	.	.	.	.	.
8G#\	.	.	.	16e/	16B\	.	.	8b\J	.	.	.	.	.	.	.	.	.	.	.	.	.	.	.	.
.	.	.	.	16e/	16B\	.	.	.	.	.	.	.	.	.	.	.	.	.	.	.	.	.	.	.
8G#\	.	.	.	16e/	16B\	.	.	4e/	.	.	.	.	.	.	.	.	.	.	.	.	.	.	.	.
.	.	.	.	16e/	16B\	.	.	.	.	.	.	.	.	.	.	.	.	.	.	.	.	.	.	.
8G#\J	.	.	.	16e/	16B\	.	.	.	.	.	.	.	.	.	.	.	.	.	.	.	.	.	.	.
.	.	.	.	16e/JJ	16B\JJ	.	.	.	.	.	.	.	.	.	.	.	.	.	.	.	.	.	.	.
!	!	!	!	!	!	!	!	!LO:LB:g=original	!	!	!	!	!	!	!	!	!	!	!	!	!	!	!	!
=51	=51	=51	=51	=51	=51	=51	=51	=51	=51	=51	=51	=51	=51	=51	=51	=51	=51	=51	=51	=51	=51	=51	=51	=51
8A\L	.	.	.	16e/LL	16c#\LL	.	.	8r	.	.	2A\	-di-	2A\	-di-	2e\	-di-	2cc#\	-di-	2AATTT/	.	2a/	2ee\	1a	1cc#
.	.	.	.	16e/	16c#\	.	.	.	.	.	.	.	.	.	.	.	.	.	.	.	.	.	.	.
8A\	.	.	.	16e/	16c#\	.	.	16e/LL	.	.	.	.	.	.	.	.	.	.	.	.	.	.	.	.
.	.	.	.	16e/	16c#\	.	.	16e/JJ	.	.	.	.	.	.	.	.	.	.	.	.	.	.	.	.
8A\	.	.	.	16e/	16c#\	.	.	8e/L	.	.	.	.	.	.	.	.	.	.	.	.	.	.	.	.
.	.	.	.	16e/	16c#\	.	.	.	.	.	.	.	.	.	.	.	.	.	.	.	.	.	.	.
8A\J	.	.	.	16e/	16c#\	.	.	8e/J	.	.	.	.	.	.	.	.	.	.	.	.	.	.	.	.
.	.	.	.	16e/JJ	16c#\JJ	.	.	.	.	.	.	.	.	.	.	.	.	.	.	.	.	.	.	.
8A\L	.	.	.	16e/LL	16c#\LL	.	.	8cc#\L	.	.	4A\	-xi-	4A\	-xi-	4e\	-xi-	4cc#\	-xi-	2AATTT/	.	2a/	2ee\	.	.
.	.	.	.	16e/	16c#\	.	.	.	.	.	.	.	.	.	.	.	.	.	.	.	.	.	.	.
8A\	.	.	.	16e/	16c#\	.	.	8a\J	.	.	.	.	.	.	.	.	.	.	.	.	.	.	.	.
.	.	.	.	16e/	16c#\	.	.	.	.	.	.	.	.	.	.	.	.	.	.	.	.	.	.	.
8A\	.	.	.	16e/	16c#\	.	.	4e/	.	.	4A\	-ſti	4A\	-ſti	4e\	-sti	4cc#\	-ſti	.	.	.	.	.	.
.	.	.	.	16e/	16c#\	.	.	.	.	.	.	.	.	.	.	.	.	.	.	.	.	.	.	.
8A\J	.	.	.	16e/	16c#\	.	.	.	.	.	.	.	.	.	.	.	.	.	.	.	.	.	.	.
.	.	.	.	16e/JJ	16c#\JJ	.	.	.	.	.	.	.	.	.	.	.	.	.	.	.	.	.	.	.
*	*	*	*	*v	*v	*	*	*	*	*	*	*	*	*	*	*	*	*	*	*	*	*	*	*
=52	=52	=52	=52	=52	=52	=52	=52	=52	=52	=52	=52	=52	=52	=52	=52	=52	=52	=52	=52	=52	=52	=52	=52
8G#X\L	.	6 5	.	16e 16B/LL	.	.	8r	.	.	2G#X\	Do-	2B\	Do-	2e\	Do-	2dd\	Do-	2AATTT/	.	2ee\	2ee\	1b	1dd
.	.	.	.	16e 16B/	.	.	.	.	.	.	.	.	.	.	.	.	.	.	.	.	.	.	.
8G#\	.	.	.	16e 16B/	.	.	16e/LL	.	.	.	.	.	.	.	.	.	.	.	.	.	.	.	.
.	.	.	.	16e 16B/	.	.	16e/JJ	.	.	.	.	.	.	.	.	.	.	.	.	.	.	.	.
8G#\	.	.	.	16e 16B/	.	.	8e/L	.	.	.	.	.	.	.	.	.	.	.	.	.	.	.	.
.	.	.	.	16e 16B/	.	.	.	.	.	.	.	.	.	.	.	.	.	.	.	.	.	.	.
8G#\J	.	.	.	16e 16B/	.	.	8e/J	.	.	.	.	.	.	.	.	.	.	.	.	.	.	.	.
.	.	.	.	16e 16B/JJ	.	.	.	.	.	.	.	.	.	.	.	.	.	.	.	.	.	.	.
8G#\L	.	.	.	16e 16B/LL	.	.	8dd\L	.	.	2G#\	-mi-	2B\	-mi-	2e\	-mi-	2dd\	-mi-	2AATTT/	.	2ee\	2ee\	.	.
.	.	.	.	16e 16B/	.	.	.	.	.	.	.	.	.	.	.	.	.	.	.	.	.	.	.
8G#\	.	.	.	16e 16B/	.	.	8b\J	.	.	.	.	.	.	.	.	.	.	.	.	.	.	.	.
.	.	.	.	16e 16B/	.	.	.	.	.	.	.	.	.	.	.	.	.	.	.	.	.	.	.
8G#\	.	.	.	16e 16B/	.	.	4e/	.	.	.	.	.	.	.	.	.	.	.	.	.	.	.	.
.	.	.	.	16e 16B/	.	.	.	.	.	.	.	.	.	.	.	.	.	.	.	.	.	.	.
8G#\J	.	.	.	16e 16B/	.	.	.	.	.	.	.	.	.	.	.	.	.	.	.	.	.	.	.
.	.	.	.	16e 16B/JJ	.	.	.	.	.	.	.	.	.	.	.	.	.	.	.	.	.	.	.
=53	=53	=53	=53	=53	=53	=53	=53	=53	=53	=53	=53	=53	=53	=53	=53	=53	=53	=53	=53	=53	=53	=53	=53
8A\L	.	.	.	16e 16c#/LL	.	.	8r	.	.	1A	-ne	1A	-ne,	1e	-ne	1cc#	-ne	2AATTT/	.	2a/	2ee\	1a	1cc#
.	.	.	.	16e 16c#/	.	.	.	.	.	.	.	.	.	.	.	.	.	.	.	.	.	.	.
8A\	.	.	.	16e 16c#/	.	.	16e/LL	.	.	.	.	.	.	.	.	.	.	.	.	.	.	.	.
.	.	.	.	16e 16c#/	.	.	16e/JJ	.	.	.	.	.	.	.	.	.	.	.	.	.	.	.	.
8A\	.	.	.	16e 16c#/	.	.	8e/L	.	.	.	.	.	.	.	.	.	.	.	.	.	.	.	.
.	.	.	.	16e 16c#/	.	.	.	.	.	.	.	.	.	.	.	.	.	.	.	.	.	.	.
8A\J	.	.	.	16e 16c#/	.	.	8e/J	.	.	.	.	.	.	.	.	.	.	.	.	.	.	.	.
.	.	.	.	16e 16c#/JJ	.	.	.	.	.	.	.	.	.	.	.	.	.	.	.	.	.	.	.
8A\L	.	.	.	16e 16c#/LL	.	.	8cc#\L	.	.	.	.	.	.	.	.	.	.	2AATTT/	.	2a/	2ee\	.	.
.	.	.	.	16e 16c#/	.	.	.	.	.	.	.	.	.	.	.	.	.	.	.	.	.	.	.
8A\	.	.	.	16e 16c#/	.	.	8a\J	.	.	.	.	.	.	.	.	.	.	.	.	.	.	.	.
.	.	.	.	16e 16c#/	.	.	.	.	.	.	.	.	.	.	.	.	.	.	.	.	.	.	.
8A\	.	.	.	16e 16c#/	.	.	4e/	.	.	.	.	.	.	.	.	.	.	.	.	.	.	.	.
.	.	.	.	16e 16c#/	.	.	.	.	.	.	.	.	.	.	.	.	.	.	.	.	.	.	.
8A\J	.	.	.	16e 16c#/	.	.	.	.	.	.	.	.	.	.	.	.	.	.	.	.	.	.	.
.	.	.	.	16e 16c#/JJ	.	.	.	.	.	.	.	.	.	.	.	.	.	.	.	.	.	.	.
*Xtremolo	*	*	*	*	*	*	*	*	*	*	*	*	*	*	*	*	*	*	*	*	*	*	*
!	!	!	!	!	!	!	!	!	!	!LO:LB:g=original	!	!LO:LB:g=original	!	!	!	!	!	!	!	!	!	!	!
=54	=54	=54	=54	=54	=54	=54	=54	=54	=54	=54	=54	=54	=54	=54	=54	=54	=54	=54	=54	=54	=54	=54	=54
4d\	.	.	.	16a/LL	.	.	16ff#\LL	.	.	4d\	Ter-	4d\	Ter-	2a\	Ter-	4ff#\	Ter-	4DTTT\	.	4dd\	4ff#\	4a\	4ff#\
.	.	.	.	16a/	.	.	16gg#X\	.	.	.	.	.	.	.	.	.	.	.	.	.	.	.	.
.	.	.	.	16a/	.	.	16aa\	.	.	.	.	.	.	.	.	.	.	.	.	.	.	.	.
.	.	.	.	16a/	.	.	16ff#\JJ	.	.	.	.	.	.	.	.	.	.	.	.	.	.	.	.
4c#\	.	6	.	16a/	.	.	8ee\L	.	.	4c#\	.	4e\	.	.	.	4ee\	.	4AATTT/	.	4a\	4ee\	4a\	4ee\
.	.	.	.	16a/	.	.	.	.	.	.	.	.	.	.	.	.	.	.	.	.	.	.	.
.	.	.	.	16a/	.	.	8ee\J	.	.	.	.	.	.	.	.	.	.	.	.	.	.	.	.
.	.	.	.	16a/JJ	.	.	.	.	.	.	.	.	.	.	.	.	.	.	.	.	.	.	.
4G#X\	.	.	.	16e/LL	.	.	16dd\LL	.	.	4G#X\	-ram	2e\	-ram	4b\	-ram	4dd\	-ram	4AATTT/	.	4ee\	4ee\	4b\	4dd\
.	.	.	.	16e/	.	.	16cc#\	.	.	.	.	.	.	.	.	.	.	.	.	.	.	.	.
.	.	.	.	16e/	.	.	16dd\	.	.	.	.	.	.	.	.	.	.	.	.	.	.	.	.
.	.	.	.	16e/	.	.	16b\JJ	.	.	.	.	.	.	.	.	.	.	.	.	.	.	.	.
4A\	.	.	.	16e/	.	.	8cc#\L	.	.	4A\	.	.	.	4a\	.	4cc#\	.	4AATTT/	.	4a\	4ee\	4a\	4cc#\
.	.	.	.	16e/	.	.	.	.	.	.	.	.	.	.	.	.	.	.	.	.	.	.	.
.	.	.	.	16e/	.	.	8cc#\J	.	.	.	.	.	.	.	.	.	.	.	.	.	.	.	.
.	.	.	.	16e/JJ	.	.	.	.	.	.	.	.	.	.	.	.	.	.	.	.	.	.	.
!LO:LB:g=original	!	!	!	!	!	!	!	!	!	!	!	!	!	!	!	!	!	!	!	!	!	!LO:LB:g=original	!
=55	=55	=55	=55	=55	=55	=55	=55	=55	=55	=55	=55	=55	=55	=55	=55	=55	=55	=55	=55	=55	=55	=55	=55
4d\	.	.	.	16a/LL	.	.	16ff#\LL	.	.	4d\	tu-	4d\	tu-	2a\	tu-	4ff#\	tu-	4DTTT\	.	4dd\	4ff#\	2a\	4ff#\
.	.	.	.	16a/	.	.	16gg#X\	.	.	.	.	.	.	.	.	.	.	.	.	.	.	.	.
.	.	.	.	16a/	.	.	16aa\	.	.	.	.	.	.	.	.	.	.	.	.	.	.	.	.
.	.	.	.	16a/	.	.	16ff#\JJ	.	.	.	.	.	.	.	.	.	.	.	.	.	.	.	.
4c#\	.	6	.	16a/	.	.	8ee\L	.	.	4c#\	.	4e\	.	.	.	4ee\	.	4AATTT/	.	4a\	4ee\	.	4ee\
.	.	.	.	16a/	.	.	.	.	.	.	.	.	.	.	.	.	.	.	.	.	.	.	.
.	.	.	.	16a/	.	.	8ee\J	.	.	.	.	.	.	.	.	.	.	.	.	.	.	.	.
.	.	.	.	16a/JJ	.	.	.	.	.	.	.	.	.	.	.	.	.	.	.	.	.	.	.
4G#X\	.	.	.	16e/LL	.	.	16dd\LL	.	.	4G#X\	-am	2e\	-am	4b\	-am	4dd\	-am	4AATTT/	.	4ee\	4ee\	4b\	4dd\
.	.	.	.	16e/	.	.	16cc#\	.	.	.	.	.	.	.	.	.	.	.	.	.	.	.	.
.	.	.	.	16e/	.	.	16dd\	.	.	.	.	.	.	.	.	.	.	.	.	.	.	.	.
.	.	.	.	16e/	.	.	16b\JJ	.	.	.	.	.	.	.	.	.	.	.	.	.	.	.	.
4A\	.	.	.	16e/	.	.	8cc#\L	.	.	4A\	.	.	.	4a\	.	4cc#\	.	4AATTT/	.	4a\	4ee\	4a\	4cc#\
.	.	.	.	16e/	.	.	.	.	.	.	.	.	.	.	.	.	.	.	.	.	.	.	.
.	.	.	.	16e/	.	.	8cc#\J	.	.	.	.	.	.	.	.	.	.	.	.	.	.	.	.
.	.	.	.	16e/JJ	.	.	.	.	.	.	.	.	.	.	.	.	.	.	.	.	.	.	.
*	*	*	*	*Xtremolo	*	*	*	*	*	*	*	*	*	*	*	*	*	*	*	*	*	*	*
!	!	!	!	!	!	!	!	!	!	!	!	!	!	!LO:LB:g=original	!	!	!	!	!	!	!	!	!
=56	=56	=56	=56	=56	=56	=56	=56	=56	=56	=56	=56	=56	=56	=56	=56	=56	=56	=56	=56	=56	=56	=56	=56
!	!	!	!	!LO:TX:t=P:problem=mixed beam	!	!	!LO:TX:t=P:problem=mixed beam	!	!	!	!	!	!	!	!	!	!	!	!	!	!	!	!
4d\	.	.	.	8d/L	.	.	8f#/\L	.	.	4d\	a-	4d\	a-	4a\	a-	4ff#\	a-	4D\	.	4dd\	4ff#\	4dd\	4ff#\
.	.	.	.	8ff#\J	.	.	8ff#\J	.	.	.	.	.	.	.	.	.	.	.	.	.	.	.	.
4d\	.	.	.	16ee\LL	.	.	16ee\LL	.	.	4d\	-ver-	4D/	-ver-	4a\	-ver-	4ff#\	-vet-	4r	.	4r	4r	4r	4r
.	.	.	.	16dd\	.	.	16dd\	.	.	.	.	.	.	.	.	.	.	.	.	.	.	.	.
.	.	.	.	16cc#\	.	.	16cc#\	.	.	.	.	.	.	.	.	.	.	.	.	.	.	.	.
.	.	.	.	16b\JJ	.	.	16b\JJ	.	.	.	.	.	.	.	.	.	.	.	.	.	.	.	.
!	!	!	!	!LO:LB:g=original	!	!	!LO:LB:g=original	!	!	!	!	!	!	!	!	!	!	!	!	!	!	!	!
!	!	!	!	!LO:TX:t=P:problem=mixed beam	!	!	!LO:TX:t=P:problem=mixed beam	!	!	!	!	!	!	!	!	!	!	!	!	!	!	!LO:SIC:v:s=4cc#\	!
4c#\	.	.	.	8c#/L	.	.	8e/L	.	.	4c#\	-ti-	4E/	-ti-	4a\	-ti-	4ee\	-ti-	4AA/	.	4a/	4ee\	4cc\	4ee\
.	.	.	.	8ee\J	.	.	8ee\J	.	.	.	.	.	.	.	.	.	.	.	.	.	.	.	.
4c#\	.	.	.	16dd\LL	.	.	16dd\LL	.	.	8c#\	-ſti	8E/	-ſti	8a\	-ſti	8ee\	-ſti	4r	.	4r	4r	4r	4r
.	.	.	.	16cc#\	.	.	16cc#\	.	.	.	.	.	.	.	.	.	.	.	.	.	.	.	.
.	.	.	.	16b\	.	.	16b\	.	.	8c#\	Ca-	8E/	Ca-	8a\	Ca-	8ee\	Cap-	.	.	.	.	.	.
.	.	.	.	16a\JJ	.	.	16a\JJ	.	.	.	.	.	.	.	.	.	.	.	.	.	.	.	.
=57	=57	=57	=57	=57	=57	=57	=57	=57	=57	=57	=57	=57	=57	=57	=57	=57	=57	=57	=57	=57	=57	=57	=57
!	!	!	!	!	!	!	!	!	!	!	!	!	!	!	!	!	!	!LO:TX:a:t=1.	!	!	!	!	!
8r	.	.	.	16e/LL	.	.	16g#X/LL	.	.	4E\	-pti-	4.E/	-pti-	4.b\	-pti-	4dd\	-ti-	1r	.	1r	1r	1r	1r
.	.	.	.	16g#X/JJ	.	.	16b/JJ	.	.	.	.	.	.	.	.	.	.	.	.	.	.	.	.
8E\L	.	.	.	4b\	.	.	4dd\	.	.	.	.	.	.	.	.	.	.	.	.	.	.	.	.
8G#X\	.	.	.	.	.	.	.	.	.	8G#X\L	-vi-	.	.	.	.	8dd\L	-vi-	.	.	.	.	.	.
8A\J	.	.	.	8a\	.	.	8cc#\	.	.	8A\J	.	8e\	-vi-	8a\	-vi-	8cc#\J	.	.	.	.	.	.	.
!	!	!	!	!	!	!	!	!	!	!	!	!	!	!	!	!LO:LB:g=original	!	!	!	!	!	!	!
8r	.	.	.	16f#/LL	.	.	16a\LL	.	.	4.d\	-ta-	4.d\	-ta-	2a\	-ta-	4.ff#\	-ta-	.	.	.	.	.	.
.	.	.	.	16a/JJ	.	.	16dd\JJ	.	.	.	.	.	.	.	.	.	.	.	.	.	.	.	.
!LO:TX:t=P:problem=mixed beam	!	!	!	!	!	!	!	!	!	!	!	!	!	!	!	!	!	!	!	!	!	!	!
8D/L	.	.	.	8dd\	.	.	4ff#\	.	.	.	.	.	.	.	.	.	.	.	.	.	.	.	.
8d\	.	.	.	8a/L	.	.	.	.	.	.	.	.	.	.	.	.	.	.	.	.	.	.	.
8c#\J	.	.	.	8a/J	.	.	8ee\	.	.	8c#\	.	8A\	.	.	.	8ee\	.	.	.	.	.	.	.
!	!	!	!	!	!	!	!	!	!	!	!	!	!	!	!	!	!	!	!	!	!LO:LB:g=original	!	!
=58	=58	=58	=58	=58	=58	=58	=58	=58	=58	=58	=58	=58	=58	=58	=58	=58	=58	=58	=58	=58	=58	=58	=58
*	*	*	*	*^	*	*	*	*	*	*	*	*	*	*	*	*	*	*	*	*	*	*	*
4d\	.	.	.	8a\L	2ryy	.	.	8ff#\L	.	.	4d\	-tem	4d\	-tem	4a\	-tem	4ff#\	-tem	2r	.	2r	2r	2r	2r
.	.	.	.	8ff#\J	.	.	.	8aa\J	.	.	.	.	.	.	.	.	.	.	.	.	.	.	.	.
4r	.	.	.	16ee\LL	.	.	.	16gg#X\LL	.	.	4r	.	4r	.	4r	.	4r	.	.	.	.	.	.	.
.	.	.	.	16dd\	.	.	.	16ff#\	.	.	.	.	.	.	.	.	.	.	.	.	.	.	.	.
.	.	.	.	16cc#\	.	.	.	16ee\	.	.	.	.	.	.	.	.	.	.	.	.	.	.	.	.
.	.	.	.	16b\JJ	.	.	.	16dd\JJ	.	.	.	.	.	.	.	.	.	.	.	.	.	.	.	.
!	!	!	!	!	!	!	!	!	!	!	!	!	!	!	!	!	!	!	!	!	!	!	!LO:SIC:v:s=2cc#\	!
8e\L	.	6_ 4_	.	8cc#/L	8a\L	.	.	8cc#\L	.	.	2e\	Ja-	2e\	Ja-	2a\	Ja-	2cc#\	Ja-	2AATT/	.	2ee\	2ee\	2cc\	2aa\
8e\	.	.	.	8cc#/	8a\	.	.	16aa\L	.	.	.	.	.	.	.	.	.	.	.	.	.	.	.	.
.	.	.	.	.	.	.	.	16cc#\JJ	.	.	.	.	.	.	.	.	.	.	.	.	.	.	.	.
8e\	.	.	.	8cc#/	8a\	.	.	16aa\LL	.	.	.	.	.	.	.	.	.	.	.	.	.	.	.	.
.	.	.	.	.	.	.	.	16cc#\	.	.	.	.	.	.	.	.	.	.	.	.	.	.	.	.
8e\J	.	.	.	8cc#/J	8a\J	.	.	16aa\	.	.	.	.	.	.	.	.	.	.	.	.	.	.	.	.
.	.	.	.	.	.	.	.	16cc#\JJ	.	.	.	.	.	.	.	.	.	.	.	.	.	.	.	.
!	!	!	!	!	!	!	!	!	!	!	!	!	!	!	!	!	!	!	!	!	!	!	!	!LO:LB:g=original
=59	=59	=59	=59	=59	=59	=59	=59	=59	=59	=59	=59	=59	=59	=59	=59	=59	=59	=59	=59	=59	=59	=59	=59	=59
8E\L	.	5_ #_	.	8b/L	8g#X\L	.	.	8b\L	.	.	2E\	.	2e\	.	2g#X\	.	2b\	.	2AATTT/	.	2ee\	2ee\	2b\	2gg#X\
8E\	.	.	.	8b/	8g#\	.	.	16gg#X\L	.	.	.	.	.	.	.	.	.	.	.	.	.	.	.	.
.	.	.	.	.	.	.	.	16b\JJ	.	.	.	.	.	.	.	.	.	.	.	.	.	.	.	.
8E\	.	.	.	8b/	8g#\	.	.	16gg#\LL	.	.	.	.	.	.	.	.	.	.	.	.	.	.	.	.
.	.	.	.	.	.	.	.	16b\	.	.	.	.	.	.	.	.	.	.	.	.	.	.	.	.
8E\J	.	.	.	8b/J	8g#\J	.	.	16gg#\	.	.	.	.	.	.	.	.	.	.	.	.	.	.	.	.
.	.	.	.	.	.	.	.	16b\JJ	.	.	.	.	.	.	.	.	.	.	.	.	.	.	.	.
!	!	!	!	!	!	!	!	!	!	!	!	!	!	!	!	!	!	!	!	!	!	!	!LO:SIC:v:s=4cc#\	!
4A\	.	x	.	4cc#/	4a\	.	.	4aa\	.	.	4A\	-cob.	4e\	-cob	4a\	-cob	4cc#\	-cob.	4AATTT/	.	4a/	4ee\	4cc\	4aa\
!LO:TX:a:i:t=Solo	!	!	!	!	!	!	!	!	!	!	!	!	!	!	!	!	!	!	!	!	!	!	!LO:TX:a:i:t=Solo	!LO:TX:a:i:t=Solo.
4r	.	.	.	4r	4ryy	.	.	4r	.	.	4r	.	4r	.	4r	.	4r	.	4r	.	4r	4r	8a\L	8cc#\L
.	.	.	.	.	.	.	.	.	.	.	.	.	.	.	.	.	.	.	.	.	.	.	8b\J	8dd\J
*	*	*	*	*v	*v	*	*	*	*	*	*	*	*	*	*	*	*	*	*	*	*	*	*	*
!	!	!	!	!	!	!	!	!	!	!	!	!	!	!	!	!	!	!LO:LB:g=original	!	!	!	!	!
=60	=60	=60	=60	=60	=60	=60	=60	=60	=60	=60	=60	=60	=60	=60	=60	=60	=60	=60	=60	=60	=60	=60	=60
!	!	!	!	!	!	!LO:DY:t=pia&colon;:rj	!	!	!LO:DY:t=pia&colon;:rj	!	!	!	!	!	!	!	!	!LO:TX:a:t=12.	!	!	!	!LO:SIC:v:s=4cc#\	!
4A\	.	.	.	4A/	.	p	4A/	.	p	00r	.	00r	.	00r	.	00r	.	1r	.	00r	00r	4cc\	4ee\
4r	.	.	.	4r	.	.	4r	.	.	.	.	.	.	.	.	.	.	.	.	.	.	8a\L	8cc#\L
.	.	.	.	.	.	.	.	.	.	.	.	.	.	.	.	.	.	.	.	.	.	8b\J	8dd\J
!	!	!	!	!	!	!	!	!	!	!	!	!	!	!	!	!	!	!	!	!	!	!LO:SIC:v:s=4cc#\	!
4A\	.	.	.	4A/	.	.	4A/	.	.	.	.	.	.	.	.	.	.	.	.	.	.	4cc\	4ee\
!	!	!	!	!	!	!	!	!	!	!	!	!	!	!	!	!	!	!	!	!	!	!LO:SIC:v:s=8ff#\L	!
4r	.	.	.	4r	.	.	4r	.	.	.	.	.	.	.	.	.	.	.	.	.	.	8ff\L	8aa\L
.	.	.	.	.	.	.	.	.	.	.	.	.	.	.	.	.	.	.	.	.	.	8ee\J	8gg#X\J
=61	=61	=61	=61	=61	=61	=61	=61	=61	=61	=61	=61	=61	=61	=61	=61	=61	=61	=61	=61	=61	=61	=61	=61
4A\	.	.	.	4A/	.	.	4A/	.	.	.	.	.	.	.	.	.	.	1r	.	.	.	8dd\L	8ff#\L
!	!	!	!	!	!	!	!	!	!	!	!	!	!	!	!	!	!	!	!	!	!	!LO:SIC:v:s=8cc#\	!
.	.	.	.	.	.	.	.	.	.	.	.	.	.	.	.	.	.	.	.	.	.	8cc\	8ee\
4A\	.	.	.	4a/	.	.	4a/	.	.	.	.	.	.	.	.	.	.	.	.	.	.	8b\	8dd\
.	.	.	.	.	.	.	.	.	.	.	.	.	.	.	.	.	.	.	.	.	.	8a\J	8cc#\J
4E\	.	.	.	4e/	.	.	4e/	.	.	.	.	.	.	.	.	.	.	.	.	.	.	4b\	4dd\
4r	.	.	.	4e/	.	.	4r	.	.	.	.	.	.	.	.	.	.	.	.	.	.	8g#X\L	8b\L
.	.	.	.	.	.	.	.	.	.	.	.	.	.	.	.	.	.	.	.	.	.	8a\J	8cc#\J
=62	=62	=62	=62	=62	=62	=62	=62	=62	=62	=62	=62	=62	=62	=62	=62	=62	=62	=62	=62	=62	=62	=62	=62
4E\	.	.	.	4e/	.	.	4e/	.	.	.	.	.	.	.	.	.	.	1r	.	.	.	4b\	4dd\
4r	.	.	.	4r	.	.	4r	.	.	.	.	.	.	.	.	.	.	.	.	.	.	8g#X\L	8b\L
.	.	.	.	.	.	.	.	.	.	.	.	.	.	.	.	.	.	.	.	.	.	8a\J	8cc#\J
!	!	!	!	!	!	!	!	!	!	!	!	!	!	!	!	!	!	!	!	!	!	!LO:LB:g=original	!
4E\	.	.	.	4e/	.	.	4e/	.	.	.	.	.	.	.	.	.	.	.	.	.	.	4b\	4dd\
4r	.	.	.	4r	.	.	4r	.	.	.	.	.	.	.	.	.	.	.	.	.	.	8gg#X\L	8bb\L
!	!	!	!	!	!	!	!	!	!	!	!	!	!	!	!	!	!	!	!	!	!	!LO:SIC:v:s=8ff#\J	!
.	.	.	.	.	.	.	.	.	.	.	.	.	.	.	.	.	.	.	.	.	.	8ff\J	8aa\J
!	!	!	!	!	!	!	!LO:LB:g=original	!	!	!	!	!	!	!	!	!	!	!	!	!	!	!	!
=63	=63	=63	=63	=63	=63	=63	=63	=63	=63	=63	=63	=63	=63	=63	=63	=63	=63	=63	=63	=63	=63	=63	=63
4E\	.	.	.	4e/	.	.	4e/	.	.	.	.	.	.	.	.	.	.	1r	.	.	.	8ee\L	8gg#X\L
.	.	.	.	.	.	.	.	.	.	.	.	.	.	.	.	.	.	.	.	.	.	8dd\	8ff#\
!	!	!	!	!	!	!	!	!	!	!	!	!	!	!	!	!	!	!	!	!	!	!LO:SIC:v:s=8cc#\	!
4E\	.	.	.	4e/	.	.	4e/	.	.	.	.	.	.	.	.	.	.	.	.	.	.	8cc\	8ee\
.	.	.	.	.	.	.	.	.	.	.	.	.	.	.	.	.	.	.	.	.	.	8b\J	8dd\J
!LO:TX:a:i:t=Tutti	!	!	!	!LO:LB:g=original	!	!LO:DY:t=for	!	!	!LO:DY:t=for&colon;	!	!	!	!	!	!	!	!	!	!	!	!	!	!
4A\	.	.	.	8cc#\L	.	f	8cc#\L	.	f	.	.	.	.	.	.	.	.	.	.	.	.	4a/	4cc#\
.	.	.	.	16ee\L	.	.	16ee\L	.	.	.	.	.	.	.	.	.	.	.	.	.	.	.	.
.	.	.	.	16cc#\JJ	.	.	16cc#\JJ	.	.	.	.	.	.	.	.	.	.	.	.	.	.	.	.
4A\	.	.	.	16ee\LL	.	.	16ee\LL	.	.	.	.	.	.	.	.	.	.	.	.	.	.	4r	4r
.	.	.	.	16cc#\	.	.	16cc#\	.	.	.	.	.	.	.	.	.	.	.	.	.	.	.	.
.	.	.	.	16ee\	.	.	16ee\	.	.	.	.	.	.	.	.	.	.	.	.	.	.	.	.
.	.	.	.	16cc#\JJ	.	.	16cc#\JJ	.	.	.	.	.	.	.	.	.	.	.	.	.	.	.	.
!LO:LB:g=original	!	!	!	!	!	!	!	!	!	!	!	!	!	!	!	!	!	!	!	!	!	!	!
=64	=64	=64	=64	=64	=64	=64	=64	=64	=64	=64	=64	=64	=64	=64	=64	=64	=64	=64	=64	=64	=64	=64	=64
4A#X\	.	.	.	8cc#\L	.	.	8cc#\L	.	.	00r	.	00r	.	00r	.	00r	.	1r	.	00r	00r	00r	00r
.	.	.	.	16ee\L	.	.	16ee\L	.	.	.	.	.	.	.	.	.	.	.	.	.	.	.	.
.	.	.	.	16cc#\JJ	.	.	16cc#\JJ	.	.	.	.	.	.	.	.	.	.	.	.	.	.	.	.
4A#\	.	.	.	16ee\LL	.	.	16ee\LL	.	.	.	.	.	.	.	.	.	.	.	.	.	.	.	.
.	.	.	.	16cc#\	.	.	16cc#\	.	.	.	.	.	.	.	.	.	.	.	.	.	.	.	.
.	.	.	.	16ee\	.	.	16ee\	.	.	.	.	.	.	.	.	.	.	.	.	.	.	.	.
.	.	.	.	16cc#\JJ	.	.	16cc#\JJ	.	.	.	.	.	.	.	.	.	.	.	.	.	.	.	.
4F#\	.	.	.	16ccc#\LL	.	.	16ccc#\LL	.	.	.	.	.	.	.	.	.	.	.	.	.	.	.	.
.	.	.	.	16bb\	.	.	16bb\	.	.	.	.	.	.	.	.	.	.	.	.	.	.	.	.
.	.	.	.	16aa#X\	.	.	16aa#X\	.	.	.	.	.	.	.	.	.	.	.	.	.	.	.	.
.	.	.	.	16bb\JJ	.	.	16bb\JJ	.	.	.	.	.	.	.	.	.	.	.	.	.	.	.	.
4A#\	.	.	.	8ccc#\L	.	.	8ccc#\L	.	.	.	.	.	.	.	.	.	.	.	.	.	.	.	.
.	.	.	.	16ee\L	.	.	8ee\J	.	.	.	.	.	.	.	.	.	.	.	.	.	.	.	.
.	.	.	.	16cc#\JJ	.	.	.	.	.	.	.	.	.	.	.	.	.	.	.	.	.	.	.
=65	=65	=65	=65	=65	=65	=65	=65	=65	=65	=65	=65	=65	=65	=65	=65	=65	=65	=65	=65	=65	=65	=65	=65
.	.	.	.	.	.	.	8qqee/	.	.	.	.	.	.	.	.	.	.	.	.	.	.	.	.
4B\	.	9 4	.	8cc#\L	.	.	4dd\	.	.	.	.	.	.	.	.	.	.	1r	.	.	.	.	.
.	.	8 3	.	8b\J	.	.	.	.	.	.	.	.	.	.	.	.	.	.	.	.	.	.	.
4D\	.	6	.	8ff#\L	.	.	8ff#\L	.	.	.	.	.	.	.	.	.	.	.	.	.	.	.	.
.	.	.	.	8bb\J	.	.	8bb\J	.	.	.	.	.	.	.	.	.	.	.	.	.	.	.	.
4E\	.	.	.	8gg\L	.	.	8gg\L	.	.	.	.	.	.	.	.	.	.	.	.	.	.	.	.
.	.	.	.	16ff#\L	.	.	16ff#\L	.	.	.	.	.	.	.	.	.	.	.	.	.	.	.	.
.	.	.	.	16gg\JJ	.	.	16gg\JJ	.	.	.	.	.	.	.	.	.	.	.	.	.	.	.	.
4G\	.	.	.	8ee\L	.	.	8ee\L	.	.	.	.	.	.	.	.	.	.	.	.	.	.	.	.
.	.	.	.	8dd\J	.	.	8dd\J	.	.	.	.	.	.	.	.	.	.	.	.	.	.	.	.
=66	=66	=66	=66	=66	=66	=66	=66	=66	=66	=66	=66	=66	=66	=66	=66	=66	=66	=66	=66	=66	=66	=66	=66
4A\	.	.	.	8cc#\L	.	.	8cc#\L	.	.	.	.	.	.	.	.	.	.	1r	.	.	.	.	.
.	.	.	.	8ee\J	.	.	8ee\J	.	.	.	.	.	.	.	.	.	.	.	.	.	.	.	.
4C#\	.	.	.	8aa\L	.	.	8aa\L	.	.	.	.	.	.	.	.	.	.	.	.	.	.	.	.
.	.	.	.	8gg\J	.	.	8gg\J	.	.	.	.	.	.	.	.	.	.	.	.	.	.	.	.
4D\	.	.	.	8ff#\L	.	.	8ff#\L	.	.	.	.	.	.	.	.	.	.	.	.	.	.	.	.
.	.	.	.	16ee\L	.	.	16ee\L	.	.	.	.	.	.	.	.	.	.	.	.	.	.	.	.
.	.	.	.	16ff#\JJ	.	.	16ff#\JJ	.	.	.	.	.	.	.	.	.	.	.	.	.	.	.	.
4F#\	.	.	.	8dd\L	.	.	8dd\L	.	.	.	.	.	.	.	.	.	.	.	.	.	.	.	.
.	.	.	.	8cc#\J	.	.	8cc#\J	.	.	.	.	.	.	.	.	.	.	.	.	.	.	.	.
=67	=67	=67	=67	=67	=67	=67	=67	=67	=67	=67	=67	=67	=67	=67	=67	=67	=67	=67	=67	=67	=67	=67	=67
4G\	.	.	.	8b\L	.	.	8b\L	.	.	.	.	.	.	.	.	.	.	1r	.	.	.	.	.
.	.	.	.	8dd\J	.	.	8dd\J	.	.	.	.	.	.	.	.	.	.	.	.	.	.	.	.
4BB/	.	.	.	8gg\L	.	.	8gg\L	.	.	.	.	.	.	.	.	.	.	.	.	.	.	.	.
.	.	.	.	8ff#\J	.	.	8ff#\J	.	.	.	.	.	.	.	.	.	.	.	.	.	.	.	.
4C#/	.	.	.	8ee\L	.	.	8ee\L	.	.	.	.	.	.	.	.	.	.	.	.	.	.	.	.
.	.	.	.	16dd\L	.	.	16dd\L	.	.	.	.	.	.	.	.	.	.	.	.	.	.	.	.
.	.	.	.	16ee\JJ	.	.	16ee\JJ	.	.	.	.	.	.	.	.	.	.	.	.	.	.	.	.
4E\	.	.	.	8cc#\L	.	.	8cc#\L	.	.	.	.	.	.	.	.	.	.	.	.	.	.	.	.
.	.	.	.	8b\J	.	.	8b\J	.	.	.	.	.	.	.	.	.	.	.	.	.	.	.	.
=68	=68	=68	=68	=68	=68	=68	=68	=68	=68	=68	=68	=68	=68	=68	=68	=68	=68	=68	=68	=68	=68	=68	=68
!	!	!	!	!LO:TX:t=P:problem=mixed beam	!	!	!	!	!	!	!	!	!	!	!	!	!	!	!	!	!	!	!
8F#\L	.	#_	.	8c#/L	.	.	4a#X\	.	.	00r	.	00r	.	00r	.	00r	.	1r	.	00r	00r	0r	0r
8E\	.	.	.	8cc#\	.	.	.	.	.	.	.	.	.	.	.	.	.	.	.	.	.	.	.
8D\	.	6	.	8dd\	.	.	8b\L	.	.	.	.	.	.	.	.	.	.	.	.	.	.	.	.
8E\J	.	.	.	8cc#\J	.	.	8bb\J	.	.	.	.	.	.	.	.	.	.	.	.	.	.	.	.
4F#\	.	4	.	2cc#t\	.	.	4bb\	.	.	.	.	.	.	.	.	.	.	.	.	.	.	.	.
4FF#/	.	#	.	.	.	.	4aa#X\	.	.	.	.	.	.	.	.	.	.	.	.	.	.	.	.
!	!	!	!	!LO:LB:g=original	!	!	!LO:LB:g=original	!	!	!	!	!	!	!	!	!	!	!	!	!	!	!	!
=69	=69	=69	=69	=69	=69	=69	=69	=69	=69	=69	=69	=69	=69	=69	=69	=69	=69	=69	=69	=69	=69	=69	=69
!	!	!	!	!	!	!	!LO:TX:t=P:problem=mixed beam	!	!	!	!	!	!	!	!	!	!	!	!	!	!	!	!
4B 4BB\	.	3	.	8dd\L	.	.	8bb\L	.	.	.	.	.	.	.	.	.	.	1r	.	.	.	.	.
.	.	.	.	8b\	.	.	8b/	.	.	.	.	.	.	.	.	.	.	.	.	.	.	.	.
4An\	.	#4r 2	.	8cc#\	.	.	8cc#/	.	.	.	.	.	.	.	.	.	.	.	.	.	.	.	.
.	.	.	.	8dd#X\J	.	.	8dd#X/J	.	.	.	.	.	.	.	.	.	.	.	.	.	.	.	.
8G\L	.	6	.	8ee\L	.	.	8ee\L	.	.	.	.	.	.	.	.	.	.	.	.	.	.	.	.
8F#\	.	.	.	8ff#\J	.	.	8ff#\J	.	.	.	.	.	.	.	.	.	.	.	.	.	.	.	.
8E\	.	.	.	16gg\LL	.	.	16gg\LL	.	.	.	.	.	.	.	.	.	.	.	.	.	.	.	.
.	.	.	.	16ff#\	.	.	16ff#\	.	.	.	.	.	.	.	.	.	.	.	.	.	.	.	.
8G\J	.	.	.	16ee\	.	.	16ee\	.	.	.	.	.	.	.	.	.	.	.	.	.	.	.	.
!	!	!	!	!LO:SIC:v:s=16ddn\JJ	!	!	!	!	!	!	!	!	!	!	!	!	!	!	!	!	!	!	!
.	.	.	.	16dd#\JJ	.	.	16ddn\JJ	.	.	.	.	.	.	.	.	.	.	.	.	.	.	.	.
=70	=70	=70	=70	=70	=70	=70	=70	=70	=70	=70	=70	=70	=70	=70	=70	=70	=70	=70	=70	=70	=70	=70	=70
4A\	.	.	.	8cc#\L	.	.	8cc#\L	.	.	.	.	.	.	.	.	.	.	1r	.	.	.	1r	1r
.	.	.	.	8a\	.	.	8a\	.	.	.	.	.	.	.	.	.	.	.	.	.	.	.	.
4Gn\	.	4 2	.	8b\	.	.	8b\	.	.	.	.	.	.	.	.	.	.	.	.	.	.	.	.
.	.	.	.	8cc#\J	.	.	8cc#\J	.	.	.	.	.	.	.	.	.	.	.	.	.	.	.	.
8F#\L	.	6	.	16dd\LL	.	.	16dd\LL	.	.	.	.	.	.	.	.	.	.	.	.	.	.	.	.
.	.	.	.	16cc#\	.	.	16ee\	.	.	.	.	.	.	.	.	.	.	.	.	.	.	.	.
8E\	.	.	.	16dd\	.	.	16ff#\	.	.	.	.	.	.	.	.	.	.	.	.	.	.	.	.
.	.	.	.	16ee\JJ	.	.	16gg\JJ	.	.	.	.	.	.	.	.	.	.	.	.	.	.	.	.
8D\	.	.	.	8ff#\L	.	.	8aa\L	.	.	.	.	.	.	.	.	.	.	.	.	.	.	.	.
8F#\J	.	.	.	8ff#\J	.	.	8aa\J	.	.	.	.	.	.	.	.	.	.	.	.	.	.	.	.
=71	=71	=71	=71	=71	=71	=71	=71	=71	=71	=71	=71	=71	=71	=71	=71	=71	=71	=71	=71	=71	=71	=71	=71
!	!	!	!	!	!	!	!	!	!	!	!	!	!	!	!	!	!	!	!	!	!	!LO:SIC:v:s=8ff#\L	!
!	!	!	!	!	!	!	!	!	!	!	!	!	!	!	!	!	!	!	!	!	!	!LO:TX:a:i:t=Tutti:rj	!LO:TX:a:i:t=Tutti:rj
4G\	.	9 7	.	8ff#\L	.	.	8aa\L	.	.	.	.	.	.	.	.	.	.	1r	.	.	.	8ff\L	8aa\L
.	.	8 6	.	8ee\	.	.	8gg\	.	.	.	.	.	.	.	.	.	.	.	.	.	.	8ee\	8gg\
4G\	.	8 6	.	8ee\	.	.	8gg\	.	.	.	.	.	.	.	.	.	.	.	.	.	.	8ee\	8gg\
.	.	7 5	.	8dd\J	.	.	8ff#\J	.	.	.	.	.	.	.	.	.	.	.	.	.	.	8dd\J	8ff#\J
!LO:TX:t=P:problem=mixed beam	!	!	!	!	!	!	!	!	!	!	!	!	!	!	!	!	!	!	!	!	!	!	!
8A\L	.	6 4	.	8dd\L	.	.	8ff#\L	.	.	.	.	.	.	.	.	.	.	.	.	.	.	8dd\L	8ff#\L
!	!	!	!	!	!	!	!	!	!	!	!	!	!	!	!	!	!	!	!	!	!	!LO:SIC:v:s=8cc#\J	!
8AA/J	.	5 3	.	8cc#\J	.	.	8ee\J	.	.	.	.	.	.	.	.	.	.	.	.	.	.	8cc\J	8ee\J
16A'\LL	.	.	.	4r	.	.	4r	.	.	.	.	.	.	.	.	.	.	.	.	.	.	4r	4r
16G'\	.	.	.	.	.	.	.	.	.	.	.	.	.	.	.	.	.	.	.	.	.	.	.
16F#'\	.	.	.	.	.	.	.	.	.	.	.	.	.	.	.	.	.	.	.	.	.	.	.
16E'\JJ	.	.	.	.	.	.	.	.	.	.	.	.	.	.	.	.	.	.	.	.	.	.	.
=72	=72	=72	=72	=72	=72	=72	=72	=72	=72	=72	=72	=72	=72	=72	=72	=72	=72	=72	=72	=72	=72	=72	=72
!	!	!	!	!	!	!	!	!	!	!	!	!	!	!	!	!	!	!	!LO:DY:rj	!	!	!	!
8D'\L	.	.	.	8d/L	.	.	8d/L	.	.	1r	.	1r	.	1r	.	1r	.	8D\L	f	8d/L	8d/L	1r	1r
16D'\L	.	.	.	16d/L	.	.	16d/L	.	.	.	.	.	.	.	.	.	.	16D\L	.	16d/L	16d/L	.	.
16D'\JJ	.	.	.	16d/JJ	.	.	16d/JJ	.	.	.	.	.	.	.	.	.	.	16D\JJ	.	16d/JJ	16d/JJ	.	.
16F#'\LL	.	.	.	16f#/LL	.	.	16f#/LL	.	.	.	.	.	.	.	.	.	.	8D\L	.	16f#/LL	16f#/LL	.	.
16D'\	.	.	.	16d/	.	.	16d/	.	.	.	.	.	.	.	.	.	.	.	.	16d/	16d/	.	.
16A'\	.	.	.	16a/	.	.	16a/	.	.	.	.	.	.	.	.	.	.	8AA\J	.	16a/	16a/	.	.
16F#'\JJ	.	.	.	16f#/JJ	.	.	16f#/JJ	.	.	.	.	.	.	.	.	.	.	.	.	16f#/JJ	16f#/JJ	.	.
!	!	!	!	!LO:TX:t=P:problem=mixed beam	!	!	!LO:TX:t=P:problem=mixed beam	!	!	!	!	!	!	!	!	!	!	!	!	!LO:LB:g=original	!	!	!
8d'\L	.	.	.	8dd\L	.	.	8dd\L	.	.	.	.	.	.	.	.	.	.	4D\	.	4dd\	4dd\	.	.
8F#'\	.	.	.	8f#/	.	.	8f#/	.	.	.	.	.	.	.	.	.	.	.	.	.	.	.	.
8G'\	.	.	.	8g/	.	.	8g/	.	.	.	.	.	.	.	.	.	.	4r	.	4r	4r	.	.
8A'\J	.	.	.	8a/J	.	.	8a/J	.	.	.	.	.	.	.	.	.	.	.	.	.	.	.	.
!	!	!	!	!	!	!	!	!	!	!LO:LB:g=original	!	!LO:LB:g=original	!	!	!	!	!	!	!	!	!	!	!
=73	=73	=73	=73	=73	=73	=73	=73	=73	=73	=73	=73	=73	=73	=73	=73	=73	=73	=73	=73	=73	=73	=73	=73
!LO:TX:t=P:problem=mixed beam	!	!	!	!	!	!	!LO:TX:t=P:problem=mixed beam	!	!	!	!	!	!	!	!	!	!	!	!	!	!	!	!
8D/L	.	.	.	8d/L	.	.	8d/L	.	.	8r	.	8r	.	8r	.	8r	.	8r	.	8r	8r	8r	8r
8d\J	.	.	.	8a/J	.	.	8ff#\J	.	.	8d\	Ro-	8d\	Ro-	8a\	Ro-	8ff#\	Ro-	8D\	.	8dd\	8ff#\	8dd\	8ff#\
!	!	!	!	!	!	!	!	!	!	!	!	!	!	!	!	!	!	!	!	!	!	!LO:SIC:v:s=4cc#\	!
4A\	.	.	.	4a/	.	.	4ee\	.	.	4A\	-ra-	4e\	-ra-	4a\	-ra-	4ee\	-ra-	4AA/	.	4a/	4ee\	4cc\	4ee\
!	!	!	!	!	!	!	!	!	!	!	!	!	!	!	!	!	!	!	!	!LO:TX:t=P:problem=mixed beam	!	!LO:TX:t=P:problem=mixed beam	!
8d'\L	.	.	.	8a/L	.	.	8ff#\L	.	.	8d\	-te	8d\	-te	8a\	-te	8ff#\	-te	8D\L	.	8dd\L	8ff#\	8dd\L	8ff#\L
*	*	*	*	*	*	*	*	*	*	*	*ij	*	*ij	*	*ij	*	*ij	*	*	*	*	*	*
!	!	!	!	!	!	!	!	!	!	!	!	!	!	!	!	!	!	!	!	!	!	!LO:SIC:v:s=8f#/J	!
8F#'\	.	.	.	8f#/J	.	.	8dd\	.	.	8F#\	Ro-	8A\L	Ro-	8f#\	Ro-	8dd\	Ro-	8D\J	.	8f#/J	4dd\	8f/J	8dd\
8G'\	.	.	.	4e/	.	.	8dd\	.	.	8G\L	-ra-	8B\	-ra-	4e\	-ra-	8dd\L	-ra-	8r	.	8r	.	4e/	8dd\
8A'\J	.	.	.	.	.	.	8cc#\J	.	.	8A\J	.	8A\J	.	.	.	8cc#\J	.	8AA/	.	8a/	8ee\	.	8cc#\J
!	!	!	!	!	!	!	!	!	!	!	!	!	!	!	!	!	!	!	!	!	!	!	!LO:LB:g=original
=74	=74	=74	=74	=74	=74	=74	=74	=74	=74	=74	=74	=74	=74	=74	=74	=74	=74	=74	=74	=74	=74	=74	=74
!	!	!	!	!	!	!	!LO:TX:t=P:problem=mixed beam	!	!	!	!	!	!	!	!	!	!	!	!	!LO:TX:t=P:problem=mixed beam	!LO:TX:t=P:problem=mixed beam	!LO:SIC:v:s=4f#/	!
8D'\L	.	.	.	8f#/L	.	.	8dd\L	.	.	4D\	-te	4A\	-te	4f#\	-te	4dd\	-te	8D\L	.	8dd\L	8dd\L	4f/	4dd\
*	*	*	*	*	*	*	*	*	*	*	*Xij	*	*Xij	*	*Xij	*	*Xij	*	*	*	*	*	*
16D'\L	.	.	.	16d/L	.	.	16d/L	.	.	.	.	.	.	.	.	.	.	16D\L	.	16d/L	16d/L	.	.
16D'\JJ	.	.	.	16d/JJ	.	.	16d/JJ	.	.	.	.	.	.	.	.	.	.	16D\JJ	.	16d/JJ	16d/JJ	.	.
16F#'\LL	.	.	.	16f#/LL	.	.	16f#/LL	.	.	4r	.	4r	.	4r	.	4r	.	8D\L	.	16f#/LL	16f#/LL	4r	4r
16D'\	.	.	.	16d/	.	.	16d/	.	.	.	.	.	.	.	.	.	.	.	.	16d/	16d/	.	.
16A'\	.	.	.	16a/	.	.	16a/	.	.	.	.	.	.	.	.	.	.	8AA\J	.	16a/	16a/	.	.
16F#'\JJ	.	.	.	16f#/JJ	.	.	16f#/JJ	.	.	.	.	.	.	.	.	.	.	.	.	16f#/JJ	16f#/JJ	.	.
!	!	!	!	!	!	!	!LO:PB:g=original	!	!	!	!	!	!	!	!	!	!	!	!	!	!	!	!
!LO:TX:t=P:problem=mixed beam	!	!	!	!LO:TX:t=P:problem=mixed beam	!	!	!LO:TX:t=P:problem=mixed beam	!	!	!	!	!	!	!	!	!	!	!	!	!	!	!	!
8d'\L	.	.	.	8dd\L	.	.	8dd\L	.	.	2r	.	2r	.	2r	.	2r	.	4D\	.	4dd\	4dd\	2r	2r
16D'>/L	.	.	.	16d/L	.	.	16d/L	.	.	.	.	.	.	.	.	.	.	.	.	.	.	.	.
16D'>/JJ	.	.	.	16d/JJ	.	.	16d/JJ	.	.	.	.	.	.	.	.	.	.	.	.	.	.	.	.
16G'\LL	.	.	.	16g/LL	.	.	16g/LL	.	.	.	.	.	.	.	.	.	.	4r	.	4r	4r	.	.
16D'\	.	.	.	16d/	.	.	16d/	.	.	.	.	.	.	.	.	.	.	.	.	.	.	.	.
16B'\	.	.	.	16b/	.	.	16b/	.	.	.	.	.	.	.	.	.	.	.	.	.	.	.	.
16G'\JJ	.	.	.	16g/JJ	.	.	16g/JJ	.	.	.	.	.	.	.	.	.	.	.	.	.	.	.	.
!	!	!	!	!LO:LB:g=original	!	!	!	!	!	!	!	!	!	!LO:LB:g=original	!	!	!	!	!	!	!	!	!
=75	=75	=75	=75	=75	=75	=75	=75	=75	=75	=75	=75	=75	=75	=75	=75	=75	=75	=75	=75	=75	=75	=75	=75
!LO:TX:t=P:problem=mixed beam	!	!	!	!LO:TX:t=P:problem=mixed beam	!	!	!LO:TX:t=P:problem=mixed beam	!	!	!	!	!	!	!	!	!	!	!	!	!LO:TX:t=P:problem=mixed beam	!LO:TX:t=P:problem=mixed beam	!	!
8d'\L	.	.	.	8dd\L	.	.	8dd\L	.	.	1r	.	1r	.	1r	.	1r	.	8D\L	.	8dd\L	8dd\L	1r	1r
16D'>/L	.	.	.	16d/L	.	.	16d/L	.	.	.	.	.	.	.	.	.	.	16D\L	.	16d/L	16d/L	.	.
16D'>/JJ	.	.	.	16d/JJ	.	.	16d/JJ	.	.	.	.	.	.	.	.	.	.	16D\JJ	.	16d/JJ	16d/JJ	.	.
16F#'\LL	.	.	.	16f#/LL	.	.	16f#/LL	.	.	.	.	.	.	.	.	.	.	8D\L	.	16f#/LL	16f#/LL	.	.
16D'\	.	.	.	16d/	.	.	16d/	.	.	.	.	.	.	.	.	.	.	.	.	16d/	16d/	.	.
16A'\	.	.	.	16a/	.	.	16a/	.	.	.	.	.	.	.	.	.	.	8AA\J	.	16a/	16a/	.	.
16F#'\JJ	.	.	.	16f#/JJ	.	.	16f#/JJ	.	.	.	.	.	.	.	.	.	.	.	.	16f#/JJ	16f#/JJ	.	.
8d'\L	.	.	.	8dd\L	.	.	8dd\L	.	.	.	.	.	.	.	.	.	.	8D\L	.	8dd\L	8dd\L	.	.
16A'\L	.	.	.	16a\L	.	.	16a\L	.	.	.	.	.	.	.	.	.	.	8AA\J	.	16a\L	16a\L	.	.
16A'\JJ	.	.	.	16a\JJ	.	.	16a\JJ	.	.	.	.	.	.	.	.	.	.	.	.	16a\JJ	16a\JJ	.	.
8F#'\L	.	.	.	8f#/L	.	.	8f#/L	.	.	.	.	.	.	.	.	.	.	8D\L	.	8f#/L	8f#/L	.	.
8D'\J	.	.	.	8d/J	.	.	8d/J	.	.	.	.	.	.	.	.	.	.	8D\J	.	8d/J	8d/J	.	.
=76	=76	=76	=76	=76	=76	=76	=76	=76	=76	=76	=76	=76	=76	=76	=76	=76	=76	=76	=76	=76	=76	=76	=76
*	*	*	*	*tremolo	*	*	*	*	*	*	*	*	*	*	*	*	*	*	*	*	*	*	*
8AA/L	.	.	.	16a 16e/LL	.	.	8r	.	.	2C#/	Ro-	2e\	Ro-	2a\	Ro-	2gg\	Ro-	4AA/	.	4a\	4a/	2r	2r
.	.	.	.	16a 16e/	.	.	.	.	.	.	.	.	.	.	.	.	.	.	.	.	.	.	.
8C#/	.	6 5	.	16a 16e/	.	.	16a/LL	.	.	.	.	.	.	.	.	.	.	.	.	.	.	.	.
.	.	.	.	16a 16e/	.	.	16a/JJ	.	.	.	.	.	.	.	.	.	.	.	.	.	.	.	.
8C#/	.	.	.	16a 16e/	.	.	8a/L	.	.	.	.	.	.	.	.	.	.	4AA/	.	4a\	4ee\	.	.
.	.	.	.	16a 16e/	.	.	.	.	.	.	.	.	.	.	.	.	.	.	.	.	.	.	.
8C#/J	.	.	.	16a 16e/	.	.	8a/J	.	.	.	.	.	.	.	.	.	.	.	.	.	.	.	.
.	.	.	.	16a 16e/JJ	.	.	.	.	.	.	.	.	.	.	.	.	.	.	.	.	.	.	.
*tremolo	*	*	*	*	*	*	*	*	*	*	*	*	*	*	*	*	*	*	*	*	*	*	*
8C#\L	.	.	.	16a 16e/LL	.	.	8gg\L	.	.	4C#/	-ra-	4e\	-ra-	4a\	-ra-	4gg\	-ra-	2AATT/	.	2a\	2ee\	2ee\	2gg\
.	.	.	.	16a 16e/	.	.	.	.	.	.	.	.	.	.	.	.	.	.	.	.	.	.	.
8C#\	.	.	.	16a 16e/	.	.	8ee\J	.	.	.	.	.	.	.	.	.	.	.	.	.	.	.	.
.	.	.	.	16a 16e/	.	.	.	.	.	.	.	.	.	.	.	.	.	.	.	.	.	.	.
8C#\	.	.	.	16a 16e/	.	.	4a/	.	.	4C#/	-te	4e\	-te	4a\	-te	4gg\	-te	.	.	.	.	.	.
.	.	.	.	16a 16e/	.	.	.	.	.	.	.	.	.	.	.	.	.	.	.	.	.	.	.
8C#\J	.	.	.	16a 16e/	.	.	.	.	.	.	.	.	.	.	.	.	.	.	.	.	.	.	.
.	.	.	.	16a 16e/JJ	.	.	.	.	.	.	.	.	.	.	.	.	.	.	.	.	.	.	.
!	!	!	!	!	!	!	!	!	!	!	!	!	!	!	!	!	!	!	!	!	!LO:LB:g=original	!LO:LB:g=original	!
=77	=77	=77	=77	=77	=77	=77	=77	=77	=77	=77	=77	=77	=77	=77	=77	=77	=77	=77	=77	=77	=77	=77	=77
8D\L	.	.	.	16a 16f#/LL	.	.	8r	.	.	2D\	Coe-	2d\	Coe-	2a\	Coe-	2ff#\	Coe-	1DTTT	.	1f#	1dd	1dd	1ff#
.	.	.	.	16a 16f#/	.	.	.	.	.	.	.	.	.	.	.	.	.	.	.	.	.	.	.
8D\	.	.	.	16a 16f#/	.	.	16a/LL	.	.	.	.	.	.	.	.	.	.	.	.	.	.	.	.
.	.	.	.	16a 16f#/	.	.	16a/JJ	.	.	.	.	.	.	.	.	.	.	.	.	.	.	.	.
8D\	.	.	.	16a 16f#/	.	.	8a/L	.	.	.	.	.	.	.	.	.	.	.	.	.	.	.	.
.	.	.	.	16a 16f#/	.	.	.	.	.	.	.	.	.	.	.	.	.	.	.	.	.	.	.
8D\J	.	.	.	16a 16f#/	.	.	8a/J	.	.	.	.	.	.	.	.	.	.	.	.	.	.	.	.
.	.	.	.	16a 16f#/JJ	.	.	.	.	.	.	.	.	.	.	.	.	.	.	.	.	.	.	.
8D\L	.	.	.	16a 16f#/LL	.	.	8ff#\L	.	.	2D\	-li	2d\	-li	2a\	-li	2ff#\	-li.	.	.	.	.	.	.
.	.	.	.	16a 16f#/	.	.	.	.	.	.	.	.	.	.	.	.	.	.	.	.	.	.	.
8D\	.	.	.	16a 16f#/	.	.	8dd\J	.	.	.	.	.	.	.	.	.	.	.	.	.	.	.	.
.	.	.	.	16a 16f#/	.	.	.	.	.	.	.	.	.	.	.	.	.	.	.	.	.	.	.
8D\	.	.	.	16a 16f#/	.	.	4a/	.	.	.	.	.	.	.	.	.	.	.	.	.	.	.	.
.	.	.	.	16a 16f#/	.	.	.	.	.	.	.	.	.	.	.	.	.	.	.	.	.	.	.
8D\J	.	.	.	16a 16f#/	.	.	.	.	.	.	.	.	.	.	.	.	.	.	.	.	.	.	.
.	.	.	.	16a 16f#/JJ	.	.	.	.	.	.	.	.	.	.	.	.	.	.	.	.	.	.	.
!	!	!	!	!	!	!	!	!	!	!	!	!	!	!	!	!LO:LB:g=original	!	!	!	!	!	!	!
=78	=78	=78	=78	=78	=78	=78	=78	=78	=78	=78	=78	=78	=78	=78	=78	=78	=78	=78	=78	=78	=78	=78	=78
8C#\L	.	6 5	.	16a 16e/LL	.	.	8r	.	.	2C#/	de-	2e\	de-	2a\	de-	2gg\	de-	1AATTT	.	1a	1ee	1ee	1gg
.	.	.	.	16a 16e/	.	.	.	.	.	.	.	.	.	.	.	.	.	.	.	.	.	.	.
8C#\	.	.	.	16a 16e/	.	.	16a/LL	.	.	.	.	.	.	.	.	.	.	.	.	.	.	.	.
.	.	.	.	16a 16e/	.	.	16a/JJ	.	.	.	.	.	.	.	.	.	.	.	.	.	.	.	.
8C#\	.	.	.	16a 16e/	.	.	8a/L	.	.	.	.	.	.	.	.	.	.	.	.	.	.	.	.
.	.	.	.	16a 16e/	.	.	.	.	.	.	.	.	.	.	.	.	.	.	.	.	.	.	.
8C#\J	.	.	.	16a 16e/	.	.	8a/J	.	.	.	.	.	.	.	.	.	.	.	.	.	.	.	.
.	.	.	.	16a 16e/JJ	.	.	.	.	.	.	.	.	.	.	.	.	.	.	.	.	.	.	.
8C#\L	.	.	.	16a 16e/LL	.	.	8gg\L	.	.	2C#/	-Su-	2e\	-Su-	2a\	-Su-	2gg\	-Su-	.	.	.	.	.	.
.	.	.	.	16a 16e/	.	.	.	.	.	.	.	.	.	.	.	.	.	.	.	.	.	.	.
8C#\	.	.	.	16a 16e/	.	.	8ee\J	.	.	.	.	.	.	.	.	.	.	.	.	.	.	.	.
.	.	.	.	16a 16e/	.	.	.	.	.	.	.	.	.	.	.	.	.	.	.	.	.	.	.
8C#\	.	.	.	16a 16e/	.	.	4a/	.	.	.	.	.	.	.	.	.	.	.	.	.	.	.	.
.	.	.	.	16a 16e/	.	.	.	.	.	.	.	.	.	.	.	.	.	.	.	.	.	.	.
8C#\J	.	.	.	16a 16e/	.	.	.	.	.	.	.	.	.	.	.	.	.	.	.	.	.	.	.
.	.	.	.	16a 16e/JJ	.	.	.	.	.	.	.	.	.	.	.	.	.	.	.	.	.	.	.
!LO:LB:g=original	!	!	!	!	!	!	!	!	!	!	!	!	!	!	!	!	!	!LO:LB:g=original	!	!	!	!	!
=79	=79	=79	=79	=79	=79	=79	=79	=79	=79	=79	=79	=79	=79	=79	=79	=79	=79	=79	=79	=79	=79	=79	=79
8D\L	.	.	.	16a 16f#/LL	.	.	8r	.	.	2D\	-per	2d\	-per	2a\	-per	2ff#\	-per	1DTT	.	1f#	1dd	1dd	1ff#
.	.	.	.	16a 16f#/	.	.	.	.	.	.	.	.	.	.	.	.	.	.	.	.	.	.	.
8D\	.	.	.	16a 16f#/	.	.	16a/LL	.	.	.	.	.	.	.	.	.	.	.	.	.	.	.	.
.	.	.	.	16a 16f#/	.	.	16a/JJ	.	.	.	.	.	.	.	.	.	.	.	.	.	.	.	.
8D\	.	.	.	16a 16f#/	.	.	8a/L	.	.	.	.	.	.	.	.	.	.	.	.	.	.	.	.
.	.	.	.	16a 16f#/	.	.	.	.	.	.	.	.	.	.	.	.	.	.	.	.	.	.	.
8D\J	.	.	.	16a 16f#/	.	.	8a/J	.	.	.	.	.	.	.	.	.	.	.	.	.	.	.	.
.	.	.	.	16a 16f#/JJ	.	.	.	.	.	.	.	.	.	.	.	.	.	.	.	.	.	.	.
8D\L	.	.	.	16a 16f#/LL	.	.	8ff#\L	.	.	2D\	et	2d\	et	2a\	et	2ff#\	et	.	.	.	.	.	.
.	.	.	.	16a 16f#/	.	.	.	.	.	.	.	.	.	.	.	.	.	.	.	.	.	.	.
8D\	.	.	.	16a 16f#/	.	.	8dd\J	.	.	.	.	.	.	.	.	.	.	.	.	.	.	.	.
.	.	.	.	16a 16f#/	.	.	.	.	.	.	.	.	.	.	.	.	.	.	.	.	.	.	.
8D\	.	.	.	16a 16f#/	.	.	4a/	.	.	.	.	.	.	.	.	.	.	.	.	.	.	.	.
.	.	.	.	16a 16f#/	.	.	.	.	.	.	.	.	.	.	.	.	.	.	.	.	.	.	.
8D\J	.	.	.	16a 16f#/	.	.	.	.	.	.	.	.	.	.	.	.	.	.	.	.	.	.	.
.	.	.	.	16a 16f#/JJ	.	.	.	.	.	.	.	.	.	.	.	.	.	.	.	.	.	.	.
!	!	!	!	!	!	!	!LO:LB:g=original	!	!	!	!	!LO:LB:g=original	!	!	!	!	!	!	!	!	!	!	!
=80	=80	=80	=80	=80	=80	=80	=80	=80	=80	=80	=80	=80	=80	=80	=80	=80	=80	=80	=80	=80	=80	=80	=80
8G\L	.	.	.	16b 16d/LL	.	.	16b\LL	.	.	2G\	Nu-	2G/	Nu-	2b\	Nu-	2dd\	Nu-	4D\	.	4d/	4dd\	4b\	4dd\
.	.	.	.	16b 16d/	.	.	16cc#\	.	.	.	.	.	.	.	.	.	.	.	.	.	.	.	.
8G\	.	.	.	16b 16d/	.	.	16dd\	.	.	.	.	.	.	.	.	.	.	.	.	.	.	.	.
.	.	.	.	16b 16d/	.	.	16cc#\JJ	.	.	.	.	.	.	.	.	.	.	.	.	.	.	.	.
8G\	.	.	.	16b 16d/	.	.	8dd\L	.	.	.	.	.	.	.	.	.	.	4r	.	4r	4r	4r	4r
.	.	.	.	16b 16d/	.	.	.	.	.	.	.	.	.	.	.	.	.	.	.	.	.	.	.
8G\J	.	.	.	16b 16d/	.	.	8b\J	.	.	.	.	.	.	.	.	.	.	.	.	.	.	.	.
.	.	.	.	16b 16d/JJ	.	.	.	.	.	.	.	.	.	.	.	.	.	.	.	.	.	.	.
8G\L	.	.	.	16b 16d/LL	.	.	16b\LL	.	.	2G\	-bes	2G/	-bes	2b\	-bes	2dd\	-bes	4D\	.	4d/	4dd\	4b\	4dd\
.	.	.	.	16b 16d/	.	.	16cc#\	.	.	.	.	.	.	.	.	.	.	.	.	.	.	.	.
8G\	.	.	.	16b 16d/	.	.	16dd\	.	.	.	.	.	.	.	.	.	.	.	.	.	.	.	.
.	.	.	.	16b 16d/	.	.	16cc#\JJ	.	.	.	.	.	.	.	.	.	.	.	.	.	.	.	.
8G\	.	.	.	16b 16d/	.	.	8dd\L	.	.	.	.	.	.	.	.	.	.	4r	.	4r	4r	4r	4r
.	.	.	.	16b 16d/	.	.	.	.	.	.	.	.	.	.	.	.	.	.	.	.	.	.	.
8G\J	.	.	.	16b 16d/	.	.	8b\J	.	.	.	.	.	.	.	.	.	.	.	.	.	.	.	.
.	.	.	.	16b 16d/JJ	.	.	.	.	.	.	.	.	.	.	.	.	.	.	.	.	.	.	.
!	!	!	!	!	!	!	!	!	!	!	!	!	!	!	!	!	!	!	!	!LO:LB:g=original	!	!	!
=81	=81	=81	=81	=81	=81	=81	=81	=81	=81	=81	=81	=81	=81	=81	=81	=81	=81	=81	=81	=81	=81	=81	=81
8F#\L	.	6	.	16a 16d/LL	.	.	16a\LL	.	.	2F#\	plu-	2D/	plu-	2a\	plu-	2dd\	plu-	4D\	.	4f#/	4dd\	4a\	4dd\
.	.	.	.	16a 16d/	.	.	16cc#\	.	.	.	.	.	.	.	.	.	.	.	.	.	.	.	.
8F#\	.	.	.	16a 16d/	.	.	16dd\	.	.	.	.	.	.	.	.	.	.	.	.	.	.	.	.
.	.	.	.	16a 16d/	.	.	16cc#\JJ	.	.	.	.	.	.	.	.	.	.	.	.	.	.	.	.
8F#\	.	.	.	16a 16d/	.	.	8dd\L	.	.	.	.	.	.	.	.	.	.	4r	.	4r	4r	4r	4r
.	.	.	.	16a 16d/	.	.	.	.	.	.	.	.	.	.	.	.	.	.	.	.	.	.	.
8F#\J	.	.	.	16a 16d/	.	.	8a\J	.	.	.	.	.	.	.	.	.	.	.	.	.	.	.	.
.	.	.	.	16a 16d/JJ	.	.	.	.	.	.	.	.	.	.	.	.	.	.	.	.	.	.	.
8F#\L	.	.	.	16a 16d/LL	.	.	16a\LL	.	.	2F#\	-ant	2F#/	-ant	2a\	-ant	2dd\	-ant	4D\	.	4f#/	4dd\	4a\	4dd\
.	.	.	.	16a 16d/	.	.	16cc#\	.	.	.	.	.	.	.	.	.	.	.	.	.	.	.	.
8F#\	.	.	.	16a 16d/	.	.	16dd\	.	.	.	.	.	.	.	.	.	.	.	.	.	.	.	.
.	.	.	.	16a 16d/	.	.	16cc#\JJ	.	.	.	.	.	.	.	.	.	.	.	.	.	.	.	.
8F#\	.	.	.	16a 16d/	.	.	8dd\L	.	.	.	.	.	.	.	.	.	.	4r	.	4r	4r	4r	4r
.	.	.	.	16a 16d/	.	.	.	.	.	.	.	.	.	.	.	.	.	.	.	.	.	.	.
8F#\J	.	.	.	16a 16d/	.	.	8a\J	.	.	.	.	.	.	.	.	.	.	.	.	.	.	.	.
.	.	.	.	16a 16d/JJ	.	.	.	.	.	.	.	.	.	.	.	.	.	.	.	.	.	.	.
*Xtremolo	*	*	*	*Xtremolo	*	*	*	*	*	*	*	*	*	*	*	*	*	*	*	*	*	*	*
!	!	!	!	!	!	!	!	!	!	!LO:LB:g=original	!	!	!	!	!	!	!	!	!	!	!	!	!
=82	=82	=82	=82	=82	=82	=82	=82	=82	=82	=82	=82	=82	=82	=82	=82	=82	=82	=82	=82	=82	=82	=82	=82
!	!	!	!	!	!	!	!	!	!	!	!	!	!	!	!	!	!	!LO:TX:a:t=2.	!	!	!	!	!
4E\	.	.	.	8g\L	.	.	8g\L	.	.	2E\	Ju-	4G\	Ju-	4cc#\	Ju-	1ee	Ju-	0r	.	0r	0r	0r	0r
.	.	.	.	16a\L	.	.	16a\L	.	.	.	.	.	.	.	.	.	.	.	.	.	.	.	.
.	.	.	.	16b\JJ	.	.	16b\JJ	.	.	.	.	.	.	.	.	.	.	.	.	.	.	.	.
4E\	.	.	.	16a\LL	.	.	16cc#\LL	.	.	.	.	4B\	.	4g\	.	.	.	.	.	.	.	.	.
.	.	.	.	16b\	.	.	16dd\	.	.	.	.	.	.	.	.	.	.	.	.	.	.	.	.
.	.	.	.	16cc#\	.	.	16ee\	.	.	.	.	.	.	.	.	.	.	.	.	.	.	.	.
.	.	.	.	16dd\JJ	.	.	16ff#\JJ	.	.	.	.	.	.	.	.	.	.	.	.	.	.	.	.
!	!	!	!	!LO:LB:g=original	!	!	!	!	!	!	!	!	!	!	!	!	!	!	!	!	!	!	!
4C#\	.	.	.	16ee\LL	.	.	16gg\LL	.	.	2C#\	.	2A\	.	2g\	.	.	.	.	.	.	.	.	.
.	.	.	.	16dd\	.	.	16ff#\	.	.	.	.	.	.	.	.	.	.	.	.	.	.	.	.
.	.	.	.	16cc#\	.	.	16ee\	.	.	.	.	.	.	.	.	.	.	.	.	.	.	.	.
.	.	.	.	16b\JJ	.	.	16dd\JJ	.	.	.	.	.	.	.	.	.	.	.	.	.	.	.	.
4C#\	.	.	.	16a/LL	.	.	16cc#\LL	.	.	.	.	.	.	.	.	.	.	.	.	.	.	.	.
.	.	.	.	16g/	.	.	16b\	.	.	.	.	.	.	.	.	.	.	.	.	.	.	.	.
.	.	.	.	16f#/	.	.	16a\	.	.	.	.	.	.	.	.	.	.	.	.	.	.	.	.
.	.	.	.	16e/JJ	.	.	16g\JJ	.	.	.	.	.	.	.	.	.	.	.	.	.	.	.	.
=83	=83	=83	=83	=83	=83	=83	=83	=83	=83	=83	=83	=83	=83	=83	=83	=83	=83	=83	=83	=83	=83	=83	=83
4D\	.	.	.	16f#\LL	.	.	16f#/LL	.	.	4D\	-stum	4A\	-stum	4f#\	-stum	4dd\	-stum	.	.	.	.	.	.
.	.	.	.	16a\	.	.	16a/	.	.	.	.	.	.	.	.	.	.	.	.	.	.	.	.
.	.	.	.	16b\	.	.	16b/	.	.	.	.	.	.	.	.	.	.	.	.	.	.	.	.
.	.	.	.	16cc#\JJ	.	.	16cc#/JJ	.	.	.	.	.	.	.	.	.	.	.	.	.	.	.	.
4D\	.	.	.	16dd\LL	.	.	16dd\LL	.	.	4r	.	4r	.	4r	.	4r	.	.	.	.	.	.	.
.	.	.	.	16ee\	.	.	16ee\	.	.	.	.	.	.	.	.	.	.	.	.	.	.	.	.
.	.	.	.	16ff#\	.	.	16ff#\	.	.	.	.	.	.	.	.	.	.	.	.	.	.	.	.
.	.	.	.	16gg\JJ	.	.	16gg\JJ	.	.	.	.	.	.	.	.	.	.	.	.	.	.	.	.
4F#\	.	.	.	16aa\LL	.	.	16aa\LL	.	.	2r	.	2r	.	2r	.	2r	.	.	.	.	.	.	.
.	.	.	.	16bb\	.	.	16bb\	.	.	.	.	.	.	.	.	.	.	.	.	.	.	.	.
.	.	.	.	16ccc#\	.	.	16ccc#\	.	.	.	.	.	.	.	.	.	.	.	.	.	.	.	.
.	.	.	.	16ddd\JJ	.	.	16ddd\JJ	.	.	.	.	.	.	.	.	.	.	.	.	.	.	.	.
4G\	.	.	.	16ddd\LL	.	.	16ddd\LL	.	.	.	.	.	.	.	.	.	.	.	.	.	.	.	.
.	.	.	.	16bb\	.	.	16bb\	.	.	.	.	.	.	.	.	.	.	.	.	.	.	.	.
.	.	.	.	16aa\	.	.	16aa\	.	.	.	.	.	.	.	.	.	.	.	.	.	.	.	.
.	.	.	.	16gg\JJ	.	.	16gg\JJ	.	.	.	.	.	.	.	.	.	.	.	.	.	.	.	.
!	!	!	!	!	!	!	!	!	!	!	!	!	!	!LO:LB:g=original	!	!	!	!	!	!	!	!	!
=84	=84	=84	=84	=84	=84	=84	=84	=84	=84	=84	=84	=84	=84	=84	=84	=84	=84	=84	=84	=84	=84	=84	=84
*	*	*	*	*^	*	*	*	*	*	*	*	*	*	*	*	*	*	*	*	*	*	*	*
*	*	*	*	*tremolo	*	*	*	*	*	*	*	*	*	*	*	*	*	*	*	*	*	*	*	*
4A\	.	.	.	16ff#/LL	16dd\LL	.	.	8ff#\L	.	.	2A\	Ju-	2d\	Ju-	1a	Ju-	2ff#\	Ju-	2DTT\	.	2dd\	2ff#\	2dd\	2ff#\
.	.	.	.	16ff#/	16dd\	.	.	.	.	.	.	.	.	.	.	.	.	.	.	.	.	.	.	.
.	.	.	.	16ff#/	16dd\	.	.	16ddd\L	.	.	.	.	.	.	.	.	.	.	.	.	.	.	.	.
.	.	.	.	16ff#/	16dd\	.	.	16ff#\JJ	.	.	.	.	.	.	.	.	.	.	.	.	.	.	.	.
4A\	.	.	.	16ff#/	16dd\	.	.	16ddd\LL	.	.	.	.	.	.	.	.	.	.	.	.	.	.	.	.
.	.	.	.	16ff#/	16dd\	.	.	16ff#\	.	.	.	.	.	.	.	.	.	.	.	.	.	.	.	.
.	.	.	.	16ff#/	16dd\	.	.	16ddd\	.	.	.	.	.	.	.	.	.	.	.	.	.	.	.	.
.	.	.	.	16ff#/JJ	16dd\JJ	.	.	16ff#\JJ	.	.	.	.	.	.	.	.	.	.	.	.	.	.	.	.
!	!	!	!	!	!	!	!	!LO:LB:g=original	!	!	!	!	!	!	!	!	!	!	!	!	!	!	!LO:SIC:v:s=2cc#\	!
4AA/	.	.	.	16ee/LL	16cc#\LL	.	.	8ee\L	.	.	2AA/	.	2c#\	.	.	.	2ee\	.	2AATTT/	.	2a/	2ee\	2cc\	2ee\
.	.	.	.	16ee/	16cc#\	.	.	.	.	.	.	.	.	.	.	.	.	.	.	.	.	.	.	.
.	.	.	.	16ee/	16cc#\	.	.	16ccc#\L	.	.	.	.	.	.	.	.	.	.	.	.	.	.	.	.
.	.	.	.	16ee/	16cc#\	.	.	16ee\JJ	.	.	.	.	.	.	.	.	.	.	.	.	.	.	.	.
4AA/	.	.	.	16ee/	16cc#\	.	.	16ccc#\LL	.	.	.	.	.	.	.	.	.	.	.	.	.	.	.	.
.	.	.	.	16ee/	16cc#\	.	.	16ee\	.	.	.	.	.	.	.	.	.	.	.	.	.	.	.	.
.	.	.	.	16ee/	16cc#\	.	.	16ccc#\	.	.	.	.	.	.	.	.	.	.	.	.	.	.	.	.
.	.	.	.	16ee/JJ	16cc#\JJ	.	.	16ee\JJ	.	.	.	.	.	.	.	.	.	.	.	.	.	.	.	.
*	*	*	*	*	*Xtremolo	*	*	*	*	*	*	*	*	*	*	*	*	*	*	*	*	*	*	*
=85	=85	=85	=85	=85	=85	=85	=85	=85	=85	=85	=85	=85	=85	=85	=85	=85	=85	=85	=85	=85	=85	=85	=85	=85
!LO:TX:a:i:t=Solo	!	!	!LO:DY:t=pia.	!	!	!	!LO:DY:t=piano.	!	!	!LO:DY:t=pia.	!	!	!	!	!	!	!	!	!	!	!LO:TX:a:i:t=Solo	!LO:TX:a:i:t=Solo.	!LO:TX:a:i:t=Solo	!LO:TX:a:i:t=Solo.:rj
4D'\	.	.	p	4ff#/	4dd\	.	p	4ddd 4ff#\	.	p	4D\	-stum	4d\	-stum	4a\	-stum	4ee\	-stum	4D\	.	4f#/	4dd\	4dd\	4ff#\
4r	.	.	.	4r	4ryy	.	.	4r	.	.	4r	.	4r	.	4r	.	4r	.	4r	.	8dd\L	8ff#\L	8dd\L	8ff#\L
.	.	.	.	.	.	.	.	.	.	.	.	.	.	.	.	.	.	.	.	.	8ee\J	8gg\J	8ee\J	8gg\J
!	!	!	!	!	!	!	!	!	!	!	!	!	!	!	!	!	!	!	!	!	!	!	!LO:SIC:v:s=4ff#\	!
4D'\	.	.	.	4d/	2ryy	.	.	4d/	.	.	2r	.	2r	.	2r	.	2r	.	2r	.	4ff#\	4aa\	4ff\	4aa\
4r	.	.	.	4r	.	.	.	4r	.	.	.	.	.	.	.	.	.	.	.	.	8dd\L	8ff#\L	8dd\L	8ff#\L
.	.	.	.	.	.	.	.	.	.	.	.	.	.	.	.	.	.	.	.	.	8ee\J	8gg\J	8ee\J	8gg\J
*	*	*	*	*v	*v	*	*	*	*	*	*	*	*	*	*	*	*	*	*	*	*	*	*	*
=86	=86	=86	=86	=86	=86	=86	=86	=86	=86	=86	=86	=86	=86	=86	=86	=86	=86	=86	=86	=86	=86	=86	=86
!	!	!	!	!	!	!	!	!	!	!	!	!	!	!	!	!	!	!LO:TX:a:t=3.	!	!	!	!LO:SIC:v:s=4ff#\	!
4D'\	.	.	.	4d/	.	.	4d/	.	.	0r	.	0r	.	0r	.	0r	.	0r	.	4ff#\	4aa\	4ff\	4aa\
4D'\	.	.	.	4d/	.	.	4d/	.	.	.	.	.	.	.	.	.	.	.	.	8bb\L	8ddd\L	8bb\L	8ddd\L
.	.	.	.	.	.	.	.	.	.	.	.	.	.	.	.	.	.	.	.	8aa\J	8ccc#\J	8aa\J	8ccc#\J
4D'\	.	.	.	4d/	.	.	4d/	.	.	.	.	.	.	.	.	.	.	.	.	8gg\L	8bb\L	8gg\L	8bb\L
!	!	!	!	!	!	!	!	!	!	!	!	!	!	!	!	!	!	!	!	!	!	!LO:SIC:v:s=8ff#\	!
.	.	.	.	.	.	.	.	.	.	.	.	.	.	.	.	.	.	.	.	8ff#\	8aa\	8ff\	8aa\
4D'\	.	.	.	4d/	.	.	4d/	.	.	.	.	.	.	.	.	.	.	.	.	8ee\	8gg\	8ee\	8gg\
.	.	.	.	.	.	.	.	.	.	.	.	.	.	.	.	.	.	.	.	8dd\J	8ff#\J	8dd\J	8ff#\J
!	!	!	!	!	!	!	!	!	!	!	!	!	!	!	!	!	!	!	!	!	!LO:LB:g=original	!LO:LB:g=original	!
=87	=87	=87	=87	=87	=87	=87	=87	=87	=87	=87	=87	=87	=87	=87	=87	=87	=87	=87	=87	=87	=87	=87	=87
4AA/	.	.	.	4A/	.	.	4A/	.	.	.	.	.	.	.	.	.	.	.	.	4ee\	4gg\	4ee\	4gg\
!	!	!	!	!	!	!	!	!	!	!	!	!	!	!	!	!	!	!	!	!	!	!LO:SIC:v:s=8cc#\L	!
4r	.	.	.	4r	.	.	4r	.	.	.	.	.	.	.	.	.	.	.	.	8a\L	8ee\L	8cc\L	8ee\L
.	.	.	.	.	.	.	.	.	.	.	.	.	.	.	.	.	.	.	.	8dd\J	8ff#\J	8dd\J	8ff#\J
4AA/	.	.	.	4A/	.	.	4A/	.	.	.	.	.	.	.	.	.	.	.	.	4ee\	4gg\	4ee\	4gg\
!	!	!	!	!	!	!	!	!	!	!	!	!	!	!	!	!	!	!	!	!	!	!LO:SIC:v:s=8cc#\L	!
4r	.	.	.	4r	.	.	4r	.	.	.	.	.	.	.	.	.	.	.	.	8a\L	8ee\L	8cc\L	8ee\L
.	.	.	.	.	.	.	.	.	.	.	.	.	.	.	.	.	.	.	.	8dd\J	8ff#\J	8dd\J	8ff#\J
!	!	!	!	!	!	!	!	!	!	!	!	!	!	!	!	!	!	!	!	!	!	!	!LO:LB:g=original
=88	=88	=88	=88	=88	=88	=88	=88	=88	=88	=88	=88	=88	=88	=88	=88	=88	=88	=88	=88	=88	=88	=88	=88
4AA/	.	.	.	4A/	.	.	4A/	.	.	1r	.	1r	.	1r	.	1r	.	1r	.	4ee\	4gg\	4ee\	4gg\
!	!	!	!	!	!	!	!	!	!	!	!	!	!	!	!	!	!	!	!	!	!	!LO:SIC:v:s=8ccc#\L	!
4AA/	.	.	.	4A/	.	.	4A/	.	.	.	.	.	.	.	.	.	.	.	.	8ccc#\L	8eee\L	8ccc\L	8eee\L
.	.	.	.	.	.	.	.	.	.	.	.	.	.	.	.	.	.	.	.	8bb\J	8ddd\J	8bb\J	8ddd\J
4AA/	.	.	.	4A/	.	.	4A/	.	.	.	.	.	.	.	.	.	.	.	.	8aa\L	8ccc#\L	8aa\L	8ccc#\L
.	.	.	.	.	.	.	.	.	.	.	.	.	.	.	.	.	.	.	.	8gg\	8bb\	8gg\	8bb\
!	!	!	!	!	!	!	!	!	!	!	!	!	!	!	!	!	!	!	!	!	!	!LO:SIC:v:s=8ff#\	!
4AA/	.	.	.	4A/	.	.	4A/	.	.	.	.	.	.	.	.	.	.	.	.	8ff#\	8aa\	8ff\	8aa\
.	.	.	.	.	.	.	.	.	.	.	.	.	.	.	.	.	.	.	.	8ee\J	8gg\J	8ee\J	8gg\J
!LO:LB:g=original	!	!	!	!LO:PB:g=original	!	!	!	!	!	!	!	!	!	!	!	!	!	!	!	!	!	!	!
=89	=89	=89	=89	=89	=89	=89	=89	=89	=89	=89	=89	=89	=89	=89	=89	=89	=89	=89	=89	=89	=89	=89	=89
*	*	*	*	*^	*	*	*	*	*	*	*	*	*	*	*	*	*	*	*	*	*	*	*
*	*	*	*	*tremolo	*	*	*	*	*	*	*	*	*	*	*	*	*	*	*	*	*	*	*	*
!LO:TX:a:i:t=Tutti	!	!	!LO:DY:t=for	!	!	!	!LO:DY:t=for&colon;	!LO:TX:t=P:problem=mixed beam	!	!LO:DY:t=forte	!	!	!	!	!	!	!	!	!	!	!LO:TX:a:i:t=Tutti	!LO:TX:a:i:t=Tutti	!LO:TX:a:i:t=Tutti	!LO:TX:a:i:t=Tutti
8D\L	.	.	f	16ff#/LL	16dd\LL	.	f	16d/LL	.	f	4D\	A-	4A\	a-	4f#\	A-	4dd\	A-	2DTT\	.	2dd\	2ff#\	4dd\	4ff#\
.	.	.	.	16ff#/	16dd\	.	.	16ff#\	.	.	.	.	.	.	.	.	.	.	.	.	.	.	.	.
8D\	.	.	.	16ff#/	16dd\	.	.	16ddd\	.	.	.	.	.	.	.	.	.	.	.	.	.	.	.	.
.	.	.	.	16ff#/	16dd\	.	.	16ff#\JJ	.	.	.	.	.	.	.	.	.	.	.	.	.	.	.	.
8D\	.	.	.	16ff#/	16dd\	.	.	16ddd\LL	.	.	8D\	-pe-	8A\	-pe-	8f#\	-pe-	8dd\	-pe-	.	.	.	.	4dd\	4ff#\
.	.	.	.	16ff#/	16dd\	.	.	16ff#\	.	.	.	.	.	.	.	.	.	.	.	.	.	.	.	.
8D\J	.	.	.	16ff#/	16dd\	.	.	16ddd\	.	.	8D\	-ri-	8A\	-ri-	8f#\	-ri-	8dd\	-ri-	.	.	.	.	.	.
.	.	.	.	16ff#/JJ	16dd\JJ	.	.	16ff#\JJ	.	.	.	.	.	.	.	.	.	.	.	.	.	.	.	.
!	!	!	!	!	!	!	!	!	!	!	!	!	!LO:LB:g=original	!	!	!	!LO:LB:g=original	!	!	!	!	!	!	!
8d\L	.	.	.	16ff#/LL	16dd\LL	.	.	16ddd\LL	.	.	4d\	-a-	4A\	-a-	4f#\	-a-	4dd\	-a-	2DTTT\	.	2dd\	2ff#\	2dd\	2ff#\
.	.	.	.	16ff#/	16dd\	.	.	16ff#\	.	.	.	.	.	.	.	.	.	.	.	.	.	.	.	.
8d\	.	.	.	16ff#/	16dd\	.	.	16ddd\	.	.	.	.	.	.	.	.	.	.	.	.	.	.	.	.
.	.	.	.	16ff#/	16dd\	.	.	16ff#\JJ	.	.	.	.	.	.	.	.	.	.	.	.	.	.	.	.
8d\	.	.	.	16ff#/	16dd\	.	.	16ddd\LL	.	.	4d\	-tur	4A\	-tur	4f#\	-tur	4dd\	-tur	.	.	.	.	.	.
.	.	.	.	16ff#/	16dd\	.	.	16ff#\	.	.	.	.	.	.	.	.	.	.	.	.	.	.	.	.
8d\J	.	.	.	16ff#/	16dd\	.	.	16ddd\	.	.	.	.	.	.	.	.	.	.	.	.	.	.	.	.
.	.	.	.	16ff#/JJ	16dd\JJ	.	.	16ff#\JJ	.	.	.	.	.	.	.	.	.	.	.	.	.	.	.	.
=90	=90	=90	=90	=90	=90	=90	=90	=90	=90	=90	=90	=90	=90	=90	=90	=90	=90	=90	=90	=90	=90	=90	=90	=90
8B\L	.	.	.	16ff#/LL	16dd\LL	.	.	16ddd\LL	.	.	2B\	Ter-	2B\	Ter-	2f#\	Ter-	2dd\	Ter-	2DTTT\	.	2dd\	2ff#\	4dd\	4ff#\
.	.	.	.	16ff#/	16dd\	.	.	16ff#\	.	.	.	.	.	.	.	.	.	.	.	.	.	.	.	.
8B\	.	.	.	16ff#/	16dd\	.	.	16ddd\	.	.	.	.	.	.	.	.	.	.	.	.	.	.	.	.
.	.	.	.	16ff#/	16dd\	.	.	16ff#\JJ	.	.	.	.	.	.	.	.	.	.	.	.	.	.	.	.
8B\	.	.	.	16ff#/	16dd\	.	.	16ddd\LL	.	.	.	.	.	.	.	.	.	.	.	.	.	.	4dd\	4ff#\
.	.	.	.	16ff#/	16dd\	.	.	16ff#\	.	.	.	.	.	.	.	.	.	.	.	.	.	.	.	.
8B\J	.	.	.	16ff#/	16dd\	.	.	16ddd\	.	.	.	.	.	.	.	.	.	.	.	.	.	.	.	.
.	.	.	.	16ff#/JJ	16dd\JJ	.	.	16ff#\JJ	.	.	.	.	.	.	.	.	.	.	.	.	.	.	.	.
*tremolo	*	*	*	*	*	*	*	*	*	*	*	*	*	*	*	*	*	*	*	*	*	*	*	*
8B\L	.	.	.	16ff#/LL	16dd\LL	.	.	16ddd\LL	.	.	4B\	-ra	4B\	-ra	4f#\	-ra	4dd\	-ra	2DTTT\	.	2dd\	2ff#\	2dd\	2ff#\
.	.	.	.	16ff#/	16dd\	.	.	16ff#\	.	.	.	.	.	.	.	.	.	.	.	.	.	.	.	.
8B\	.	.	.	16ff#/	16dd\	.	.	16ddd\	.	.	.	.	.	.	.	.	.	.	.	.	.	.	.	.
.	.	.	.	16ff#/	16dd\	.	.	16ff#\JJ	.	.	.	.	.	.	.	.	.	.	.	.	.	.	.	.
8B\	.	.	.	16ff#/	16dd\	.	.	16ddd\LL	.	.	4B\	et	4B\	et	4f#\	et	4dd\	et	.	.	.	.	.	.
.	.	.	.	16ff#/	16dd\	.	.	16ff#\	.	.	.	.	.	.	.	.	.	.	.	.	.	.	.	.
8B\J	.	.	.	16ff#/	16dd\	.	.	16ddd\	.	.	.	.	.	.	.	.	.	.	.	.	.	.	.	.
.	.	.	.	16ff#/JJ	16dd\JJ	.	.	16ff#\JJ	.	.	.	.	.	.	.	.	.	.	.	.	.	.	.	.
!	!	!	!	!	!	!	!	!LO:LB:g=original	!	!	!	!	!	!	!	!	!	!	!	!	!	!	!	!
=91	=91	=91	=91	=91	=91	=91	=91	=91	=91	=91	=91	=91	=91	=91	=91	=91	=91	=91	=91	=91	=91	=91	=91	=91
8G\L	.	.	.	16ee/LL	16dd\LL	.	.	16ddd\LL	.	.	4G\	ger-	4B\	ger-	4e\	ger-	4dd\	ger-	2r	.	2r	2r	4dd\	4ee\
.	.	.	.	16ee/	16dd\	.	.	16ee\	.	.	.	.	.	.	.	.	.	.	.	.	.	.	.	.
8G\	.	.	.	16ee/	16dd\	.	.	16ddd\	.	.	.	.	.	.	.	.	.	.	.	.	.	.	.	.
.	.	.	.	16ee/	16dd\	.	.	16ee\JJ	.	.	.	.	.	.	.	.	.	.	.	.	.	.	.	.
8G\	.	.	.	16ee/	16dd\	.	.	16ddd\LL	.	.	8G\	-mi-	8B\	-mi-	8e\	-mi-	8dd\	-mi-	.	.	.	.	4dd\	4ee\
.	.	.	.	16ee/	16dd\	.	.	16ee\	.	.	.	.	.	.	.	.	.	.	.	.	.	.	.	.
8G\J	.	.	.	16ee/	16dd\	.	.	16ddd\	.	.	8G\	-net	8B\	-net	8e\	-net	8dd\	-net	.	.	.	.	.	.
.	.	.	.	16ee/JJ	16dd\JJ	.	.	16ee\JJ	.	.	.	.	.	.	.	.	.	.	.	.	.	.	.	.
!	!	!	!	!	!	!	!	!	!	!	!	!	!	!	!	!	!	!	!	!	!	!	!LO:SIC:v:s=2cc#\	!
8A\L	.	.	.	16ee/LL	16cc#\LL	.	.	16ccc#\LL	.	.	4A\	Sal-	4A\	Sal-	4e\	Sal-	4cc#\	Sal-	2AATT/	.	2a/	2ee\	2cc\	2ee\
.	.	.	.	16ee/	16cc#\	.	.	16ee\	.	.	.	.	.	.	.	.	.	.	.	.	.	.	.	.
8A\	.	.	.	16ee/	16cc#\	.	.	16ccc#\	.	.	.	.	.	.	.	.	.	.	.	.	.	.	.	.
.	.	.	.	16ee/	16cc#\	.	.	16ee\JJ	.	.	.	.	.	.	.	.	.	.	.	.	.	.	.	.
8A\	.	.	.	16ee/	16cc#\	.	.	16ccc#\LL	.	.	4A\	-va-	4A\	-va-	4e\	-va-	4cc#\	-va-	.	.	.	.	.	.
.	.	.	.	16ee/	16cc#\	.	.	16ee\	.	.	.	.	.	.	.	.	.	.	.	.	.	.	.	.
8A\J	.	.	.	16ee/	16cc#\	.	.	16ccc#\	.	.	.	.	.	.	.	.	.	.	.	.	.	.	.	.
.	.	.	.	16ee/JJ	16cc#\JJ	.	.	16ee\JJ	.	.	.	.	.	.	.	.	.	.	.	.	.	.	.	.
*Xtremolo	*	*	*	*	*Xtremolo	*	*	*	*	*	*	*	*	*	*	*	*	*	*	*	*	*	*	*
!	!	!	!	!	!	!	!	!	!	!	!	!	!	!	!	!	!	!	!	!	!LO:LB:g=original	!	!	!
=92	=92	=92	=92	=92	=92	=92	=92	=92	=92	=92	=92	=92	=92	=92	=92	=92	=92	=92	=92	=92	=92	=92	=92	=92
4d\	.	.	.	4ff#/	4dd\	.	.	4ddd 4ff#\	.	.	4d\	-to-	1A	-to-	4f#\	-to-	4dd\	-to-	4D\	.	4dd\	4ff#\	4dd\	4ff#\
!	!	!	!	!	!	!	!	!	!	!	!	!	!	!	!	!	!	!	!	!	!	!	!LO:SIC:v:s=4cc#\	!
4A\	.	.	.	4ee/	4cc#\	.	.	4ccc# 4ee\	.	.	4A\	.	.	.	4e\	.	4cc#\	.	4AA/	.	4a/	4ee\	4cc\	4ee\
4d\	.	.	.	4ff#/	4dd\	.	.	4ddd 4ff#\	.	.	4d\	.	.	.	4f#\	.	4dd\	.	4D\	.	4dd\	4ff#\	4dd\	4ff#\
!	!	!	!	!	!	!	!	!	!	!	!	!	!	!	!	!	!	!	!	!	!	!	!LO:SIC:v:s=4cc#\	!
4A\	.	.	.	4ee/	4cc#\	.	.	4ccc# 4ee\	.	.	4A\	.	.	.	4e\	.	4cc#\	.	4AA/	.	4a/	4ee\	4cc\	4ee\
*	*	*	*	*v	*v	*	*	*	*	*	*	*	*	*	*	*	*	*	*	*	*	*	*	*
!	!	!	!	!	!	!	!	!	!	!	!	!	!	!	!	!	!	!LO:LB:g=original	!	!	!	!	!
=93	=93	=93	=93	=93	=93	=93	=93	=93	=93	=93	=93	=93	=93	=93	=93	=93	=93	=93	=93	=93	=93	=93	=93
4d\	.	.	.	4ff# 4a 4d/	.	.	4ddd 4ff#\	.	.	4d\	-rem	4A\	-rem.	4f#\	-rem.	4dd\	-rem.	4D\	.	4dd\	4ff#\	4dd\	4ff#\
4d\	.	.	.	4ff# 4a 4d/	.	.	4ddd 4ff#\	.	.	4r	.	4r	.	4r	.	4r	.	4D\	.	4dd\	4ff#\	4dd\	4ff#\
4d\	.	.	.	4ff# 4a 4d/	.	.	4ddd 4ff#\	.	.	2r	.	2r	.	2r	.	2r	.	4D\	.	4dd\	4ff#\	4dd\	4ff#\
4r	.	.	.	4r	.	.	4r	.	.	.	.	.	.	.	.	.	.	4r	.	4r	4r	4r	4r
==	==	==	==	==	==	==	==	==	==	==	==	==	==	==	==	==	==	==	==	==	==	==	==
*-	*-	*-	*-	*-	*-	*-	*-	*-	*-	*-	*-	*-	*-	*-	*-	*-	*-	*-	*-	*-	*-	*-	*-
!!!system-decoration: [(g1)][(g2)]<s5>[(g3)][(g4)]<s12>
!!!RDF**kern: > = above
!!!RDF**kern: < = below
!!!RDF**kern: | = vertical stroke
!!!RDF**dynam: p = "p:"
!!!RDF**dynam: f = "f:"
!!!ENC: Kamil Watkowski
!!!END: 2020-09-11
!!!ENC: Andrzej Kubiczek
!!!END: 2022-01-27
